(Exported by FreeCAD)
(Post Processor: grbl_post)
(Output Time:2020-12-04 10:34:44.726655)
(Begin preamble)
G17 G90
G21
(Begin operation: Fixture)
(Path: Fixture)
G54
(Finish operation: Fixture)
(Begin operation: TC: Default Tool001)
(Path: TC: Default Tool001)
(TC: Default Tool001)
(Begin toolchange)
( M6 T1.0 )
M3 S24000.0
(Finish operation: TC: Default Tool001)
(Begin operation: Helix001)
(Path: Helix001)
(Helix001)
(helix cut operation)
G0 Z5.000
G0 X21.050 Y21.000
G0 Z3.000
G1 Z0.000 F100.000
G2 X20.950 Y21.000 Z-0.250 I-0.050 J0.000 F1000.000
G2 X21.050 Y21.000 Z-0.500 I0.050 J0.000 F1000.000
G2 X20.950 Y21.000 Z-0.750 I-0.050 J0.000 F1000.000
G2 X21.050 Y21.000 Z-1.000 I0.050 J0.000 F1000.000
G2 X20.950 Y21.000 Z-1.000 I-0.050 J0.000 F1000.000
G2 X21.050 Y21.000 Z-1.000 I0.050 J0.000 F1000.000
G0 Z3.000
G0 X219.250 Y38.000
G0 Z3.000
G1 Z0.000 F100.000
G2 X215.150 Y38.000 Z-0.250 I-2.050 J0.000 F1000.000
G2 X219.250 Y38.000 Z-0.500 I2.050 J0.000 F1000.000
G2 X215.150 Y38.000 Z-0.750 I-2.050 J0.000 F1000.000
G2 X219.250 Y38.000 Z-1.000 I2.050 J0.000 F1000.000
G2 X215.150 Y38.000 Z-1.000 I-2.050 J0.000 F1000.000
G2 X219.250 Y38.000 Z-1.000 I2.050 J0.000 F1000.000
G0 Z3.000
G0 X331.050 Y21.000
G0 Z3.000
G1 Z0.000 F100.000
G2 X330.950 Y21.000 Z-0.250 I-0.050 J0.000 F1000.000
G2 X331.050 Y21.000 Z-0.500 I0.050 J0.000 F1000.000
G2 X330.950 Y21.000 Z-0.750 I-0.050 J0.000 F1000.000
G2 X331.050 Y21.000 Z-1.000 I0.050 J0.000 F1000.000
G2 X330.950 Y21.000 Z-1.000 I-0.050 J0.000 F1000.000
G2 X331.050 Y21.000 Z-1.000 I0.050 J0.000 F1000.000
G0 Z3.000
G0 X331.050 Y491.000
G0 Z3.000
G1 Z0.000 F100.000
G2 X330.950 Y491.000 Z-0.250 I-0.050 J0.000 F1000.000
G2 X331.050 Y491.000 Z-0.500 I0.050 J0.000 F1000.000
G2 X330.950 Y491.000 Z-0.750 I-0.050 J0.000 F1000.000
G2 X331.050 Y491.000 Z-1.000 I0.050 J0.000 F1000.000
G2 X330.950 Y491.000 Z-1.000 I-0.050 J0.000 F1000.000
G2 X331.050 Y491.000 Z-1.000 I0.050 J0.000 F1000.000
G0 Z3.000
G0 X331.050 Y531.000
G0 Z3.000
G1 Z0.000 F100.000
G2 X330.950 Y531.000 Z-0.250 I-0.050 J0.000 F1000.000
G2 X331.050 Y531.000 Z-0.500 I0.050 J0.000 F1000.000
G2 X330.950 Y531.000 Z-0.750 I-0.050 J0.000 F1000.000
G2 X331.050 Y531.000 Z-1.000 I0.050 J0.000 F1000.000
G2 X330.950 Y531.000 Z-1.000 I-0.050 J0.000 F1000.000
G2 X331.050 Y531.000 Z-1.000 I0.050 J0.000 F1000.000
G0 Z3.000
G0 X219.250 Y501.000
G0 Z3.000
G1 Z0.000 F100.000
G2 X215.150 Y501.000 Z-0.250 I-2.050 J0.000 F1000.000
G2 X219.250 Y501.000 Z-0.500 I2.050 J0.000 F1000.000
G2 X215.150 Y501.000 Z-0.750 I-2.050 J0.000 F1000.000
G2 X219.250 Y501.000 Z-1.000 I2.050 J0.000 F1000.000
G2 X215.150 Y501.000 Z-1.000 I-2.050 J0.000 F1000.000
G2 X219.250 Y501.000 Z-1.000 I2.050 J0.000 F1000.000
G0 Z3.000
G0 X21.050 Y491.000
G0 Z3.000
G1 Z0.000 F100.000
G2 X20.950 Y491.000 Z-0.250 I-0.050 J0.000 F1000.000
G2 X21.050 Y491.000 Z-0.500 I0.050 J0.000 F1000.000
G2 X20.950 Y491.000 Z-0.750 I-0.050 J0.000 F1000.000
G2 X21.050 Y491.000 Z-1.000 I0.050 J0.000 F1000.000
G2 X20.950 Y491.000 Z-1.000 I-0.050 J0.000 F1000.000
G2 X21.050 Y491.000 Z-1.000 I0.050 J0.000 F1000.000
G0 Z3.000
G0 X21.050 Y531.000
G0 Z3.000
G1 Z0.000 F100.000
G2 X20.950 Y531.000 Z-0.250 I-0.050 J0.000 F1000.000
G2 X21.050 Y531.000 Z-0.500 I0.050 J0.000 F1000.000
G2 X20.950 Y531.000 Z-0.750 I-0.050 J0.000 F1000.000
G2 X21.050 Y531.000 Z-1.000 I0.050 J0.000 F1000.000
G2 X20.950 Y531.000 Z-1.000 I-0.050 J0.000 F1000.000
G2 X21.050 Y531.000 Z-1.000 I0.050 J0.000 F1000.000
G0 Z3.000
(Finish operation: Helix001)
(Begin postamble)
M5
G17 G90
M2
