(Exported by FreeCAD)
(Post Processor: grbl_post)
(Output Time:2020-12-04 09:54:30.375651)
(Begin preamble)
G17 G90
G21
(Begin operation: Fixture)
(Path: Fixture)
G54
(Finish operation: Fixture)
(Begin operation: TC: Default Tool)
(Path: TC: Default Tool)
(TC: Default Tool)
(Begin toolchange)
( M6 T1.0 )
M3 S24000.0
(Finish operation: TC: Default Tool)
(Begin operation: Helix)
(Path: Helix)
(Helix)
(helix cut operation)
G0 Z5.000
G0 X218.700 Y38.000
G0 Z3.000
G1 Z0.000 F100.000
G2 X215.700 Y38.000 Z-1.833 I-1.500 J0.000 F1000.000
G2 X218.700 Y38.000 Z-3.667 I1.500 J0.000 F1000.000
G2 X215.700 Y38.000 Z-5.500 I-1.500 J0.000 F1000.000
G2 X218.700 Y38.000 Z-7.333 I1.500 J0.000 F1000.000
G2 X215.700 Y38.000 Z-9.167 I-1.500 J0.000 F1000.000
G2 X218.700 Y38.000 Z-11.000 I1.500 J0.000 F1000.000
G2 X215.700 Y38.000 Z-11.000 I-1.500 J0.000 F1000.000
G2 X218.700 Y38.000 Z-11.000 I1.500 J0.000 F1000.000
G0 Z3.000
G0 X218.700 Y501.000
G0 Z3.000
G1 Z0.000 F100.000
G2 X215.700 Y501.000 Z-1.833 I-1.500 J0.000 F1000.000
G2 X218.700 Y501.000 Z-3.667 I1.500 J0.000 F1000.000
G2 X215.700 Y501.000 Z-5.500 I-1.500 J0.000 F1000.000
G2 X218.700 Y501.000 Z-7.333 I1.500 J0.000 F1000.000
G2 X215.700 Y501.000 Z-9.167 I-1.500 J0.000 F1000.000
G2 X218.700 Y501.000 Z-11.000 I1.500 J0.000 F1000.000
G2 X215.700 Y501.000 Z-11.000 I-1.500 J0.000 F1000.000
G2 X218.700 Y501.000 Z-11.000 I1.500 J0.000 F1000.000
G0 Z3.000
(Finish operation: Helix)
(Begin operation: Adaptive)
(Path: Adaptive)
(Adaptive)
(Helix to depth: -5.000000)
G0 X68.263 Y385.297 Z5.000
G0 X68.263 Y385.297 Z3.000
G1 X68.263 Y385.297 Z0.000 F100.000
G1 X68.263 Y385.297 Z0.000 F100.000
G1 X68.508 Y385.569 Z-0.032 F100.000
G1 X68.695 Y385.883 Z-0.064 F100.000
G1 X68.817 Y386.228 Z-0.097 F100.000
G1 X68.869 Y386.589 Z-0.129 F100.000
G1 X68.850 Y386.954 Z-0.161 F100.000
G1 X68.760 Y387.309 Z-0.193 F100.000
G1 X68.603 Y387.639 Z-0.225 F100.000
G1 X68.384 Y387.932 Z-0.258 F100.000
G1 X68.113 Y388.176 Z-0.290 F100.000
G1 X67.798 Y388.363 Z-0.322 F100.000
G1 X67.454 Y388.486 Z-0.354 F100.000
G1 X67.092 Y388.538 Z-0.387 F100.000
G1 X66.727 Y388.519 Z-0.419 F100.000
G1 X66.372 Y388.429 Z-0.451 F100.000
G1 X66.042 Y388.272 Z-0.483 F100.000
G1 X65.749 Y388.053 Z-0.515 F100.000
G1 X65.505 Y387.781 Z-0.548 F100.000
G1 X65.318 Y387.467 Z-0.580 F100.000
G1 X65.196 Y387.122 Z-0.612 F100.000
G1 X65.143 Y386.761 Z-0.644 F100.000
G1 X65.162 Y386.396 Z-0.676 F100.000
G1 X65.252 Y386.041 Z-0.709 F100.000
G1 X65.410 Y385.711 Z-0.741 F100.000
G1 X65.628 Y385.418 Z-0.773 F100.000
G1 X65.900 Y385.174 Z-0.805 F100.000
G1 X66.214 Y384.987 Z-0.837 F100.000
G1 X66.559 Y384.864 Z-0.870 F100.000
G1 X66.921 Y384.812 Z-0.902 F100.000
G1 X67.286 Y384.831 Z-0.934 F100.000
G1 X67.640 Y384.921 Z-0.966 F100.000
G1 X67.970 Y385.078 Z-0.998 F100.000
G1 X68.263 Y385.297 Z-1.031 F100.000
G1 X68.508 Y385.569 Z-1.063 F100.000
G1 X68.695 Y385.883 Z-1.095 F100.000
G1 X68.817 Y386.228 Z-1.127 F100.000
G1 X68.869 Y386.589 Z-1.160 F100.000
G1 X68.850 Y386.954 Z-1.192 F100.000
G1 X68.760 Y387.309 Z-1.224 F100.000
G1 X68.603 Y387.639 Z-1.256 F100.000
G1 X68.384 Y387.932 Z-1.288 F100.000
G1 X68.113 Y388.176 Z-1.321 F100.000
G1 X67.798 Y388.363 Z-1.353 F100.000
G1 X67.454 Y388.486 Z-1.385 F100.000
G1 X67.092 Y388.538 Z-1.417 F100.000
G1 X66.727 Y388.519 Z-1.449 F100.000
G1 X66.372 Y388.429 Z-1.482 F100.000
G1 X66.042 Y388.272 Z-1.514 F100.000
G1 X65.749 Y388.053 Z-1.546 F100.000
G1 X65.505 Y387.781 Z-1.578 F100.000
G1 X65.318 Y387.467 Z-1.610 F100.000
G1 X65.196 Y387.122 Z-1.643 F100.000
G1 X65.143 Y386.761 Z-1.675 F100.000
G1 X65.162 Y386.396 Z-1.707 F100.000
G1 X65.252 Y386.041 Z-1.739 F100.000
G1 X65.410 Y385.711 Z-1.772 F100.000
G1 X65.628 Y385.418 Z-1.804 F100.000
G1 X65.900 Y385.174 Z-1.836 F100.000
G1 X66.214 Y384.987 Z-1.868 F100.000
G1 X66.559 Y384.864 Z-1.900 F100.000
G1 X66.921 Y384.812 Z-1.933 F100.000
G1 X67.286 Y384.831 Z-1.965 F100.000
G1 X67.640 Y384.921 Z-1.997 F100.000
G1 X67.970 Y385.078 Z-2.029 F100.000
G1 X68.263 Y385.297 Z-2.061 F100.000
G1 X68.508 Y385.569 Z-2.094 F100.000
G1 X68.695 Y385.883 Z-2.126 F100.000
G1 X68.817 Y386.228 Z-2.158 F100.000
G1 X68.869 Y386.589 Z-2.190 F100.000
G1 X68.850 Y386.954 Z-2.222 F100.000
G1 X68.760 Y387.309 Z-2.255 F100.000
G1 X68.603 Y387.639 Z-2.287 F100.000
G1 X68.384 Y387.932 Z-2.319 F100.000
G1 X68.113 Y388.176 Z-2.351 F100.000
G1 X67.798 Y388.363 Z-2.383 F100.000
G1 X67.454 Y388.486 Z-2.416 F100.000
G1 X67.092 Y388.538 Z-2.448 F100.000
G1 X66.727 Y388.519 Z-2.480 F100.000
G1 X66.372 Y388.429 Z-2.512 F100.000
G1 X66.042 Y388.272 Z-2.545 F100.000
G1 X65.749 Y388.053 Z-2.577 F100.000
G1 X65.505 Y387.781 Z-2.609 F100.000
G1 X65.318 Y387.467 Z-2.641 F100.000
G1 X65.196 Y387.122 Z-2.673 F100.000
G1 X65.143 Y386.761 Z-2.706 F100.000
G1 X65.162 Y386.396 Z-2.738 F100.000
G1 X65.252 Y386.041 Z-2.770 F100.000
G1 X65.410 Y385.711 Z-2.802 F100.000
G1 X65.628 Y385.418 Z-2.834 F100.000
G1 X65.900 Y385.174 Z-2.867 F100.000
G1 X66.214 Y384.987 Z-2.899 F100.000
G1 X66.559 Y384.864 Z-2.931 F100.000
G1 X66.921 Y384.812 Z-2.963 F100.000
G1 X67.286 Y384.831 Z-2.995 F100.000
G1 X67.640 Y384.921 Z-3.028 F100.000
G1 X67.970 Y385.078 Z-3.060 F100.000
G1 X68.263 Y385.297 Z-3.092 F100.000
G1 X68.508 Y385.569 Z-3.124 F100.000
G1 X68.695 Y385.883 Z-3.157 F100.000
G1 X68.817 Y386.228 Z-3.189 F100.000
G1 X68.869 Y386.589 Z-3.221 F100.000
G1 X68.850 Y386.954 Z-3.253 F100.000
G1 X68.760 Y387.309 Z-3.285 F100.000
G1 X68.603 Y387.639 Z-3.318 F100.000
G1 X68.384 Y387.932 Z-3.350 F100.000
G1 X68.113 Y388.176 Z-3.382 F100.000
G1 X67.798 Y388.363 Z-3.414 F100.000
G1 X67.454 Y388.486 Z-3.446 F100.000
G1 X67.092 Y388.538 Z-3.479 F100.000
G1 X66.727 Y388.519 Z-3.511 F100.000
G1 X66.372 Y388.429 Z-3.543 F100.000
G1 X66.042 Y388.272 Z-3.575 F100.000
G1 X65.749 Y388.053 Z-3.607 F100.000
G1 X65.505 Y387.781 Z-3.640 F100.000
G1 X65.318 Y387.467 Z-3.672 F100.000
G1 X65.196 Y387.122 Z-3.704 F100.000
G1 X65.143 Y386.761 Z-3.736 F100.000
G1 X65.162 Y386.396 Z-3.769 F100.000
G1 X65.252 Y386.041 Z-3.801 F100.000
G1 X65.410 Y385.711 Z-3.833 F100.000
G1 X65.628 Y385.418 Z-3.865 F100.000
G1 X65.900 Y385.174 Z-3.897 F100.000
G1 X66.214 Y384.987 Z-3.930 F100.000
G1 X66.559 Y384.864 Z-3.962 F100.000
G1 X66.921 Y384.812 Z-3.994 F100.000
G1 X67.286 Y384.831 Z-4.026 F100.000
G1 X67.640 Y384.921 Z-4.058 F100.000
G1 X67.970 Y385.078 Z-4.091 F100.000
G1 X68.263 Y385.297 Z-4.123 F100.000
G1 X68.508 Y385.569 Z-4.155 F100.000
G1 X68.695 Y385.883 Z-4.187 F100.000
G1 X68.817 Y386.228 Z-4.219 F100.000
G1 X68.869 Y386.589 Z-4.252 F100.000
G1 X68.850 Y386.954 Z-4.284 F100.000
G1 X68.760 Y387.309 Z-4.316 F100.000
G1 X68.603 Y387.639 Z-4.348 F100.000
G1 X68.384 Y387.932 Z-4.380 F100.000
G1 X68.113 Y388.176 Z-4.413 F100.000
G1 X67.798 Y388.363 Z-4.445 F100.000
G1 X67.454 Y388.486 Z-4.477 F100.000
G1 X67.092 Y388.538 Z-4.509 F100.000
G1 X66.727 Y388.519 Z-4.542 F100.000
G1 X66.372 Y388.429 Z-4.574 F100.000
G1 X66.042 Y388.272 Z-4.606 F100.000
G1 X65.749 Y388.053 Z-4.638 F100.000
G1 X65.505 Y387.781 Z-4.670 F100.000
G1 X65.318 Y387.467 Z-4.703 F100.000
G1 X65.196 Y387.122 Z-4.735 F100.000
G1 X65.143 Y386.761 Z-4.767 F100.000
G1 X65.162 Y386.396 Z-4.799 F100.000
G1 X65.252 Y386.041 Z-4.831 F100.000
G1 X65.410 Y385.711 Z-4.864 F100.000
G1 X65.628 Y385.418 Z-4.896 F100.000
G1 X65.900 Y385.174 Z-4.928 F100.000
G1 X66.214 Y384.987 Z-4.960 F100.000
G1 X66.559 Y384.864 Z-4.992 F100.000
G1 X66.921 Y384.812 Z-5.000 F1000.000
G1 X67.286 Y384.831 Z-5.000 F1000.000
G1 X67.640 Y384.921 Z-5.000 F1000.000
G1 X67.970 Y385.078 Z-5.000 F1000.000
G1 X68.263 Y385.297 Z-5.000 F1000.000
G1 X68.508 Y385.569 Z-5.000 F1000.000
G1 X68.695 Y385.883 Z-5.000 F1000.000
G1 X68.817 Y386.228 Z-5.000 F1000.000
G1 X68.869 Y386.589 Z-5.000 F1000.000
G1 X68.850 Y386.954 Z-5.000 F1000.000
G1 X68.760 Y387.309 Z-5.000 F1000.000
G1 X68.603 Y387.639 Z-5.000 F1000.000
G1 X68.384 Y387.932 Z-5.000 F1000.000
G1 X68.113 Y388.176 Z-5.000 F1000.000
G1 X67.798 Y388.363 Z-5.000 F1000.000
G1 X67.454 Y388.486 Z-5.000 F1000.000
G1 X67.092 Y388.538 Z-5.000 F1000.000
G1 X66.727 Y388.519 Z-5.000 F1000.000
G1 X66.372 Y388.429 Z-5.000 F1000.000
G1 X66.042 Y388.272 Z-5.000 F1000.000
G1 X65.749 Y388.053 Z-5.000 F1000.000
G1 X65.505 Y387.781 Z-5.000 F1000.000
G1 X65.318 Y387.467 Z-5.000 F1000.000
G1 X65.196 Y387.122 Z-5.000 F1000.000
G1 X65.143 Y386.761 Z-5.000 F1000.000
G1 X65.162 Y386.396 Z-5.000 F1000.000
G1 X65.252 Y386.041 Z-5.000 F1000.000
G1 X65.410 Y385.711 Z-5.000 F1000.000
G1 X65.628 Y385.418 Z-5.000 F1000.000
G1 X65.900 Y385.174 Z-5.000 F1000.000
G1 X66.214 Y384.987 Z-5.000 F1000.000
G1 X66.559 Y384.864 Z-5.000 F1000.000
(Adaptive - depth: -5.000000)
G1 X67.006 Y384.800 F1000.000
G1 X67.075 Y384.725 F1000.000
G1 X67.181 Y384.556 F1000.000
G1 X67.344 Y384.438 F1000.000
G1 X67.519 Y384.350 F1000.000
G1 X67.706 Y384.294 F1000.000
G1 X68.256 Y384.288 F1000.000
G1 X68.575 Y384.363 F1000.000
G1 X68.800 Y384.456 F1000.000
G1 X69.019 Y384.569 F1000.000
G1 X69.306 Y384.781 F1000.000
G1 X69.569 Y385.062 F1000.000
G1 X69.756 Y385.312 F1000.000
G1 X69.925 Y385.625 F1000.000
G1 X70.056 Y385.944 F1000.000
G1 X70.156 Y386.350 F1000.000
G1 X70.200 Y386.719 F1000.000
G1 X70.200 Y387.094 F1000.000
G1 X70.144 Y387.481 F1000.000
G1 X70.044 Y387.844 F1000.000
G1 X69.894 Y388.200 F1000.000
G1 X69.700 Y388.531 F1000.000
G1 X69.463 Y388.837 F1000.000
G1 X69.188 Y389.113 F1000.000
G1 X68.881 Y389.350 F1000.000
G1 X68.544 Y389.544 F1000.000
G1 X68.188 Y389.694 F1000.000
G1 X67.819 Y389.819 F1000.000
G1 X67.019 Y389.919 F1000.000
G1 X66.519 Y389.887 F1000.000
G1 X66.019 Y389.769 F1000.000
G1 X65.344 Y389.481 F1000.000
G1 X64.825 Y389.119 F1000.000
G1 X64.556 Y388.856 F1000.000
G1 X64.362 Y388.619 F1000.000
G1 X64.169 Y388.337 F1000.000
G1 X63.944 Y387.913 F1000.000
G1 X63.800 Y387.456 F1000.000
G1 X63.719 Y387.113 F1000.000
G1 X63.675 Y386.688 F1000.000
G1 X63.688 Y386.275 F1000.000
G1 X63.744 Y385.881 F1000.000
G1 X63.869 Y385.488 F1000.000
G1 X64.006 Y385.175 F1000.000
G1 X64.206 Y384.856 F1000.000
G1 X64.425 Y384.550 F1000.000
G1 X64.763 Y384.150 F1000.000
G1 X65.213 Y383.744 F1000.000
G1 X65.906 Y383.212 F1000.000
G1 X66.525 Y382.900 F1000.000
G1 X66.806 Y382.806 F1000.000
G1 X66.900 Y382.788 F1000.000
G1 X68.869 Y382.812 F1000.000
G1 X69.525 Y382.950 F1000.000
G1 X69.787 Y383.062 F1000.000
G1 X70.250 Y383.394 F1000.000
G1 X70.456 Y383.594 F1000.000
G1 X70.862 Y384.062 F1000.000
G1 X71.206 Y384.581 F1000.000
G1 X71.456 Y385.087 F1000.000
G1 X71.600 Y385.481 F1000.000
G1 X71.700 Y385.875 F1000.000
G1 X71.781 Y386.325 F1000.000
G1 X71.806 Y386.875 F1000.000
G1 X71.787 Y387.337 F1000.000
G1 X71.719 Y387.825 F1000.000
G1 X71.594 Y388.312 F1000.000
G1 X71.431 Y388.769 F1000.000
G1 X71.194 Y389.200 F1000.000
G1 X70.975 Y389.525 F1000.000
G1 X70.612 Y389.944 F1000.000
G1 X70.144 Y390.331 F1000.000
G1 X69.681 Y390.544 F1000.000
G1 X69.581 Y390.562 F1000.000
G1 X65.181 Y390.544 F1000.000
G1 X64.581 Y390.431 F1000.000
G1 X64.194 Y390.288 F1000.000
G1 X63.756 Y390.000 F1000.000
G1 X63.438 Y389.725 F1000.000
G1 X63.013 Y389.262 F1000.000
G1 X62.656 Y388.744 F1000.000
G1 X62.456 Y388.337 F1000.000
G1 X62.306 Y387.981 F1000.000
G1 X62.181 Y387.506 F1000.000
G1 X62.069 Y386.637 F1000.000
G1 X62.087 Y386.019 F1000.000
G1 X62.150 Y385.538 F1000.000
G1 X62.281 Y385.056 F1000.000
G1 X62.594 Y384.275 F1000.000
G1 X62.894 Y383.725 F1000.000
G1 X63.362 Y383.044 F1000.000
G1 X63.431 Y382.969 F1000.000
G1 X63.681 Y382.800 F1000.000
G1 X64.338 Y382.788 F1000.000
G1 X64.338 Y382.788 F1000.000
G1 X64.388 Y382.794 F1000.000
G1 X64.394 Y382.812 F1000.000
G1 X64.338 Y382.806 F1000.000
G1 X64.394 Y382.788 F1000.000
G1 X64.394 Y382.788 F1000.000
G1 X65.144 Y382.788 F1000.000
G1 X65.144 Y382.788 F1000.000
G1 X65.475 Y382.831 F1000.000
G1 X65.888 Y383.000 F1000.000
G0 X65.994 Y383.031
G0 X67.806 Y383.075
G1 X67.919 Y383.075 F1000.000
G1 X68.256 Y383.075 F1000.000
G1 X68.469 Y383.025 F1000.000
G1 X68.894 Y382.863 F1000.000
G1 X69.344 Y382.788 F1000.000
G1 X69.344 Y382.788 F1000.000
G1 X70.844 Y382.806 F1000.000
G1 X71.406 Y382.919 F1000.000
G1 X71.675 Y383.031 F1000.000
G1 X72.250 Y383.538 F1000.000
G1 X72.681 Y384.106 F1000.000
G1 X72.981 Y384.650 F1000.000
G1 X73.162 Y385.087 F1000.000
G1 X73.300 Y385.506 F1000.000
G1 X73.406 Y386.031 F1000.000
G1 X73.494 Y386.994 F1000.000
G1 X73.456 Y387.613 F1000.000
G1 X73.381 Y388.156 F1000.000
G1 X73.269 Y388.719 F1000.000
G1 X73.088 Y389.300 F1000.000
G1 X72.781 Y389.894 F1000.000
G1 X72.481 Y390.294 F1000.000
G1 X72.338 Y390.425 F1000.000
G1 X72.162 Y390.531 F1000.000
G1 X72.062 Y390.562 F1000.000
G1 X70.662 Y390.562 F1000.000
G1 X70.662 Y390.562 F1000.000
G1 X70.319 Y390.512 F1000.000
G1 X70.106 Y390.431 F1000.000
G1 X70.013 Y390.375 F1000.000
G1 X69.938 Y390.300 F1000.000
G0 X69.888 Y390.219
G0 X69.856 Y390.119
G0 X69.850 Y389.800
G0 X70.438 Y383.762
G1 X70.456 Y383.625 F1000.000
G1 X70.487 Y383.356 F1000.000
G1 X70.519 Y383.238 F1000.000
G1 X70.569 Y383.131 F1000.000
G1 X70.638 Y383.044 F1000.000
G1 X70.725 Y382.969 F1000.000
G1 X70.919 Y382.869 F1000.000
G1 X71.138 Y382.812 F1000.000
G1 X71.369 Y382.788 F1000.000
G1 X71.369 Y382.788 F1000.000
G1 X72.588 Y382.800 F1000.000
G1 X73.056 Y382.894 F1000.000
G1 X73.325 Y382.994 F1000.000
G1 X73.694 Y383.281 F1000.000
G1 X74.019 Y383.631 F1000.000
G1 X74.381 Y384.137 F1000.000
G1 X74.669 Y384.688 F1000.000
G1 X74.844 Y385.119 F1000.000
G1 X74.987 Y385.550 F1000.000
G1 X75.119 Y386.087 F1000.000
G1 X75.200 Y386.706 F1000.000
G1 X75.231 Y387.238 F1000.000
G1 X75.213 Y387.806 F1000.000
G1 X75.144 Y388.381 F1000.000
G1 X75.031 Y388.938 F1000.000
G1 X74.869 Y389.488 F1000.000
G1 X74.656 Y390.019 F1000.000
G1 X74.444 Y390.350 F1000.000
G1 X74.213 Y390.538 F1000.000
G1 X74.112 Y390.562 F1000.000
G1 X73.112 Y390.562 F1000.000
G1 X73.112 Y390.562 F1000.000
G1 X72.769 Y390.512 F1000.000
G1 X72.556 Y390.431 F1000.000
G1 X72.463 Y390.375 F1000.000
G1 X72.381 Y390.300 F1000.000
G0 X72.331 Y390.212
G0 X72.275 Y390.012
G0 X72.263 Y389.625
G0 X72.300 Y383.769
G1 X72.306 Y383.625 F1000.000
G1 X72.312 Y383.356 F1000.000
G1 X72.338 Y383.238 F1000.000
G1 X72.381 Y383.131 F1000.000
G1 X72.444 Y383.044 F1000.000
G1 X72.525 Y382.969 F1000.000
G1 X72.719 Y382.869 F1000.000
G1 X72.938 Y382.812 F1000.000
G1 X73.169 Y382.788 F1000.000
G1 X73.169 Y382.788 F1000.000
G1 X74.294 Y382.806 F1000.000
G1 X74.763 Y382.906 F1000.000
G1 X75.031 Y383.006 F1000.000
G1 X75.469 Y383.369 F1000.000
G1 X75.719 Y383.650 F1000.000
G1 X76.081 Y384.156 F1000.000
G1 X76.375 Y384.700 F1000.000
G1 X76.588 Y385.194 F1000.000
G1 X76.756 Y385.663 F1000.000
G1 X76.900 Y386.269 F1000.000
G1 X76.981 Y386.806 F1000.000
G1 X77.019 Y387.356 F1000.000
G1 X77.006 Y387.925 F1000.000
G1 X76.944 Y388.481 F1000.000
G1 X76.862 Y389.038 F1000.000
G1 X76.706 Y389.637 F1000.000
G1 X76.469 Y390.212 F1000.000
G1 X76.287 Y390.444 F1000.000
G1 X76.119 Y390.562 F1000.000
G1 X75.119 Y390.562 F1000.000
G1 X75.119 Y390.562 F1000.000
G1 X74.775 Y390.512 F1000.000
G1 X74.562 Y390.431 F1000.000
G1 X74.469 Y390.375 F1000.000
G1 X74.388 Y390.300 F1000.000
G0 X74.331 Y390.212
G0 X74.269 Y390.012
G0 X74.206 Y389.194
G0 X73.919 Y383.769
G1 X73.912 Y383.625 F1000.000
G1 X73.906 Y383.356 F1000.000
G1 X73.925 Y383.238 F1000.000
G1 X73.963 Y383.131 F1000.000
G1 X74.025 Y383.044 F1000.000
G1 X74.100 Y382.969 F1000.000
G1 X74.294 Y382.869 F1000.000
G1 X74.513 Y382.812 F1000.000
G1 X74.744 Y382.788 F1000.000
G1 X74.744 Y382.788 F1000.000
G1 X75.963 Y382.800 F1000.000
G1 X76.525 Y382.919 F1000.000
G1 X76.794 Y383.031 F1000.000
G1 X77.300 Y383.475 F1000.000
G1 X77.800 Y384.119 F1000.000
G1 X78.112 Y384.656 F1000.000
G1 X78.362 Y385.225 F1000.000
G1 X78.513 Y385.681 F1000.000
G1 X78.625 Y386.150 F1000.000
G1 X78.725 Y386.675 F1000.000
G1 X78.800 Y387.294 F1000.000
G1 X78.819 Y387.913 F1000.000
G1 X78.806 Y388.531 F1000.000
G1 X78.713 Y389.144 F1000.000
G1 X78.606 Y389.637 F1000.000
G1 X78.381 Y390.212 F1000.000
G1 X78.275 Y390.375 F1000.000
G1 X78.125 Y390.506 F1000.000
G1 X78.037 Y390.562 F1000.000
G1 X77.138 Y390.562 F1000.000
G1 X77.138 Y390.562 F1000.000
G1 X76.794 Y390.512 F1000.000
G1 X76.581 Y390.431 F1000.000
G1 X76.481 Y390.375 F1000.000
G1 X76.406 Y390.300 F1000.000
G0 X76.344 Y390.219
G0 X76.275 Y390.019
G0 X76.194 Y389.200
G0 X75.737 Y383.762
G1 X75.725 Y383.625 F1000.000
G1 X75.713 Y383.356 F1000.000
G1 X75.731 Y383.238 F1000.000
G1 X75.769 Y383.131 F1000.000
G1 X75.825 Y383.044 F1000.000
G1 X75.906 Y382.969 F1000.000
G1 X76.100 Y382.869 F1000.000
G1 X76.312 Y382.812 F1000.000
G1 X76.544 Y382.788 F1000.000
G1 X76.544 Y382.788 F1000.000
G1 X77.669 Y382.800 F1000.000
G1 X78.231 Y382.906 F1000.000
G1 X78.494 Y383.019 F1000.000
G1 X79.000 Y383.444 F1000.000
G1 X79.188 Y383.656 F1000.000
G1 X79.575 Y384.144 F1000.000
G1 X79.881 Y384.688 F1000.000
G1 X80.081 Y385.137 F1000.000
G1 X80.256 Y385.575 F1000.000
G1 X80.438 Y386.169 F1000.000
G1 X80.562 Y386.775 F1000.000
G1 X80.644 Y387.363 F1000.000
G1 X80.681 Y387.981 F1000.000
G1 X80.662 Y388.600 F1000.000
G1 X80.600 Y389.219 F1000.000
G1 X80.431 Y389.819 F1000.000
G1 X80.175 Y390.344 F1000.000
G1 X80.037 Y390.488 F1000.000
G1 X79.950 Y390.544 F1000.000
G1 X79.850 Y390.562 F1000.000
G1 X78.650 Y390.562 F1000.000
G1 X78.650 Y390.562 F1000.000
G1 X78.306 Y390.512 F1000.000
G1 X78.094 Y390.431 F1000.000
G1 X78.000 Y390.375 F1000.000
G1 X77.919 Y390.300 F1000.000
G0 X77.862 Y390.212
G0 X77.800 Y390.012
G0 X77.744 Y389.194
G0 X77.506 Y383.769
G1 X77.506 Y383.625 F1000.000
G1 X77.500 Y383.356 F1000.000
G1 X77.519 Y383.238 F1000.000
G1 X77.562 Y383.131 F1000.000
G1 X77.625 Y383.044 F1000.000
G1 X77.700 Y382.969 F1000.000
G1 X77.894 Y382.869 F1000.000
G1 X78.112 Y382.812 F1000.000
G1 X78.344 Y382.788 F1000.000
G1 X78.344 Y382.788 F1000.000
G1 X79.469 Y382.800 F1000.000
G1 X79.938 Y382.887 F1000.000
G1 X80.294 Y383.031 F1000.000
G1 X80.800 Y383.469 F1000.000
G1 X81.312 Y384.100 F1000.000
G1 X81.638 Y384.631 F1000.000
G1 X81.906 Y385.188 F1000.000
G1 X82.106 Y385.656 F1000.000
G1 X82.287 Y386.250 F1000.000
G1 X82.412 Y386.825 F1000.000
G1 X82.500 Y387.400 F1000.000
G1 X82.531 Y388.012 F1000.000
G1 X82.513 Y388.606 F1000.000
G1 X82.450 Y389.200 F1000.000
G1 X82.300 Y389.788 F1000.000
G1 X82.000 Y390.400 F1000.000
G1 X81.844 Y390.525 F1000.000
G1 X81.750 Y390.562 F1000.000
G1 X80.450 Y390.562 F1000.000
G1 X80.450 Y390.562 F1000.000
G1 X80.106 Y390.512 F1000.000
G1 X79.894 Y390.431 F1000.000
G1 X79.794 Y390.375 F1000.000
G1 X79.719 Y390.300 F1000.000
G0 X79.656 Y390.212
G0 X79.594 Y390.012
G0 X79.513 Y389.194
G0 X79.106 Y383.769
G1 X79.100 Y383.625 F1000.000
G1 X79.088 Y383.356 F1000.000
G1 X79.100 Y383.238 F1000.000
G1 X79.138 Y383.131 F1000.000
G1 X79.200 Y383.044 F1000.000
G1 X79.281 Y382.969 F1000.000
G1 X79.475 Y382.869 F1000.000
G1 X79.688 Y382.812 F1000.000
G1 X79.919 Y382.788 F1000.000
G1 X79.919 Y382.788 F1000.000
G1 X81.231 Y382.806 F1000.000
G1 X81.794 Y382.913 F1000.000
G1 X82.056 Y383.019 F1000.000
G1 X82.431 Y383.319 F1000.000
G1 X82.700 Y383.587 F1000.000
G1 X83.094 Y384.069 F1000.000
G1 X83.425 Y384.594 F1000.000
G1 X83.662 Y385.050 F1000.000
G1 X83.875 Y385.538 F1000.000
G1 X84.062 Y386.131 F1000.000
G1 X84.188 Y386.669 F1000.000
G1 X84.269 Y387.231 F1000.000
G1 X84.331 Y387.812 F1000.000
G1 X84.331 Y388.431 F1000.000
G1 X84.294 Y389.050 F1000.000
G1 X84.162 Y389.656 F1000.000
G1 X84.019 Y390.069 F1000.000
G1 X83.894 Y390.331 F1000.000
G1 X83.756 Y390.475 F1000.000
G1 X83.675 Y390.531 F1000.000
G1 X83.581 Y390.562 F1000.000
G1 X82.581 Y390.562 F1000.000
G1 X82.581 Y390.562 F1000.000
G1 X82.237 Y390.512 F1000.000
G1 X82.025 Y390.431 F1000.000
G1 X81.925 Y390.375 F1000.000
G1 X81.850 Y390.300 F1000.000
G0 X81.787 Y390.219
G0 X81.713 Y390.019
G0 X81.594 Y389.200
G0 X80.938 Y383.762
G1 X80.919 Y383.625 F1000.000
G1 X80.900 Y383.356 F1000.000
G1 X80.912 Y383.238 F1000.000
G1 X80.944 Y383.131 F1000.000
G1 X81.000 Y383.044 F1000.000
G1 X81.081 Y382.969 F1000.000
G1 X81.275 Y382.869 F1000.000
G1 X81.487 Y382.812 F1000.000
G1 X81.719 Y382.788 F1000.000
G1 X81.719 Y382.788 F1000.000
G1 X83.031 Y382.806 F1000.000
G1 X83.594 Y382.913 F1000.000
G1 X83.856 Y383.019 F1000.000
G1 X84.369 Y383.431 F1000.000
G1 X84.562 Y383.650 F1000.000
G1 X84.944 Y384.137 F1000.000
G1 X85.275 Y384.663 F1000.000
G1 X85.544 Y385.219 F1000.000
G1 X85.737 Y385.700 F1000.000
G1 X85.900 Y386.231 F1000.000
G1 X86.019 Y386.819 F1000.000
G1 X86.112 Y387.369 F1000.000
G1 X86.156 Y387.988 F1000.000
G1 X86.156 Y388.606 F1000.000
G1 X86.088 Y389.225 F1000.000
G1 X85.994 Y389.738 F1000.000
G1 X85.775 Y390.300 F1000.000
G1 X85.650 Y390.456 F1000.000
G1 X85.569 Y390.519 F1000.000
G1 X85.481 Y390.562 F1000.000
G1 X84.581 Y390.562 F1000.000
G1 X84.581 Y390.562 F1000.000
G1 X84.237 Y390.512 F1000.000
G1 X84.025 Y390.431 F1000.000
G1 X83.925 Y390.375 F1000.000
G1 X83.844 Y390.300 F1000.000
G0 X83.781 Y390.219
G0 X83.706 Y390.019
G0 X82.763 Y383.762
G1 X82.737 Y383.625 F1000.000
G1 X82.713 Y383.356 F1000.000
G1 X82.719 Y383.238 F1000.000
G1 X82.750 Y383.131 F1000.000
G1 X82.806 Y383.044 F1000.000
G1 X82.881 Y382.969 F1000.000
G1 X83.075 Y382.869 F1000.000
G1 X83.287 Y382.812 F1000.000
G1 X83.519 Y382.788 F1000.000
G1 X83.519 Y382.788 F1000.000
G1 X84.831 Y382.800 F1000.000
G1 X85.394 Y382.906 F1000.000
G1 X85.662 Y383.006 F1000.000
G1 X85.969 Y383.219 F1000.000
G1 X86.369 Y383.631 F1000.000
G1 X86.769 Y384.106 F1000.000
G1 X87.088 Y384.637 F1000.000
G1 X87.537 Y385.587 F1000.000
G1 X87.725 Y386.181 F1000.000
G1 X87.856 Y386.744 F1000.000
G1 X87.950 Y387.325 F1000.000
G1 X87.987 Y387.944 F1000.000
G1 X87.975 Y388.538 F1000.000
G1 X87.919 Y389.137 F1000.000
G1 X87.806 Y389.738 F1000.000
G1 X87.600 Y390.306 F1000.000
G1 X87.475 Y390.456 F1000.000
G1 X87.394 Y390.519 F1000.000
G1 X87.306 Y390.562 F1000.000
G1 X86.506 Y390.562 F1000.000
G1 X86.506 Y390.562 F1000.000
G1 X86.162 Y390.512 F1000.000
G1 X85.950 Y390.431 F1000.000
G1 X85.850 Y390.375 F1000.000
G1 X85.769 Y390.300 F1000.000
G0 X85.706 Y390.219
G0 X85.625 Y390.019
G0 X84.569 Y383.756
G1 X84.544 Y383.619 F1000.000
G1 X84.513 Y383.356 F1000.000
G1 X84.519 Y383.238 F1000.000
G1 X84.550 Y383.131 F1000.000
G1 X84.606 Y383.044 F1000.000
G1 X84.681 Y382.969 F1000.000
G1 X84.875 Y382.869 F1000.000
G1 X85.088 Y382.812 F1000.000
G1 X85.319 Y382.788 F1000.000
G1 X85.319 Y382.788 F1000.000
G1 X86.725 Y382.806 F1000.000
G1 X87.194 Y382.900 F1000.000
G1 X87.556 Y383.044 F1000.000
G1 X87.856 Y383.275 F1000.000
G1 X88.194 Y383.606 F1000.000
G1 X88.581 Y384.087 F1000.000
G1 X88.912 Y384.613 F1000.000
G1 X89.175 Y385.131 F1000.000
G1 X89.381 Y385.600 F1000.000
G1 X89.569 Y386.194 F1000.000
G1 X89.694 Y386.756 F1000.000
G1 X89.781 Y387.325 F1000.000
G1 X89.812 Y387.919 F1000.000
G1 X89.794 Y388.500 F1000.000
G1 X89.731 Y389.081 F1000.000
G1 X89.612 Y389.663 F1000.000
G1 X89.450 Y390.225 F1000.000
G1 X89.412 Y390.312 F1000.000
G1 X89.287 Y390.462 F1000.000
G1 X89.112 Y390.562 F1000.000
G1 X87.812 Y390.562 F1000.000
G1 X87.812 Y390.562 F1000.000
G1 X87.469 Y390.512 F1000.000
G1 X87.256 Y390.431 F1000.000
G1 X87.162 Y390.375 F1000.000
G1 X87.081 Y390.300 F1000.000
G0 X87.025 Y390.212
G0 X86.956 Y390.012
G0 X86.881 Y389.194
G0 X86.525 Y383.769
G1 X86.519 Y383.625 F1000.000
G1 X86.506 Y383.356 F1000.000
G1 X86.525 Y383.238 F1000.000
G1 X86.562 Y383.131 F1000.000
G1 X86.625 Y383.044 F1000.000
G1 X86.706 Y382.969 F1000.000
G1 X86.894 Y382.869 F1000.000
G1 X87.112 Y382.812 F1000.000
G1 X87.344 Y382.788 F1000.000
G1 X87.344 Y382.788 F1000.000
G1 X88.469 Y382.800 F1000.000
G1 X89.125 Y382.925 F1000.000
G1 X89.394 Y383.038 F1000.000
G1 X89.700 Y383.275 F1000.000
G1 X90.037 Y383.619 F1000.000
G1 X90.419 Y384.106 F1000.000
G1 X90.750 Y384.631 F1000.000
G1 X91.025 Y385.188 F1000.000
G1 X91.225 Y385.712 F1000.000
G1 X91.500 Y386.738 F1000.000
G1 X91.581 Y387.356 F1000.000
G1 X91.619 Y387.950 F1000.000
G1 X91.619 Y388.569 F1000.000
G1 X91.562 Y389.188 F1000.000
G1 X91.456 Y389.800 F1000.000
G1 X91.219 Y390.331 F1000.000
G1 X91.162 Y390.413 F1000.000
G1 X91.006 Y390.531 F1000.000
G1 X90.906 Y390.562 F1000.000
G1 X89.706 Y390.562 F1000.000
G1 X89.706 Y390.562 F1000.000
G1 X89.362 Y390.512 F1000.000
G1 X89.150 Y390.431 F1000.000
G1 X89.050 Y390.375 F1000.000
G1 X88.975 Y390.300 F1000.000
G0 X88.912 Y390.219
G0 X88.850 Y390.019
G0 X88.763 Y389.200
G0 X88.338 Y383.762
G1 X88.325 Y383.625 F1000.000
G1 X88.312 Y383.356 F1000.000
G1 X88.331 Y383.238 F1000.000
G1 X88.369 Y383.131 F1000.000
G1 X88.425 Y383.044 F1000.000
G1 X88.506 Y382.969 F1000.000
G1 X88.700 Y382.869 F1000.000
G1 X88.912 Y382.812 F1000.000
G1 X89.144 Y382.788 F1000.000
G1 X89.144 Y382.788 F1000.000
G1 X90.362 Y382.800 F1000.000
G1 X90.925 Y382.919 F1000.000
G1 X91.194 Y383.025 F1000.000
G1 X91.769 Y383.525 F1000.000
G1 X92.231 Y384.075 F1000.000
G1 X92.556 Y384.606 F1000.000
G1 X93.013 Y385.569 F1000.000
G1 X93.200 Y386.163 F1000.000
G1 X93.331 Y386.725 F1000.000
G1 X93.425 Y387.306 F1000.000
G1 X93.463 Y387.919 F1000.000
G1 X93.456 Y388.512 F1000.000
G1 X93.400 Y389.113 F1000.000
G1 X93.294 Y389.706 F1000.000
G1 X93.094 Y390.269 F1000.000
G1 X93.050 Y390.356 F1000.000
G1 X92.981 Y390.431 F1000.000
G1 X92.812 Y390.550 F1000.000
G1 X91.612 Y390.562 F1000.000
G1 X91.612 Y390.562 F1000.000
G1 X91.269 Y390.512 F1000.000
G1 X91.056 Y390.431 F1000.000
G1 X90.956 Y390.375 F1000.000
G1 X90.881 Y390.300 F1000.000
G0 X90.819 Y390.219
G0 X90.750 Y390.019
G0 X90.656 Y389.200
G0 X90.144 Y383.762
G1 X90.131 Y383.625 F1000.000
G1 X90.119 Y383.356 F1000.000
G1 X90.131 Y383.238 F1000.000
G1 X90.169 Y383.131 F1000.000
G1 X90.225 Y383.044 F1000.000
G1 X90.306 Y382.969 F1000.000
G1 X90.500 Y382.869 F1000.000
G1 X90.713 Y382.812 F1000.000
G1 X90.944 Y382.788 F1000.000
G1 X90.944 Y382.788 F1000.000
G1 X92.069 Y382.800 F1000.000
G1 X92.725 Y382.919 F1000.000
G1 X92.987 Y383.038 F1000.000
G1 X93.294 Y383.262 F1000.000
G1 X93.638 Y383.594 F1000.000
G1 X94.025 Y384.075 F1000.000
G1 X94.362 Y384.594 F1000.000
G1 X94.612 Y385.087 F1000.000
G1 X94.800 Y385.525 F1000.000
G1 X94.969 Y386.075 F1000.000
G1 X95.106 Y386.587 F1000.000
G1 X95.206 Y387.200 F1000.000
G1 X95.256 Y387.812 F1000.000
G1 X95.269 Y388.431 F1000.000
G1 X95.225 Y389.050 F1000.000
G1 X95.131 Y389.669 F1000.000
G1 X94.925 Y390.256 F1000.000
G1 X94.812 Y390.425 F1000.000
G1 X94.656 Y390.544 F1000.000
G1 X94.556 Y390.562 F1000.000
G1 X93.756 Y390.562 F1000.000
G1 X93.756 Y390.562 F1000.000
G1 X93.412 Y390.512 F1000.000
G1 X93.200 Y390.431 F1000.000
G1 X93.100 Y390.375 F1000.000
G1 X93.019 Y390.300 F1000.000
G0 X92.963 Y390.219
G0 X92.881 Y390.019
G0 X91.975 Y383.762
G1 X91.956 Y383.625 F1000.000
G1 X91.931 Y383.356 F1000.000
G1 X91.938 Y383.238 F1000.000
G1 X91.969 Y383.131 F1000.000
G1 X92.031 Y383.044 F1000.000
G1 X92.106 Y382.969 F1000.000
G1 X92.300 Y382.869 F1000.000
G1 X92.513 Y382.812 F1000.000
G1 X92.744 Y382.788 F1000.000
G1 X92.744 Y382.788 F1000.000
G1 X93.963 Y382.806 F1000.000
G1 X94.525 Y382.913 F1000.000
G1 X94.794 Y383.012 F1000.000
G1 X95.381 Y383.506 F1000.000
G1 X95.906 Y384.119 F1000.000
G1 X96.225 Y384.650 F1000.000
G1 X96.469 Y385.144 F1000.000
G1 X96.662 Y385.581 F1000.000
G1 X96.844 Y386.175 F1000.000
G1 X96.963 Y386.719 F1000.000
G1 X97.100 Y387.869 F1000.000
G1 X97.100 Y388.488 F1000.000
G1 X97.062 Y389.106 F1000.000
G1 X96.938 Y389.719 F1000.000
G1 X96.794 Y390.144 F1000.000
G1 X96.662 Y390.400 F1000.000
G1 X96.506 Y390.525 F1000.000
G1 X96.412 Y390.562 F1000.000
G1 X95.112 Y390.562 F1000.000
G1 X95.112 Y390.562 F1000.000
G1 X94.769 Y390.512 F1000.000
G1 X94.556 Y390.431 F1000.000
G1 X94.456 Y390.375 F1000.000
G1 X94.381 Y390.300 F1000.000
G0 X94.319 Y390.219
G0 X94.256 Y390.019
G0 X94.169 Y389.200
G0 X93.737 Y383.762
G1 X93.725 Y383.625 F1000.000
G1 X93.713 Y383.356 F1000.000
G1 X93.731 Y383.238 F1000.000
G1 X93.769 Y383.131 F1000.000
G1 X93.825 Y383.044 F1000.000
G1 X93.906 Y382.969 F1000.000
G1 X94.100 Y382.869 F1000.000
G1 X94.312 Y382.812 F1000.000
G1 X94.544 Y382.788 F1000.000
G1 X94.544 Y382.788 F1000.000
G1 X95.763 Y382.800 F1000.000
G1 X96.325 Y382.906 F1000.000
G1 X96.600 Y383.006 F1000.000
G1 X97.119 Y383.406 F1000.000
G1 X97.319 Y383.613 F1000.000
G1 X97.700 Y384.100 F1000.000
G1 X98.025 Y384.631 F1000.000
G1 X98.256 Y385.100 F1000.000
G1 X98.456 Y385.581 F1000.000
G1 X98.631 Y386.163 F1000.000
G1 X98.850 Y387.250 F1000.000
G1 X98.894 Y387.869 F1000.000
G1 X98.900 Y388.488 F1000.000
G1 X98.875 Y389.106 F1000.000
G1 X98.756 Y389.719 F1000.000
G1 X98.562 Y390.262 F1000.000
G1 X98.519 Y390.350 F1000.000
G1 X98.456 Y390.431 F1000.000
G1 X98.287 Y390.544 F1000.000
G1 X98.188 Y390.562 F1000.000
G1 X96.888 Y390.562 F1000.000
G1 X96.888 Y390.562 F1000.000
G1 X96.544 Y390.512 F1000.000
G1 X96.331 Y390.431 F1000.000
G1 X96.231 Y390.375 F1000.000
G1 X96.156 Y390.300 F1000.000
G0 X96.094 Y390.219
G0 X96.031 Y390.019
G0 X95.950 Y389.200
G0 X95.531 Y383.762
G1 X95.525 Y383.625 F1000.000
G1 X95.513 Y383.356 F1000.000
G1 X95.525 Y383.238 F1000.000
G1 X95.562 Y383.131 F1000.000
G1 X95.625 Y383.044 F1000.000
G1 X95.706 Y382.969 F1000.000
G1 X95.900 Y382.869 F1000.000
G1 X96.112 Y382.812 F1000.000
G1 X96.344 Y382.788 F1000.000
G1 X96.344 Y382.788 F1000.000
G1 X97.562 Y382.800 F1000.000
G1 X98.125 Y382.906 F1000.000
G1 X98.394 Y383.006 F1000.000
G1 X98.844 Y383.344 F1000.000
G1 X99.112 Y383.619 F1000.000
G1 X99.494 Y384.106 F1000.000
G1 X99.825 Y384.631 F1000.000
G1 X100.075 Y385.137 F1000.000
G1 X100.275 Y385.613 F1000.000
G1 X100.456 Y386.206 F1000.000
G1 X100.575 Y386.756 F1000.000
G1 X100.675 Y387.312 F1000.000
G1 X100.719 Y387.931 F1000.000
G1 X100.719 Y388.550 F1000.000
G1 X100.681 Y389.169 F1000.000
G1 X100.550 Y389.775 F1000.000
G1 X100.319 Y390.319 F1000.000
G1 X100.263 Y390.400 F1000.000
G1 X100.106 Y390.525 F1000.000
G1 X100.013 Y390.562 F1000.000
G1 X98.713 Y390.562 F1000.000
G1 X98.713 Y390.562 F1000.000
G1 X98.369 Y390.512 F1000.000
G1 X98.156 Y390.431 F1000.000
G1 X98.056 Y390.375 F1000.000
G1 X97.981 Y390.300 F1000.000
G0 X97.919 Y390.219
G0 X97.856 Y390.019
G0 X97.769 Y389.200
G0 X97.338 Y383.762
G1 X97.325 Y383.625 F1000.000
G1 X97.312 Y383.356 F1000.000
G1 X97.331 Y383.238 F1000.000
G1 X97.369 Y383.131 F1000.000
G1 X97.425 Y383.044 F1000.000
G1 X97.506 Y382.969 F1000.000
G1 X97.700 Y382.869 F1000.000
G1 X97.912 Y382.812 F1000.000
G1 X98.144 Y382.788 F1000.000
G1 X98.144 Y382.788 F1000.000
G1 X99.362 Y382.800 F1000.000
G1 X99.925 Y382.906 F1000.000
G1 X100.287 Y383.050 F1000.000
G1 X100.794 Y383.481 F1000.000
G1 X101.306 Y384.113 F1000.000
G1 X101.638 Y384.637 F1000.000
G1 X101.912 Y385.194 F1000.000
G1 X102.100 Y385.681 F1000.000
G1 X102.250 Y386.188 F1000.000
G1 X102.394 Y386.738 F1000.000
G1 X102.481 Y387.350 F1000.000
G1 X102.531 Y387.969 F1000.000
G1 X102.544 Y388.587 F1000.000
G1 X102.500 Y389.206 F1000.000
G1 X102.356 Y389.812 F1000.000
G1 X102.119 Y390.350 F1000.000
G1 X102.056 Y390.425 F1000.000
G1 X101.900 Y390.544 F1000.000
G1 X101.800 Y390.562 F1000.000
G1 X100.600 Y390.562 F1000.000
G1 X100.600 Y390.562 F1000.000
G1 X100.256 Y390.512 F1000.000
G1 X100.044 Y390.431 F1000.000
G1 X99.944 Y390.375 F1000.000
G1 X99.869 Y390.300 F1000.000
G0 X99.806 Y390.219
G0 X99.737 Y390.019
G0 X99.644 Y389.200
G0 X99.144 Y383.762
G1 X99.131 Y383.625 F1000.000
G1 X99.119 Y383.356 F1000.000
G1 X99.131 Y383.238 F1000.000
G1 X99.169 Y383.131 F1000.000
G1 X99.225 Y383.044 F1000.000
G1 X99.306 Y382.969 F1000.000
G1 X99.500 Y382.869 F1000.000
G1 X99.713 Y382.812 F1000.000
G1 X99.944 Y382.788 F1000.000
G1 X99.944 Y382.788 F1000.000
G1 X101.256 Y382.806 F1000.000
G1 X101.725 Y382.906 F1000.000
G1 X101.994 Y383.006 F1000.000
G1 X102.513 Y383.406 F1000.000
G1 X102.713 Y383.619 F1000.000
G1 X103.112 Y384.094 F1000.000
G1 X103.438 Y384.619 F1000.000
G1 X103.688 Y385.100 F1000.000
G1 X103.900 Y385.625 F1000.000
G1 X104.188 Y386.619 F1000.000
G1 X104.306 Y387.231 F1000.000
G1 X104.381 Y387.850 F1000.000
G1 X104.381 Y388.469 F1000.000
G1 X104.356 Y388.981 F1000.000
G1 X104.237 Y389.594 F1000.000
G1 X104.119 Y390.038 F1000.000
G1 X103.938 Y390.387 F1000.000
G1 X103.781 Y390.512 F1000.000
G1 X103.694 Y390.562 F1000.000
G1 X102.094 Y390.562 F1000.000
G1 X102.094 Y390.562 F1000.000
G1 X101.750 Y390.512 F1000.000
G1 X101.537 Y390.431 F1000.000
G1 X101.444 Y390.375 F1000.000
G1 X101.362 Y390.300 F1000.000
G0 X101.306 Y390.212
G0 X101.244 Y390.012
G0 X101.181 Y389.194
G0 X100.919 Y383.769
G1 X100.912 Y383.625 F1000.000
G1 X100.906 Y383.356 F1000.000
G1 X100.925 Y383.238 F1000.000
G1 X100.963 Y383.131 F1000.000
G1 X101.025 Y383.044 F1000.000
G1 X101.100 Y382.969 F1000.000
G1 X101.294 Y382.869 F1000.000
G1 X101.513 Y382.812 F1000.000
G1 X101.744 Y382.788 F1000.000
G1 X101.744 Y382.788 F1000.000
G1 X103.056 Y382.806 F1000.000
G1 X103.619 Y382.913 F1000.000
G1 X103.881 Y383.025 F1000.000
G1 X104.188 Y383.262 F1000.000
G1 X104.525 Y383.606 F1000.000
G1 X104.912 Y384.087 F1000.000
G1 X105.244 Y384.613 F1000.000
G1 X105.519 Y385.137 F1000.000
G1 X105.744 Y385.637 F1000.000
G1 X105.944 Y386.225 F1000.000
G1 X106.088 Y386.806 F1000.000
G1 X106.188 Y387.400 F1000.000
G1 X106.237 Y388.019 F1000.000
G1 X106.237 Y388.625 F1000.000
G1 X106.188 Y389.231 F1000.000
G1 X106.044 Y389.825 F1000.000
G1 X105.787 Y390.356 F1000.000
G1 X105.644 Y390.494 F1000.000
G1 X105.562 Y390.550 F1000.000
G1 X104.162 Y390.562 F1000.000
G1 X104.162 Y390.562 F1000.000
G1 X103.819 Y390.512 F1000.000
G1 X103.606 Y390.431 F1000.000
G1 X103.506 Y390.375 F1000.000
G1 X103.431 Y390.300 F1000.000
G0 X103.369 Y390.219
G0 X103.300 Y390.019
G0 X103.213 Y389.200
G0 X102.737 Y383.762
G1 X102.731 Y383.625 F1000.000
G1 X102.719 Y383.356 F1000.000
G1 X102.731 Y383.238 F1000.000
G1 X102.769 Y383.131 F1000.000
G1 X102.825 Y383.044 F1000.000
G1 X102.906 Y382.969 F1000.000
G1 X103.100 Y382.869 F1000.000
G1 X103.312 Y382.812 F1000.000
G1 X103.544 Y382.788 F1000.000
G1 X103.544 Y382.788 F1000.000
G1 X104.763 Y382.800 F1000.000
G1 X105.419 Y382.919 F1000.000
G1 X105.681 Y383.031 F1000.000
G1 X106.125 Y383.387 F1000.000
G1 X106.737 Y384.056 F1000.000
G1 X107.075 Y384.575 F1000.000
G1 X107.562 Y385.538 F1000.000
G1 X107.769 Y386.125 F1000.000
G1 X107.919 Y386.688 F1000.000
G1 X108.031 Y387.275 F1000.000
G1 X108.094 Y387.894 F1000.000
G1 X108.106 Y388.494 F1000.000
G1 X108.069 Y389.100 F1000.000
G1 X107.931 Y389.694 F1000.000
G1 X107.800 Y390.069 F1000.000
G1 X107.675 Y390.331 F1000.000
G1 X107.612 Y390.406 F1000.000
G1 X107.456 Y390.525 F1000.000
G1 X107.362 Y390.562 F1000.000
G1 X106.062 Y390.562 F1000.000
G1 X106.062 Y390.562 F1000.000
G1 X105.719 Y390.512 F1000.000
G1 X105.506 Y390.431 F1000.000
G1 X105.406 Y390.375 F1000.000
G1 X105.331 Y390.300 F1000.000
G0 X105.269 Y390.219
G0 X105.200 Y390.019
G0 X105.100 Y389.200
G0 X104.550 Y383.762
G1 X104.537 Y383.625 F1000.000
G1 X104.519 Y383.356 F1000.000
G1 X104.531 Y383.238 F1000.000
G1 X104.569 Y383.131 F1000.000
G1 X104.625 Y383.044 F1000.000
G1 X104.706 Y382.969 F1000.000
G1 X104.900 Y382.869 F1000.000
G1 X105.112 Y382.812 F1000.000
G1 X105.344 Y382.788 F1000.000
G1 X105.344 Y382.788 F1000.000
G1 X106.750 Y382.806 F1000.000
G1 X107.219 Y382.900 F1000.000
G1 X107.581 Y383.044 F1000.000
G1 X107.888 Y383.281 F1000.000
G1 X108.225 Y383.625 F1000.000
G1 X108.638 Y384.094 F1000.000
G1 X108.969 Y384.619 F1000.000
G1 X109.431 Y385.562 F1000.000
G1 X109.625 Y386.150 F1000.000
G1 X109.763 Y386.706 F1000.000
G1 X109.862 Y387.275 F1000.000
G1 X109.906 Y387.887 F1000.000
G1 X109.906 Y388.475 F1000.000
G1 X109.856 Y389.069 F1000.000
G1 X109.756 Y389.663 F1000.000
G1 X109.556 Y390.225 F1000.000
G1 X109.456 Y390.394 F1000.000
G1 X109.306 Y390.519 F1000.000
G1 X109.219 Y390.562 F1000.000
G1 X107.719 Y390.562 F1000.000
G1 X107.719 Y390.562 F1000.000
G1 X107.375 Y390.512 F1000.000
G1 X107.162 Y390.431 F1000.000
G1 X107.069 Y390.375 F1000.000
G1 X106.987 Y390.300 F1000.000
G0 X106.931 Y390.212
G0 X106.869 Y390.012
G0 X106.806 Y389.194
G0 X106.544 Y383.769
G1 X106.537 Y383.625 F1000.000
G1 X106.531 Y383.356 F1000.000
G1 X106.550 Y383.238 F1000.000
G1 X106.588 Y383.131 F1000.000
G1 X106.650 Y383.044 F1000.000
G1 X106.725 Y382.969 F1000.000
G1 X106.919 Y382.869 F1000.000
G1 X107.138 Y382.812 F1000.000
G1 X107.369 Y382.788 F1000.000
G1 X107.369 Y382.788 F1000.000
G1 X108.588 Y382.806 F1000.000
G1 X109.056 Y382.894 F1000.000
G1 X109.412 Y383.038 F1000.000
G1 X109.719 Y383.269 F1000.000
G1 X110.062 Y383.613 F1000.000
G1 X110.456 Y384.094 F1000.000
G1 X110.787 Y384.619 F1000.000
G1 X111.031 Y385.081 F1000.000
G1 X111.231 Y385.544 F1000.000
G1 X111.412 Y386.125 F1000.000
G1 X111.638 Y387.188 F1000.000
G1 X111.688 Y387.806 F1000.000
G1 X111.694 Y388.419 F1000.000
G1 X111.662 Y389.038 F1000.000
G1 X111.575 Y389.656 F1000.000
G1 X111.375 Y390.244 F1000.000
G1 X111.331 Y390.331 F1000.000
G1 X111.269 Y390.413 F1000.000
G1 X111.112 Y390.538 F1000.000
G1 X111.013 Y390.562 F1000.000
G1 X109.812 Y390.562 F1000.000
G1 X109.812 Y390.562 F1000.000
G1 X109.469 Y390.512 F1000.000
G1 X109.256 Y390.431 F1000.000
G1 X109.156 Y390.375 F1000.000
G1 X109.081 Y390.300 F1000.000
G0 X109.019 Y390.219
G0 X108.950 Y390.019
G0 X108.862 Y389.200
G0 X108.369 Y383.762
G1 X108.356 Y383.625 F1000.000
G1 X108.344 Y383.356 F1000.000
G1 X108.356 Y383.238 F1000.000
G1 X108.394 Y383.131 F1000.000
G1 X108.450 Y383.044 F1000.000
G1 X108.531 Y382.969 F1000.000
G1 X108.725 Y382.869 F1000.000
G1 X108.938 Y382.812 F1000.000
G1 X109.169 Y382.788 F1000.000
G1 X109.169 Y382.788 F1000.000
G1 X110.388 Y382.806 F1000.000
G1 X110.950 Y382.913 F1000.000
G1 X111.213 Y383.019 F1000.000
G1 X111.519 Y383.244 F1000.000
G1 X111.862 Y383.587 F1000.000
G1 X112.256 Y384.069 F1000.000
G1 X112.588 Y384.594 F1000.000
G1 X112.812 Y385.019 F1000.000
G1 X113.006 Y385.481 F1000.000
G1 X113.194 Y386.012 F1000.000
G1 X113.338 Y386.619 F1000.000
G1 X113.431 Y387.188 F1000.000
G1 X113.487 Y387.794 F1000.000
G1 X113.525 Y388.413 F1000.000
G1 X113.500 Y389.031 F1000.000
G1 X113.388 Y389.644 F1000.000
G1 X113.206 Y390.175 F1000.000
G1 X113.119 Y390.350 F1000.000
G1 X113.056 Y390.425 F1000.000
G1 X112.900 Y390.544 F1000.000
G1 X112.800 Y390.562 F1000.000
G1 X111.600 Y390.562 F1000.000
G1 X111.600 Y390.562 F1000.000
G1 X111.256 Y390.512 F1000.000
G1 X111.044 Y390.431 F1000.000
G1 X110.944 Y390.375 F1000.000
G1 X110.869 Y390.300 F1000.000
G0 X110.806 Y390.219
G0 X110.737 Y390.019
G0 X110.650 Y389.200
G0 X110.162 Y383.762
G1 X110.156 Y383.625 F1000.000
G1 X110.144 Y383.356 F1000.000
G1 X110.156 Y383.238 F1000.000
G1 X110.194 Y383.131 F1000.000
G1 X110.250 Y383.044 F1000.000
G1 X110.331 Y382.969 F1000.000
G1 X110.525 Y382.869 F1000.000
G1 X110.737 Y382.812 F1000.000
G1 X110.969 Y382.788 F1000.000
G1 X110.969 Y382.788 F1000.000
G1 X112.188 Y382.800 F1000.000
G1 X112.750 Y382.906 F1000.000
G1 X113.019 Y383.012 F1000.000
G1 X113.400 Y383.306 F1000.000
G1 X113.731 Y383.650 F1000.000
G1 X114.112 Y384.137 F1000.000
G1 X114.438 Y384.663 F1000.000
G1 X114.706 Y385.219 F1000.000
G1 X114.906 Y385.681 F1000.000
G1 X115.094 Y386.275 F1000.000
G1 X115.219 Y386.856 F1000.000
G1 X115.306 Y387.431 F1000.000
G1 X115.338 Y388.044 F1000.000
G1 X115.319 Y388.637 F1000.000
G1 X115.256 Y389.231 F1000.000
G1 X115.144 Y389.825 F1000.000
G1 X115.000 Y390.194 F1000.000
G1 X114.900 Y390.369 F1000.000
G1 X114.831 Y390.444 F1000.000
G1 X114.662 Y390.556 F1000.000
G1 X113.062 Y390.562 F1000.000
G1 X113.062 Y390.562 F1000.000
G1 X112.719 Y390.512 F1000.000
G1 X112.506 Y390.431 F1000.000
G1 X112.412 Y390.375 F1000.000
G1 X112.331 Y390.300 F1000.000
G0 X112.275 Y390.212
G0 X112.213 Y390.012
G0 X112.162 Y389.194
G0 X111.931 Y383.769
G1 X111.931 Y383.625 F1000.000
G1 X111.925 Y383.356 F1000.000
G1 X111.944 Y383.238 F1000.000
G1 X111.987 Y383.131 F1000.000
G1 X112.050 Y383.044 F1000.000
G1 X112.125 Y382.969 F1000.000
G1 X112.319 Y382.869 F1000.000
G1 X112.537 Y382.812 F1000.000
G1 X112.769 Y382.788 F1000.000
G1 X112.769 Y382.788 F1000.000
G1 X113.987 Y382.800 F1000.000
G1 X114.550 Y382.906 F1000.000
G1 X114.819 Y383.006 F1000.000
G1 X115.338 Y383.413 F1000.000
G1 X115.531 Y383.619 F1000.000
G1 X115.931 Y384.094 F1000.000
G1 X116.256 Y384.625 F1000.000
G1 X116.713 Y385.581 F1000.000
G1 X116.900 Y386.175 F1000.000
G1 X117.031 Y386.738 F1000.000
G1 X117.125 Y387.312 F1000.000
G1 X117.162 Y387.925 F1000.000
G1 X117.150 Y388.512 F1000.000
G1 X117.088 Y389.106 F1000.000
G1 X116.975 Y389.694 F1000.000
G1 X116.781 Y390.256 F1000.000
G1 X116.737 Y390.344 F1000.000
G1 X116.675 Y390.419 F1000.000
G1 X116.513 Y390.538 F1000.000
G1 X116.412 Y390.562 F1000.000
G1 X114.812 Y390.562 F1000.000
G1 X114.812 Y390.562 F1000.000
G1 X114.469 Y390.512 F1000.000
G1 X114.256 Y390.431 F1000.000
G1 X114.162 Y390.375 F1000.000
G1 X114.081 Y390.300 F1000.000
G0 X114.025 Y390.212
G0 X113.963 Y390.012
G0 X113.931 Y389.625
G0 X113.731 Y383.769
G1 X113.725 Y383.625 F1000.000
G1 X113.725 Y383.356 F1000.000
G1 X113.744 Y383.238 F1000.000
G1 X113.787 Y383.131 F1000.000
G1 X113.850 Y383.044 F1000.000
G1 X113.925 Y382.969 F1000.000
G1 X114.119 Y382.869 F1000.000
G1 X114.338 Y382.812 F1000.000
G1 X114.569 Y382.788 F1000.000
G1 X114.569 Y382.788 F1000.000
G1 X115.787 Y382.800 F1000.000
G1 X116.444 Y382.925 F1000.000
G1 X116.706 Y383.044 F1000.000
G1 X117.081 Y383.344 F1000.000
G1 X117.356 Y383.619 F1000.000
G1 X117.744 Y384.100 F1000.000
G1 X118.075 Y384.625 F1000.000
G1 X118.338 Y385.150 F1000.000
G1 X118.531 Y385.594 F1000.000
G1 X118.719 Y386.188 F1000.000
G1 X118.838 Y386.738 F1000.000
G1 X118.919 Y387.294 F1000.000
G1 X118.981 Y387.875 F1000.000
G1 X118.981 Y388.494 F1000.000
G1 X118.944 Y389.113 F1000.000
G1 X118.819 Y389.725 F1000.000
G1 X118.662 Y390.150 F1000.000
G1 X118.575 Y390.325 F1000.000
G1 X118.519 Y390.406 F1000.000
G1 X118.362 Y390.531 F1000.000
G1 X118.269 Y390.562 F1000.000
G1 X117.069 Y390.562 F1000.000
G1 X117.069 Y390.562 F1000.000
G1 X116.725 Y390.512 F1000.000
G1 X116.513 Y390.431 F1000.000
G1 X116.412 Y390.375 F1000.000
G1 X116.338 Y390.300 F1000.000
G0 X116.275 Y390.219
G0 X116.206 Y390.019
G0 X116.106 Y389.200
G0 X115.575 Y383.762
G1 X115.556 Y383.625 F1000.000
G1 X115.544 Y383.356 F1000.000
G1 X115.556 Y383.238 F1000.000
G1 X115.594 Y383.131 F1000.000
G1 X115.650 Y383.044 F1000.000
G1 X115.731 Y382.969 F1000.000
G1 X115.925 Y382.869 F1000.000
G1 X116.138 Y382.812 F1000.000
G1 X116.369 Y382.788 F1000.000
G1 X116.369 Y382.788 F1000.000
G1 X117.588 Y382.800 F1000.000
G1 X118.150 Y382.894 F1000.000
G1 X118.506 Y383.038 F1000.000
G1 X118.812 Y383.275 F1000.000
G1 X119.156 Y383.606 F1000.000
G1 X119.544 Y384.087 F1000.000
G1 X119.875 Y384.613 F1000.000
G1 X120.088 Y385.019 F1000.000
G1 X120.281 Y385.481 F1000.000
G1 X120.475 Y386.000 F1000.000
G1 X120.625 Y386.600 F1000.000
G1 X120.731 Y387.194 F1000.000
G1 X120.806 Y387.812 F1000.000
G1 X120.825 Y388.431 F1000.000
G1 X120.800 Y389.050 F1000.000
G1 X120.681 Y389.663 F1000.000
G1 X120.544 Y390.069 F1000.000
G1 X120.412 Y390.331 F1000.000
G1 X120.350 Y390.413 F1000.000
G1 X120.188 Y390.538 F1000.000
G1 X120.088 Y390.562 F1000.000
G1 X118.787 Y390.562 F1000.000
G1 X118.787 Y390.562 F1000.000
G1 X118.444 Y390.512 F1000.000
G1 X118.231 Y390.431 F1000.000
G1 X118.131 Y390.375 F1000.000
G1 X118.056 Y390.300 F1000.000
G0 X117.994 Y390.219
G0 X117.925 Y390.019
G0 X117.838 Y389.200
G0 X117.362 Y383.762
G1 X117.356 Y383.625 F1000.000
G1 X117.344 Y383.356 F1000.000
G1 X117.356 Y383.238 F1000.000
G1 X117.394 Y383.131 F1000.000
G1 X117.450 Y383.044 F1000.000
G1 X117.531 Y382.969 F1000.000
G1 X117.725 Y382.869 F1000.000
G1 X117.938 Y382.812 F1000.000
G1 X118.169 Y382.788 F1000.000
G1 X118.169 Y382.788 F1000.000
G1 X119.388 Y382.800 F1000.000
G1 X120.044 Y382.919 F1000.000
G1 X120.306 Y383.025 F1000.000
G1 X120.681 Y383.325 F1000.000
G1 X120.950 Y383.600 F1000.000
G1 X121.344 Y384.081 F1000.000
G1 X121.675 Y384.606 F1000.000
G1 X121.944 Y385.125 F1000.000
G1 X122.169 Y385.619 F1000.000
G1 X122.369 Y386.206 F1000.000
G1 X122.513 Y386.788 F1000.000
G1 X122.612 Y387.375 F1000.000
G1 X122.662 Y387.994 F1000.000
G1 X122.662 Y388.594 F1000.000
G1 X122.619 Y389.200 F1000.000
G1 X122.481 Y389.800 F1000.000
G1 X122.237 Y390.331 F1000.000
G1 X122.175 Y390.413 F1000.000
G1 X122.019 Y390.538 F1000.000
G1 X121.919 Y390.562 F1000.000
G1 X120.619 Y390.562 F1000.000
G1 X120.619 Y390.562 F1000.000
G1 X120.275 Y390.512 F1000.000
G1 X120.062 Y390.431 F1000.000
G1 X119.963 Y390.375 F1000.000
G1 X119.888 Y390.300 F1000.000
G0 X119.825 Y390.219
G0 X119.756 Y390.019
G0 X119.662 Y389.200
G0 X119.169 Y383.762
G1 X119.156 Y383.625 F1000.000
G1 X119.144 Y383.356 F1000.000
G1 X119.156 Y383.238 F1000.000
G1 X119.194 Y383.131 F1000.000
G1 X119.250 Y383.044 F1000.000
G1 X119.331 Y382.969 F1000.000
G1 X119.525 Y382.869 F1000.000
G1 X119.737 Y382.812 F1000.000
G1 X119.969 Y382.788 F1000.000
G1 X119.969 Y382.788 F1000.000
G1 X121.188 Y382.800 F1000.000
G1 X121.844 Y382.919 F1000.000
G1 X122.106 Y383.025 F1000.000
G1 X122.487 Y383.312 F1000.000
G1 X122.825 Y383.644 F1000.000
G1 X123.213 Y384.131 F1000.000
G1 X123.544 Y384.656 F1000.000
G1 X123.800 Y385.144 F1000.000
G1 X124.025 Y385.656 F1000.000
G1 X124.219 Y386.244 F1000.000
G1 X124.350 Y386.806 F1000.000
G1 X124.438 Y387.381 F1000.000
G1 X124.475 Y387.975 F1000.000
G1 X124.463 Y388.556 F1000.000
G1 X124.400 Y389.144 F1000.000
G1 X124.287 Y389.725 F1000.000
G1 X124.088 Y390.281 F1000.000
G1 X124.044 Y390.369 F1000.000
G1 X123.894 Y390.500 F1000.000
G1 X123.806 Y390.550 F1000.000
G1 X122.106 Y390.562 F1000.000
G1 X122.106 Y390.562 F1000.000
G1 X121.763 Y390.512 F1000.000
G1 X121.550 Y390.431 F1000.000
G1 X121.456 Y390.375 F1000.000
G1 X121.375 Y390.300 F1000.000
G0 X121.319 Y390.212
G0 X121.256 Y390.012
G0 X121.200 Y389.194
G0 X120.944 Y383.769
G1 X120.931 Y383.625 F1000.000
G1 X120.931 Y383.356 F1000.000
G1 X120.950 Y383.238 F1000.000
G1 X120.987 Y383.131 F1000.000
G1 X121.050 Y383.044 F1000.000
G1 X121.125 Y382.969 F1000.000
G1 X121.319 Y382.869 F1000.000
G1 X121.537 Y382.812 F1000.000
G1 X121.769 Y382.788 F1000.000
G1 X121.769 Y382.788 F1000.000
G1 X123.081 Y382.794 F1000.000
G1 X123.737 Y382.919 F1000.000
G1 X124.000 Y383.038 F1000.000
G1 X124.300 Y383.275 F1000.000
G1 X124.638 Y383.613 F1000.000
G1 X125.031 Y384.094 F1000.000
G1 X125.362 Y384.619 F1000.000
G1 X125.625 Y385.125 F1000.000
G1 X125.856 Y385.625 F1000.000
G1 X126.056 Y386.212 F1000.000
G1 X126.200 Y386.788 F1000.000
G1 X126.300 Y387.375 F1000.000
G1 X126.350 Y387.988 F1000.000
G1 X126.350 Y388.587 F1000.000
G1 X126.300 Y389.188 F1000.000
G1 X126.125 Y389.875 F1000.000
G1 X125.906 Y390.319 F1000.000
G1 X125.850 Y390.400 F1000.000
G1 X125.694 Y390.525 F1000.000
G1 X125.600 Y390.562 F1000.000
G1 X124.000 Y390.562 F1000.000
G1 X124.000 Y390.562 F1000.000
G1 X123.656 Y390.512 F1000.000
G1 X123.444 Y390.431 F1000.000
G1 X123.350 Y390.375 F1000.000
G1 X123.269 Y390.300 F1000.000
G0 X123.213 Y390.212
G0 X123.156 Y390.012
G0 X123.125 Y389.625
G0 X122.950 Y383.769
G1 X122.950 Y383.625 F1000.000
G1 X122.950 Y383.356 F1000.000
G1 X122.969 Y383.238 F1000.000
G1 X123.013 Y383.131 F1000.000
G1 X123.075 Y383.044 F1000.000
G1 X123.150 Y382.969 F1000.000
G1 X123.344 Y382.869 F1000.000
G1 X123.562 Y382.812 F1000.000
G1 X123.794 Y382.788 F1000.000
G1 X123.794 Y382.788 F1000.000
G1 X124.919 Y382.800 F1000.000
G1 X125.481 Y382.900 F1000.000
G1 X125.844 Y383.044 F1000.000
G1 X126.419 Y383.550 F1000.000
G1 X126.888 Y384.087 F1000.000
G1 X127.219 Y384.613 F1000.000
G1 X127.700 Y385.581 F1000.000
G1 X127.900 Y386.169 F1000.000
G1 X128.044 Y386.738 F1000.000
G1 X128.156 Y387.325 F1000.000
G1 X128.213 Y387.944 F1000.000
G1 X128.219 Y388.550 F1000.000
G1 X128.150 Y389.156 F1000.000
G1 X128.062 Y389.613 F1000.000
G1 X127.881 Y390.137 F1000.000
G1 X127.794 Y390.312 F1000.000
G1 X127.650 Y390.450 F1000.000
G1 X127.569 Y390.506 F1000.000
G1 X127.475 Y390.538 F1000.000
G1 X125.775 Y390.562 F1000.000
G1 X125.775 Y390.562 F1000.000
G1 X125.431 Y390.512 F1000.000
G1 X125.219 Y390.431 F1000.000
G1 X125.125 Y390.375 F1000.000
G1 X125.044 Y390.300 F1000.000
G0 X124.987 Y390.212
G0 X124.931 Y390.012
G0 X124.900 Y389.625
G0 X124.750 Y383.769
G1 X124.750 Y383.625 F1000.000
G1 X124.750 Y383.356 F1000.000
G1 X124.769 Y383.238 F1000.000
G1 X124.812 Y383.131 F1000.000
G1 X124.875 Y383.044 F1000.000
G1 X124.950 Y382.969 F1000.000
G1 X125.144 Y382.869 F1000.000
G1 X125.362 Y382.812 F1000.000
G1 X125.594 Y382.788 F1000.000
G1 X125.594 Y382.788 F1000.000
G1 X126.812 Y382.800 F1000.000
G1 X127.375 Y382.906 F1000.000
G1 X127.725 Y383.062 F1000.000
G1 X128.031 Y383.300 F1000.000
G1 X128.556 Y383.850 F1000.000
G1 X128.931 Y384.344 F1000.000
G1 X129.238 Y384.881 F1000.000
G1 X129.469 Y385.394 F1000.000
G1 X129.669 Y385.881 F1000.000
G1 X129.838 Y386.481 F1000.000
G1 X129.956 Y387.062 F1000.000
G1 X130.037 Y387.669 F1000.000
G1 X130.037 Y388.663 F1000.000
G1 X129.969 Y389.225 F1000.000
G1 X129.856 Y389.500 F1000.000
G1 X129.694 Y389.750 F1000.000
G1 X129.369 Y389.988 F1000.000
G1 X128.531 Y390.369 F1000.000
G1 X128.031 Y390.494 F1000.000
G1 X127.731 Y390.519 F1000.000
G1 X127.731 Y390.519 F1000.000
G1 X127.381 Y390.488 F1000.000
G1 X127.162 Y390.425 F1000.000
G1 X127.062 Y390.375 F1000.000
G1 X126.981 Y390.306 F1000.000
G0 X126.919 Y390.225
G0 X126.856 Y390.031
G0 X126.819 Y389.644
G0 X126.537 Y383.706
G1 X126.531 Y383.569 F1000.000
G1 X126.531 Y383.306 F1000.000
G1 X126.550 Y383.188 F1000.000
G1 X126.594 Y383.081 F1000.000
G1 X126.656 Y383.000 F1000.000
G1 X126.737 Y382.938 F1000.000
G1 X126.938 Y382.850 F1000.000
G1 X127.394 Y382.800 F1000.000
G1 X127.394 Y382.800 F1000.000
G1 X128.238 Y382.900 F1000.000
G1 X128.800 Y383.069 F1000.000
G1 X129.562 Y383.469 F1000.000
G1 X130.231 Y384.031 F1000.000
G1 X130.537 Y384.406 F1000.000
G1 X130.838 Y384.894 F1000.000
G1 X131.069 Y385.419 F1000.000
G1 X131.238 Y386.169 F1000.000
G1 X131.269 Y386.825 F1000.000
G1 X131.188 Y387.481 F1000.000
G1 X131.019 Y388.044 F1000.000
G1 X130.556 Y388.919 F1000.000
G1 X130.444 Y389.081 F1000.000
G1 X129.956 Y389.562 F1000.000
G1 X129.875 Y389.625 F1000.000
G1 X129.875 Y389.625 F1000.000
G1 X129.569 Y389.775 F1000.000
G1 X129.344 Y389.831 F1000.000
G1 X129.119 Y389.850 F1000.000
G0 X129.000 Y389.844
G0 X127.037 Y389.444
G0 X120.419 Y389.337
G0 X112.375 Y389.406
G0 X95.444 Y389.356
G0 X80.469 Y389.375
G0 X76.737 Y389.319
G0 X70.350 Y389.294
G0 X69.369 Y389.413
G0 X67.531 Y389.356
G0 X67.306 Y389.381
G0 X66.050 Y389.944
G1 X65.938 Y390.000 F1000.000
G1 X65.819 Y390.056 F1000.000
G1 X65.162 Y390.425 F1000.000
G1 X64.950 Y390.500 F1000.000
G1 X64.625 Y390.562 F1000.000
G1 X64.625 Y390.562 F1000.000
G1 X63.325 Y390.550 F1000.000
G1 X62.725 Y390.431 F1000.000
G1 X62.431 Y390.319 F1000.000
G1 X62.250 Y390.206 F1000.000
G1 X61.781 Y389.794 F1000.000
G1 X61.300 Y389.238 F1000.000
G1 X60.969 Y388.700 F1000.000
G1 X60.731 Y388.156 F1000.000
G1 X60.594 Y387.756 F1000.000
G1 X60.406 Y386.875 F1000.000
G1 X60.369 Y386.250 F1000.000
G1 X60.381 Y385.731 F1000.000
G1 X60.431 Y385.169 F1000.000
G1 X60.550 Y384.569 F1000.000
G1 X60.700 Y384.025 F1000.000
G1 X60.987 Y383.294 F1000.000
G1 X61.131 Y383.031 F1000.000
G1 X61.263 Y382.881 F1000.000
G1 X61.344 Y382.825 F1000.000
G1 X61.431 Y382.788 F1000.000
G1 X61.431 Y382.788 F1000.000
G1 X61.763 Y382.831 F1000.000
G1 X61.975 Y382.906 F1000.000
G1 X62.069 Y382.962 F1000.000
G1 X62.144 Y383.031 F1000.000
G0 X62.212 Y383.119
G0 X62.294 Y383.312
G0 X63.513 Y389.544
G1 X63.538 Y389.675 F1000.000
G1 X63.600 Y390.012 F1000.000
G1 X63.594 Y390.119 F1000.000
G1 X63.562 Y390.206 F1000.000
G1 X63.513 Y390.288 F1000.000
G1 X63.438 Y390.363 F1000.000
G1 X63.250 Y390.462 F1000.000
G1 X62.825 Y390.562 F1000.000
G1 X62.825 Y390.562 F1000.000
G1 X61.625 Y390.550 F1000.000
G1 X61.025 Y390.431 F1000.000
G1 X60.737 Y390.300 F1000.000
G1 X60.250 Y389.919 F1000.000
G1 X60.031 Y389.694 F1000.000
G1 X59.625 Y389.212 F1000.000
G1 X59.300 Y388.675 F1000.000
G1 X59.075 Y388.200 F1000.000
G1 X58.925 Y387.788 F1000.000
G1 X58.794 Y387.344 F1000.000
G1 X58.656 Y386.738 F1000.000
G1 X58.581 Y386.113 F1000.000
G1 X58.550 Y385.531 F1000.000
G1 X58.600 Y384.906 F1000.000
G1 X58.669 Y384.444 F1000.000
G1 X58.800 Y383.900 F1000.000
G1 X59.138 Y383.012 F1000.000
G1 X59.194 Y382.931 F1000.000
G1 X59.350 Y382.800 F1000.000
G1 X59.444 Y382.788 F1000.000
G1 X59.444 Y382.788 F1000.000
G1 X59.775 Y382.831 F1000.000
G1 X59.987 Y382.906 F1000.000
G1 X60.081 Y382.962 F1000.000
G1 X60.163 Y383.031 F1000.000
G0 X60.225 Y383.113
G0 X60.312 Y383.306
G0 X61.700 Y389.556
G1 X61.725 Y389.681 F1000.000
G1 X61.794 Y390.019 F1000.000
G1 X61.794 Y390.119 F1000.000
G1 X61.763 Y390.212 F1000.000
G1 X61.712 Y390.288 F1000.000
G1 X61.638 Y390.363 F1000.000
G1 X61.450 Y390.462 F1000.000
G1 X61.025 Y390.562 F1000.000
G1 X61.025 Y390.562 F1000.000
G1 X60.025 Y390.550 F1000.000
G1 X59.425 Y390.438 F1000.000
G1 X59.138 Y390.325 F1000.000
G1 X58.638 Y389.950 F1000.000
G1 X58.413 Y389.725 F1000.000
G1 X58.000 Y389.250 F1000.000
G1 X57.650 Y388.725 F1000.000
G1 X57.381 Y388.212 F1000.000
G1 X57.038 Y387.312 F1000.000
G1 X56.900 Y386.700 F1000.000
G1 X56.825 Y386.169 F1000.000
G1 X56.775 Y385.044 F1000.000
G1 X56.825 Y384.419 F1000.000
G1 X56.913 Y383.800 F1000.000
G1 X57.144 Y383.113 F1000.000
G1 X57.244 Y382.938 F1000.000
G1 X57.312 Y382.863 F1000.000
G1 X57.394 Y382.800 F1000.000
G1 X57.487 Y382.788 F1000.000
G1 X57.487 Y382.788 F1000.000
G1 X57.819 Y382.831 F1000.000
G1 X58.031 Y382.906 F1000.000
G1 X58.125 Y382.962 F1000.000
G1 X58.206 Y383.031 F1000.000
G0 X58.275 Y383.113
G0 X58.369 Y383.306
G0 X60.094 Y389.562
G1 X60.125 Y389.688 F1000.000
G1 X60.206 Y390.019 F1000.000
G1 X60.206 Y390.119 F1000.000
G1 X60.188 Y390.212 F1000.000
G1 X60.131 Y390.294 F1000.000
G1 X60.062 Y390.363 F1000.000
G1 X59.875 Y390.469 F1000.000
G1 X59.450 Y390.562 F1000.000
G1 X59.450 Y390.562 F1000.000
G1 X58.350 Y390.556 F1000.000
G1 X57.850 Y390.475 F1000.000
G1 X57.550 Y390.375 F1000.000
G1 X57.281 Y390.225 F1000.000
G1 X56.956 Y389.969 F1000.000
G1 X56.294 Y389.294 F1000.000
G1 X55.938 Y388.775 F1000.000
G1 X55.694 Y388.337 F1000.000
G1 X55.494 Y387.944 F1000.000
G1 X55.288 Y387.350 F1000.000
G1 X55.163 Y386.856 F1000.000
G1 X54.987 Y385.812 F1000.000
G1 X54.962 Y385.188 F1000.000
G1 X54.975 Y384.562 F1000.000
G1 X55.044 Y383.938 F1000.000
G1 X55.281 Y383.087 F1000.000
G1 X55.381 Y382.913 F1000.000
G1 X55.531 Y382.788 F1000.000
G1 X55.531 Y382.788 F1000.000
G1 X55.862 Y382.831 F1000.000
G1 X56.075 Y382.906 F1000.000
G1 X56.169 Y382.962 F1000.000
G1 X56.250 Y383.031 F1000.000
G0 X56.319 Y383.113
G0 X56.419 Y383.306
G0 X58.275 Y389.562
G1 X58.312 Y389.688 F1000.000
G1 X58.400 Y390.019 F1000.000
G1 X58.406 Y390.119 F1000.000
G1 X58.381 Y390.212 F1000.000
G1 X58.331 Y390.294 F1000.000
G1 X58.263 Y390.363 F1000.000
G1 X58.075 Y390.469 F1000.000
G1 X57.650 Y390.562 F1000.000
G1 X57.650 Y390.562 F1000.000
G1 X56.550 Y390.550 F1000.000
G1 X55.950 Y390.431 F1000.000
G1 X55.750 Y390.363 F1000.000
G1 X55.156 Y389.938 F1000.000
G1 X54.931 Y389.719 F1000.000
G1 X54.500 Y389.256 F1000.000
G1 X54.144 Y388.738 F1000.000
G1 X53.700 Y387.875 F1000.000
G1 X53.500 Y387.281 F1000.000
G1 X53.350 Y386.781 F1000.000
G1 X53.231 Y386.163 F1000.000
G1 X53.169 Y385.556 F1000.000
G1 X53.144 Y384.950 F1000.000
G1 X53.175 Y384.325 F1000.000
G1 X53.256 Y383.706 F1000.000
G1 X53.475 Y383.019 F1000.000
G1 X53.525 Y382.931 F1000.000
G1 X53.669 Y382.800 F1000.000
G1 X53.763 Y382.788 F1000.000
G1 X53.763 Y382.788 F1000.000
G1 X54.094 Y382.831 F1000.000
G1 X54.306 Y382.906 F1000.000
G1 X54.481 Y383.031 F1000.000
G0 X54.550 Y383.113
G0 X54.694 Y383.406
G0 X56.688 Y389.569
G1 X56.725 Y389.694 F1000.000
G1 X56.819 Y390.019 F1000.000
G1 X56.825 Y390.119 F1000.000
G1 X56.806 Y390.212 F1000.000
G1 X56.756 Y390.294 F1000.000
G1 X56.688 Y390.363 F1000.000
G1 X56.500 Y390.469 F1000.000
G1 X56.075 Y390.562 F1000.000
G1 X56.075 Y390.562 F1000.000
G1 X54.775 Y390.544 F1000.000
G1 X54.275 Y390.444 F1000.000
G1 X53.888 Y390.300 F1000.000
G1 X53.388 Y389.925 F1000.000
G1 X53.163 Y389.700 F1000.000
G1 X52.737 Y389.238 F1000.000
G1 X52.375 Y388.725 F1000.000
G1 X51.875 Y387.794 F1000.000
G1 X51.656 Y387.206 F1000.000
G1 X51.506 Y386.663 F1000.000
G1 X51.394 Y386.113 F1000.000
G1 X51.331 Y385.519 F1000.000
G1 X51.294 Y384.950 F1000.000
G1 X51.312 Y384.325 F1000.000
G1 X51.413 Y383.706 F1000.000
G1 X51.656 Y382.956 F1000.000
G1 X51.719 Y382.881 F1000.000
G1 X51.794 Y382.819 F1000.000
G1 X51.888 Y382.788 F1000.000
G1 X51.888 Y382.788 F1000.000
G1 X52.219 Y382.831 F1000.000
G1 X52.431 Y382.906 F1000.000
G1 X52.606 Y383.031 F1000.000
G0 X52.675 Y383.113
G0 X52.825 Y383.400
G0 X54.875 Y389.569
G1 X54.919 Y389.694 F1000.000
G1 X55.019 Y390.019 F1000.000
G1 X55.025 Y390.119 F1000.000
G1 X55.006 Y390.212 F1000.000
G1 X54.956 Y390.294 F1000.000
G1 X54.888 Y390.363 F1000.000
G1 X54.700 Y390.469 F1000.000
G1 X54.275 Y390.562 F1000.000
G1 X54.275 Y390.562 F1000.000
G1 X53.075 Y390.550 F1000.000
G1 X52.575 Y390.469 F1000.000
G1 X52.275 Y390.369 F1000.000
G1 X51.919 Y390.163 F1000.000
G1 X51.594 Y389.906 F1000.000
G1 X50.987 Y389.325 F1000.000
G1 X50.612 Y388.819 F1000.000
G1 X50.138 Y387.988 F1000.000
G1 X49.913 Y387.400 F1000.000
G1 X49.631 Y386.394 F1000.000
G1 X49.544 Y385.769 F1000.000
G1 X49.500 Y385.169 F1000.000
G1 X49.487 Y384.544 F1000.000
G1 X49.538 Y383.919 F1000.000
G1 X49.781 Y383.019 F1000.000
G1 X49.906 Y382.863 F1000.000
G1 X49.981 Y382.800 F1000.000
G1 X50.075 Y382.788 F1000.000
G1 X50.075 Y382.788 F1000.000
G1 X50.406 Y382.831 F1000.000
G1 X50.619 Y382.906 F1000.000
G1 X50.794 Y383.031 F1000.000
G0 X50.862 Y383.113
G0 X51.013 Y383.400
G0 X53.075 Y389.569
G1 X53.119 Y389.694 F1000.000
G1 X53.219 Y390.019 F1000.000
G1 X53.225 Y390.119 F1000.000
G1 X53.206 Y390.212 F1000.000
G1 X53.156 Y390.294 F1000.000
G1 X53.087 Y390.363 F1000.000
G1 X52.900 Y390.469 F1000.000
G1 X52.475 Y390.562 F1000.000
G1 X52.475 Y390.562 F1000.000
G1 X51.275 Y390.550 F1000.000
G1 X50.675 Y390.444 F1000.000
G1 X50.475 Y390.381 F1000.000
G1 X50.288 Y390.288 F1000.000
G1 X49.712 Y389.831 F1000.000
G1 X49.200 Y389.306 F1000.000
G1 X48.819 Y388.806 F1000.000
G1 X48.500 Y388.262 F1000.000
G1 X48.288 Y387.825 F1000.000
G1 X47.944 Y386.856 F1000.000
G1 X47.812 Y386.244 F1000.000
G1 X47.731 Y385.656 F1000.000
G1 X47.681 Y385.031 F1000.000
G1 X47.694 Y384.406 F1000.000
G1 X47.750 Y383.781 F1000.000
G1 X47.950 Y383.081 F1000.000
G1 X47.987 Y382.988 F1000.000
G1 X48.044 Y382.906 F1000.000
G1 X48.119 Y382.837 F1000.000
G1 X48.206 Y382.788 F1000.000
G1 X48.206 Y382.788 F1000.000
G1 X48.538 Y382.831 F1000.000
G1 X48.750 Y382.906 F1000.000
G1 X48.925 Y383.031 F1000.000
G0 X48.994 Y383.113
G0 X49.144 Y383.400
G0 X51.269 Y389.569
G1 X51.312 Y389.694 F1000.000
G1 X51.419 Y390.019 F1000.000
G1 X51.425 Y390.119 F1000.000
G1 X51.406 Y390.212 F1000.000
G1 X51.356 Y390.294 F1000.000
G1 X51.288 Y390.363 F1000.000
G1 X51.100 Y390.469 F1000.000
G1 X50.675 Y390.562 F1000.000
G1 X50.675 Y390.562 F1000.000
G1 X49.475 Y390.550 F1000.000
G1 X48.875 Y390.438 F1000.000
G1 X48.581 Y390.325 F1000.000
G1 X48.231 Y390.100 F1000.000
G1 X47.837 Y389.756 F1000.000
G1 X47.394 Y389.306 F1000.000
G1 X47.013 Y388.806 F1000.000
G1 X46.694 Y388.262 F1000.000
G1 X46.475 Y387.800 F1000.000
G1 X46.138 Y386.844 F1000.000
G1 X45.981 Y386.231 F1000.000
G1 X45.875 Y385.613 F1000.000
G1 X45.837 Y384.988 F1000.000
G1 X45.831 Y384.456 F1000.000
G1 X45.881 Y383.831 F1000.000
G1 X46.075 Y383.137 F1000.000
G1 X46.156 Y382.950 F1000.000
G1 X46.219 Y382.875 F1000.000
G1 X46.294 Y382.812 F1000.000
G1 X46.388 Y382.788 F1000.000
G1 X46.388 Y382.788 F1000.000
G1 X46.719 Y382.831 F1000.000
G1 X46.931 Y382.906 F1000.000
G1 X47.106 Y383.031 F1000.000
G0 X47.175 Y383.113
G0 X47.325 Y383.400
G0 X49.469 Y389.569
G1 X49.513 Y389.694 F1000.000
G1 X49.619 Y390.019 F1000.000
G1 X49.625 Y390.119 F1000.000
G1 X49.606 Y390.212 F1000.000
G1 X49.556 Y390.294 F1000.000
G1 X49.487 Y390.363 F1000.000
G1 X49.300 Y390.469 F1000.000
G1 X48.875 Y390.562 F1000.000
G1 X48.875 Y390.562 F1000.000
G1 X47.675 Y390.550 F1000.000
G1 X46.975 Y390.413 F1000.000
G1 X46.688 Y390.281 F1000.000
G1 X46.513 Y390.169 F1000.000
G1 X45.962 Y389.694 F1000.000
G1 X45.531 Y389.238 F1000.000
G1 X45.163 Y388.731 F1000.000
G1 X44.856 Y388.206 F1000.000
G1 X44.638 Y387.750 F1000.000
G1 X44.456 Y387.262 F1000.000
G1 X44.288 Y386.750 F1000.000
G1 X44.156 Y386.137 F1000.000
G1 X44.075 Y385.544 F1000.000
G1 X44.031 Y384.919 F1000.000
G1 X44.044 Y384.294 F1000.000
G1 X44.100 Y383.669 F1000.000
G1 X44.325 Y382.975 F1000.000
G1 X44.388 Y382.894 F1000.000
G1 X44.462 Y382.825 F1000.000
G1 X44.550 Y382.788 F1000.000
G1 X44.550 Y382.788 F1000.000
G1 X44.881 Y382.831 F1000.000
G1 X45.094 Y382.906 F1000.000
G1 X45.269 Y383.031 F1000.000
G0 X45.344 Y383.113
G0 X45.494 Y383.406
G0 X47.669 Y389.575
G1 X47.712 Y389.700 F1000.000
G1 X47.819 Y390.025 F1000.000
G1 X47.825 Y390.125 F1000.000
G1 X47.806 Y390.212 F1000.000
G1 X47.756 Y390.294 F1000.000
G1 X47.688 Y390.363 F1000.000
G1 X47.500 Y390.469 F1000.000
G1 X47.075 Y390.562 F1000.000
G1 X47.075 Y390.562 F1000.000
G1 X45.775 Y390.544 F1000.000
G1 X45.175 Y390.425 F1000.000
G1 X44.888 Y390.312 F1000.000
G1 X44.306 Y389.875 F1000.000
G1 X43.725 Y389.262 F1000.000
G1 X43.356 Y388.756 F1000.000
G1 X43.044 Y388.212 F1000.000
G1 X42.831 Y387.769 F1000.000
G1 X42.475 Y386.769 F1000.000
G1 X42.344 Y386.156 F1000.000
G1 X42.250 Y385.544 F1000.000
G1 X42.188 Y384.919 F1000.000
G1 X42.181 Y384.294 F1000.000
G1 X42.275 Y383.675 F1000.000
G1 X42.494 Y382.981 F1000.000
G1 X42.550 Y382.900 F1000.000
G1 X42.625 Y382.831 F1000.000
G1 X42.712 Y382.788 F1000.000
G1 X42.712 Y382.788 F1000.000
G1 X43.044 Y382.831 F1000.000
G1 X43.256 Y382.906 F1000.000
G1 X43.431 Y383.031 F1000.000
G0 X43.506 Y383.113
G0 X43.656 Y383.406
G0 X45.862 Y389.575
G1 X45.906 Y389.700 F1000.000
G1 X46.013 Y390.025 F1000.000
G1 X46.025 Y390.125 F1000.000
G1 X46.000 Y390.212 F1000.000
G1 X45.956 Y390.294 F1000.000
G1 X45.888 Y390.363 F1000.000
G1 X45.700 Y390.469 F1000.000
G1 X45.275 Y390.562 F1000.000
G1 X45.275 Y390.562 F1000.000
G1 X44.075 Y390.550 F1000.000
G1 X43.375 Y390.413 F1000.000
G1 X43.175 Y390.344 F1000.000
G1 X42.663 Y389.994 F1000.000
G1 X42.356 Y389.712 F1000.000
G1 X41.919 Y389.262 F1000.000
G1 X41.544 Y388.756 F1000.000
G1 X41.225 Y388.212 F1000.000
G1 X41.013 Y387.775 F1000.000
G1 X40.663 Y386.794 F1000.000
G1 X40.525 Y386.181 F1000.000
G1 X40.431 Y385.581 F1000.000
G1 X40.369 Y384.956 F1000.000
G1 X40.369 Y384.331 F1000.000
G1 X40.450 Y383.706 F1000.000
G1 X40.663 Y382.981 F1000.000
G1 X40.725 Y382.900 F1000.000
G1 X40.800 Y382.831 F1000.000
G1 X40.888 Y382.788 F1000.000
G1 X40.888 Y382.788 F1000.000
G1 X41.219 Y382.831 F1000.000
G1 X41.431 Y382.906 F1000.000
G1 X41.606 Y383.031 F1000.000
G0 X41.681 Y383.113
G0 X41.831 Y383.406
G0 X44.062 Y389.575
G1 X44.106 Y389.700 F1000.000
G1 X44.212 Y390.025 F1000.000
G1 X44.225 Y390.125 F1000.000
G1 X44.200 Y390.212 F1000.000
G1 X44.156 Y390.294 F1000.000
G1 X44.087 Y390.363 F1000.000
G1 X43.900 Y390.469 F1000.000
G1 X43.475 Y390.562 F1000.000
G1 X43.475 Y390.562 F1000.000
G1 X42.275 Y390.550 F1000.000
G1 X41.575 Y390.413 F1000.000
G1 X41.375 Y390.344 F1000.000
G1 X40.938 Y390.056 F1000.000
G1 X40.544 Y389.719 F1000.000
G1 X40.094 Y389.281 F1000.000
G1 X39.725 Y388.769 F1000.000
G1 X39.263 Y387.956 F1000.000
G1 X39.013 Y387.381 F1000.000
G1 X38.825 Y386.781 F1000.000
G1 X38.681 Y386.225 F1000.000
G1 X38.575 Y385.606 F1000.000
G1 X38.525 Y384.981 F1000.000
G1 X38.519 Y384.369 F1000.000
G1 X38.600 Y383.744 F1000.000
G1 X38.781 Y383.106 F1000.000
G1 X38.869 Y382.925 F1000.000
G1 X39.019 Y382.794 F1000.000
G1 X39.019 Y382.794 F1000.000
G1 X39.350 Y382.837 F1000.000
G1 X39.562 Y382.913 F1000.000
G1 X39.737 Y383.038 F1000.000
G0 X39.812 Y383.119
G0 X39.969 Y383.406
G0 X42.256 Y389.575
G1 X42.300 Y389.700 F1000.000
G1 X42.413 Y390.025 F1000.000
G1 X42.419 Y390.125 F1000.000
G1 X42.400 Y390.212 F1000.000
G1 X42.356 Y390.294 F1000.000
G1 X42.281 Y390.363 F1000.000
G1 X42.100 Y390.469 F1000.000
G1 X41.675 Y390.562 F1000.000
G1 X41.675 Y390.562 F1000.000
G1 X40.375 Y390.550 F1000.000
G1 X39.775 Y390.444 F1000.000
G1 X39.487 Y390.331 F1000.000
G1 X39.056 Y390.038 F1000.000
G1 X38.744 Y389.750 F1000.000
G1 X38.300 Y389.306 F1000.000
G1 X37.919 Y388.806 F1000.000
G1 X37.587 Y388.269 F1000.000
G1 X37.350 Y387.781 F1000.000
G1 X37.169 Y387.331 F1000.000
G1 X36.981 Y386.800 F1000.000
G1 X36.844 Y386.188 F1000.000
G1 X36.750 Y385.600 F1000.000
G1 X36.694 Y384.975 F1000.000
G1 X36.694 Y384.350 F1000.000
G1 X36.775 Y383.725 F1000.000
G1 X36.987 Y382.988 F1000.000
G1 X37.050 Y382.906 F1000.000
G1 X37.125 Y382.837 F1000.000
G1 X37.212 Y382.788 F1000.000
G1 X37.212 Y382.788 F1000.000
G1 X37.544 Y382.831 F1000.000
G1 X37.756 Y382.906 F1000.000
G1 X37.931 Y383.031 F1000.000
G0 X38.006 Y383.113
G0 X38.163 Y383.406
G0 X40.456 Y389.575
G1 X40.500 Y389.700 F1000.000
G1 X40.612 Y390.025 F1000.000
G1 X40.619 Y390.125 F1000.000
G1 X40.600 Y390.212 F1000.000
G1 X40.556 Y390.294 F1000.000
G1 X40.481 Y390.363 F1000.000
G1 X40.300 Y390.469 F1000.000
G1 X39.875 Y390.562 F1000.000
G1 X39.875 Y390.562 F1000.000
G1 X38.475 Y390.544 F1000.000
G1 X37.975 Y390.444 F1000.000
G1 X37.681 Y390.331 F1000.000
G1 X37.331 Y390.106 F1000.000
G1 X36.862 Y389.694 F1000.000
G1 X36.438 Y389.231 F1000.000
G1 X36.056 Y388.731 F1000.000
G1 X35.731 Y388.194 F1000.000
G1 X35.506 Y387.725 F1000.000
G1 X35.325 Y387.262 F1000.000
G1 X35.138 Y386.719 F1000.000
G1 X35.000 Y386.106 F1000.000
G1 X34.906 Y385.512 F1000.000
G1 X34.850 Y384.887 F1000.000
G1 X34.850 Y384.262 F1000.000
G1 X34.950 Y383.644 F1000.000
G1 X35.175 Y382.962 F1000.000
G1 X35.237 Y382.881 F1000.000
G1 X35.312 Y382.812 F1000.000
G1 X35.406 Y382.788 F1000.000
G1 X35.406 Y382.788 F1000.000
G1 X35.737 Y382.831 F1000.000
G1 X35.950 Y382.906 F1000.000
G1 X36.125 Y383.031 F1000.000
G0 X36.200 Y383.113
G0 X36.356 Y383.406
G0 X38.656 Y389.575
G1 X38.700 Y389.700 F1000.000
G1 X38.812 Y390.025 F1000.000
G1 X38.819 Y390.125 F1000.000
G1 X38.800 Y390.212 F1000.000
G1 X38.756 Y390.294 F1000.000
G1 X38.681 Y390.363 F1000.000
G1 X38.500 Y390.469 F1000.000
G1 X38.075 Y390.562 F1000.000
G1 X38.075 Y390.562 F1000.000
G1 X36.775 Y390.550 F1000.000
G1 X36.175 Y390.438 F1000.000
G1 X35.875 Y390.337 F1000.000
G1 X35.606 Y390.181 F1000.000
G1 X35.050 Y389.712 F1000.000
G1 X34.612 Y389.262 F1000.000
G1 X34.231 Y388.762 F1000.000
G1 X33.700 Y387.831 F1000.000
G1 X33.462 Y387.250 F1000.000
G1 X33.300 Y386.712 F1000.000
G1 X33.181 Y386.181 F1000.000
G1 X33.081 Y385.613 F1000.000
G1 X33.038 Y384.988 F1000.000
G1 X33.031 Y384.363 F1000.000
G1 X33.106 Y383.738 F1000.000
G1 X33.325 Y382.988 F1000.000
G1 X33.388 Y382.906 F1000.000
G1 X33.462 Y382.837 F1000.000
G1 X33.544 Y382.788 F1000.000
G1 X33.544 Y382.788 F1000.000
G1 X33.875 Y382.831 F1000.000
G1 X34.087 Y382.906 F1000.000
G1 X34.263 Y383.031 F1000.000
G0 X34.337 Y383.113
G0 X34.538 Y383.500
G0 X36.850 Y389.575
G1 X36.894 Y389.700 F1000.000
G1 X37.006 Y390.025 F1000.000
G1 X37.019 Y390.125 F1000.000
G1 X37.000 Y390.212 F1000.000
G1 X36.956 Y390.294 F1000.000
G1 X36.881 Y390.363 F1000.000
G1 X36.700 Y390.469 F1000.000
G1 X36.275 Y390.562 F1000.000
G1 X36.275 Y390.562 F1000.000
G1 X34.875 Y390.550 F1000.000
G1 X34.275 Y390.431 F1000.000
G1 X33.987 Y390.319 F1000.000
G1 X33.644 Y390.087 F1000.000
G1 X33.400 Y389.894 F1000.000
G1 X32.794 Y389.312 F1000.000
G1 X32.419 Y388.806 F1000.000
G1 X31.913 Y387.938 F1000.000
G1 X31.675 Y387.356 F1000.000
G1 X31.369 Y386.319 F1000.000
G1 X31.269 Y385.700 F1000.000
G1 X31.219 Y385.094 F1000.000
G1 X31.200 Y384.469 F1000.000
G1 X31.244 Y383.844 F1000.000
G1 X31.462 Y383.050 F1000.000
G1 X31.500 Y382.956 F1000.000
G1 X31.562 Y382.875 F1000.000
G1 X31.637 Y382.812 F1000.000
G1 X31.731 Y382.788 F1000.000
G1 X31.731 Y382.788 F1000.000
G1 X32.062 Y382.831 F1000.000
G1 X32.275 Y382.906 F1000.000
G1 X32.450 Y383.031 F1000.000
G0 X32.525 Y383.113
G0 X32.675 Y383.406
G0 X34.844 Y389.575
G1 X34.888 Y389.700 F1000.000
G1 X34.994 Y390.025 F1000.000
G1 X35.000 Y390.125 F1000.000
G1 X34.981 Y390.212 F1000.000
G1 X34.931 Y390.294 F1000.000
G1 X34.862 Y390.363 F1000.000
G1 X34.675 Y390.469 F1000.000
G1 X34.250 Y390.562 F1000.000
G1 X34.250 Y390.562 F1000.000
G1 X33.150 Y390.556 F1000.000
G1 X32.550 Y390.456 F1000.000
G1 X32.250 Y390.356 F1000.000
G1 X31.894 Y390.150 F1000.000
G1 X31.419 Y389.744 F1000.000
G1 X30.981 Y389.288 F1000.000
G1 X30.575 Y388.806 F1000.000
G1 X30.250 Y388.269 F1000.000
G1 X30.038 Y387.837 F1000.000
G1 X29.856 Y387.406 F1000.000
G1 X29.663 Y386.850 F1000.000
G1 X29.519 Y386.238 F1000.000
G1 X29.419 Y385.656 F1000.000
G1 X29.363 Y385.031 F1000.000
G1 X29.356 Y384.406 F1000.000
G1 X29.400 Y383.781 F1000.000
G1 X29.600 Y383.081 F1000.000
G1 X29.700 Y382.906 F1000.000
G1 X29.775 Y382.837 F1000.000
G1 X29.856 Y382.788 F1000.000
G1 X29.856 Y382.788 F1000.000
G1 X30.188 Y382.831 F1000.000
G1 X30.400 Y382.906 F1000.000
G1 X30.575 Y383.031 F1000.000
G0 X30.650 Y383.113
G0 X30.800 Y383.406
G0 X33.038 Y389.575
G1 X33.081 Y389.700 F1000.000
G1 X33.188 Y390.025 F1000.000
G1 X33.200 Y390.125 F1000.000
G1 X33.175 Y390.212 F1000.000
G1 X33.131 Y390.294 F1000.000
G1 X33.062 Y390.363 F1000.000
G1 X32.875 Y390.469 F1000.000
G1 X32.450 Y390.562 F1000.000
G1 X32.450 Y390.562 F1000.000
G1 X31.150 Y390.538 F1000.000
G1 X30.650 Y390.438 F1000.000
G1 X30.262 Y390.294 F1000.000
G1 X29.613 Y389.781 F1000.000
G1 X29.113 Y389.244 F1000.000
G1 X28.731 Y388.744 F1000.000
G1 X28.406 Y388.206 F1000.000
G1 X28.169 Y387.725 F1000.000
G1 X27.969 Y387.225 F1000.000
G1 X27.669 Y386.131 F1000.000
G1 X27.575 Y385.506 F1000.000
G1 X27.531 Y384.881 F1000.000
G1 X27.525 Y384.256 F1000.000
G1 X27.619 Y383.637 F1000.000
G1 X27.812 Y383.038 F1000.000
G1 X27.856 Y382.944 F1000.000
G1 X27.919 Y382.869 F1000.000
G1 X27.994 Y382.806 F1000.000
G1 X28.087 Y382.788 F1000.000
G1 X28.087 Y382.788 F1000.000
G1 X28.419 Y382.831 F1000.000
G1 X28.631 Y382.906 F1000.000
G1 X28.806 Y383.031 F1000.000
G0 X28.881 Y383.113
G0 X29.031 Y383.406
G0 X31.238 Y389.575
G1 X31.281 Y389.700 F1000.000
G1 X31.387 Y390.025 F1000.000
G1 X31.400 Y390.125 F1000.000
G1 X31.375 Y390.212 F1000.000
G1 X31.331 Y390.294 F1000.000
G1 X31.262 Y390.363 F1000.000
G1 X31.075 Y390.469 F1000.000
G1 X30.650 Y390.562 F1000.000
G1 X30.650 Y390.562 F1000.000
G1 X29.350 Y390.544 F1000.000
G1 X28.850 Y390.444 F1000.000
G1 X28.650 Y390.381 F1000.000
G1 X28.375 Y390.231 F1000.000
G1 X27.800 Y389.769 F1000.000
G1 X27.275 Y389.256 F1000.000
G1 X26.900 Y388.750 F1000.000
G1 X26.600 Y388.256 F1000.000
G1 X26.381 Y387.812 F1000.000
G1 X26.025 Y386.856 F1000.000
G1 X25.856 Y386.250 F1000.000
G1 X25.738 Y385.631 F1000.000
G1 X25.688 Y385.006 F1000.000
G1 X25.669 Y384.506 F1000.000
G1 X25.731 Y383.881 F1000.000
G1 X25.931 Y383.113 F1000.000
G1 X26.019 Y382.931 F1000.000
G1 X26.163 Y382.800 F1000.000
G1 X26.256 Y382.788 F1000.000
G1 X26.256 Y382.788 F1000.000
G1 X26.587 Y382.831 F1000.000
G1 X26.800 Y382.906 F1000.000
G1 X26.975 Y383.031 F1000.000
G0 X27.050 Y383.113
G0 X27.200 Y383.406
G0 X29.438 Y389.575
G1 X29.481 Y389.700 F1000.000
G1 X29.587 Y390.025 F1000.000
G1 X29.600 Y390.125 F1000.000
G1 X29.575 Y390.212 F1000.000
G1 X29.531 Y390.294 F1000.000
G1 X29.462 Y390.363 F1000.000
G1 X29.275 Y390.469 F1000.000
G1 X28.850 Y390.562 F1000.000
G1 X28.850 Y390.562 F1000.000
G1 X27.650 Y390.550 F1000.000
G1 X26.950 Y390.419 F1000.000
G1 X26.750 Y390.350 F1000.000
G1 X26.312 Y390.069 F1000.000
G1 X25.919 Y389.712 F1000.000
G1 X25.469 Y389.269 F1000.000
G1 X25.087 Y388.769 F1000.000
G1 X24.756 Y388.231 F1000.000
G1 X24.531 Y387.775 F1000.000
G1 X24.350 Y387.319 F1000.000
G1 X24.169 Y386.806 F1000.000
G1 X24.000 Y386.200 F1000.000
G1 X23.881 Y385.581 F1000.000
G1 X23.844 Y384.956 F1000.000
G1 X23.831 Y384.475 F1000.000
G1 X23.881 Y383.850 F1000.000
G1 X24.062 Y383.175 F1000.000
G1 X24.131 Y382.988 F1000.000
G1 X24.188 Y382.906 F1000.000
G1 X24.262 Y382.837 F1000.000
G1 X24.344 Y382.788 F1000.000
G1 X24.344 Y382.788 F1000.000
G1 X24.675 Y382.831 F1000.000
G1 X24.887 Y382.906 F1000.000
G1 X25.062 Y383.031 F1000.000
G0 X25.137 Y383.113
G0 X25.337 Y383.506
G0 X27.625 Y389.575
G1 X27.675 Y389.700 F1000.000
G1 X27.788 Y390.025 F1000.000
G1 X27.794 Y390.125 F1000.000
G1 X27.775 Y390.212 F1000.000
G1 X27.731 Y390.294 F1000.000
G1 X27.656 Y390.363 F1000.000
G1 X27.475 Y390.469 F1000.000
G1 X27.050 Y390.562 F1000.000
G1 X27.050 Y390.562 F1000.000
G1 X25.750 Y390.550 F1000.000
G1 X25.150 Y390.438 F1000.000
G1 X24.856 Y390.325 F1000.000
G1 X24.344 Y389.975 F1000.000
G1 X24.038 Y389.694 F1000.000
G1 X23.619 Y389.225 F1000.000
G1 X23.238 Y388.725 F1000.000
G1 X22.906 Y388.188 F1000.000
G1 X22.637 Y387.656 F1000.000
G1 X22.419 Y387.144 F1000.000
G1 X22.225 Y386.544 F1000.000
G1 X22.094 Y385.962 F1000.000
G1 X22.006 Y385.375 F1000.000
G1 X21.969 Y384.769 F1000.000
G1 X21.981 Y384.175 F1000.000
G1 X22.087 Y383.587 F1000.000
G1 X22.275 Y383.012 F1000.000
G1 X22.325 Y382.925 F1000.000
G1 X22.469 Y382.794 F1000.000
G1 X22.469 Y382.794 F1000.000
G1 X22.800 Y382.837 F1000.000
G1 X23.012 Y382.913 F1000.000
G1 X23.188 Y383.038 F1000.000
G0 X23.262 Y383.119
G0 X23.462 Y383.506
G0 X25.819 Y389.581
G1 X25.869 Y389.706 F1000.000
G1 X25.981 Y390.025 F1000.000
G1 X25.994 Y390.125 F1000.000
G1 X25.975 Y390.212 F1000.000
G1 X25.931 Y390.294 F1000.000
G1 X25.856 Y390.363 F1000.000
G1 X25.675 Y390.469 F1000.000
G1 X25.250 Y390.562 F1000.000
G1 X25.250 Y390.562 F1000.000
G1 X23.950 Y390.550 F1000.000
G1 X23.350 Y390.438 F1000.000
G1 X23.056 Y390.325 F1000.000
G1 X22.300 Y389.756 F1000.000
G1 X21.850 Y389.319 F1000.000
G1 X21.450 Y388.831 F1000.000
G1 X21.125 Y388.331 F1000.000
G1 X20.887 Y387.925 F1000.000
G1 X20.631 Y387.350 F1000.000
G1 X20.456 Y386.825 F1000.000
G1 X20.325 Y386.300 F1000.000
G1 X20.163 Y385.181 F1000.000
G1 X20.150 Y384.556 F1000.000
G1 X20.175 Y383.931 F1000.000
G1 X20.419 Y383.031 F1000.000
G1 X20.462 Y382.938 F1000.000
G1 X20.606 Y382.800 F1000.000
G1 X20.700 Y382.788 F1000.000
G1 X20.700 Y382.788 F1000.000
G1 X21.031 Y382.831 F1000.000
G1 X21.244 Y382.906 F1000.000
G1 X21.419 Y383.031 F1000.000
G0 X21.494 Y383.113
G0 X21.694 Y383.500
G0 X24.019 Y389.575
G1 X24.069 Y389.700 F1000.000
G1 X24.181 Y390.025 F1000.000
G1 X24.194 Y390.125 F1000.000
G1 X24.175 Y390.212 F1000.000
G1 X24.131 Y390.294 F1000.000
G1 X24.056 Y390.363 F1000.000
G1 X23.875 Y390.469 F1000.000
G1 X23.450 Y390.562 F1000.000
G1 X23.450 Y390.562 F1000.000
G1 X22.150 Y390.550 F1000.000
G1 X21.550 Y390.438 F1000.000
G1 X21.250 Y390.337 F1000.000
G1 X20.725 Y390.000 F1000.000
G1 X20.406 Y389.725 F1000.000
G1 X19.956 Y389.288 F1000.000
G1 X19.569 Y388.788 F1000.000
G1 X19.256 Y388.288 F1000.000
G1 X19.031 Y387.850 F1000.000
G1 X18.669 Y386.906 F1000.000
G1 X18.494 Y386.300 F1000.000
G1 X18.369 Y385.681 F1000.000
G1 X18.312 Y385.056 F1000.000
G1 X18.294 Y384.544 F1000.000
G1 X18.325 Y383.919 F1000.000
G1 X18.562 Y383.031 F1000.000
G1 X18.606 Y382.938 F1000.000
G1 X18.750 Y382.800 F1000.000
G1 X18.844 Y382.788 F1000.000
G1 X18.844 Y382.788 F1000.000
G1 X19.175 Y382.831 F1000.000
G1 X19.387 Y382.906 F1000.000
G1 X19.562 Y383.031 F1000.000
G0 X19.637 Y383.113
G0 X19.837 Y383.500
G0 X22.219 Y389.581
G1 X22.269 Y389.706 F1000.000
G1 X22.381 Y390.025 F1000.000
G1 X22.394 Y390.125 F1000.000
G1 X22.375 Y390.212 F1000.000
G1 X22.331 Y390.294 F1000.000
G1 X22.256 Y390.363 F1000.000
G1 X22.075 Y390.469 F1000.000
G1 X21.650 Y390.562 F1000.000
G1 X21.650 Y390.562 F1000.000
G1 X20.250 Y390.550 F1000.000
G1 X19.650 Y390.438 F1000.000
G1 X19.262 Y390.294 F1000.000
G1 X18.756 Y389.919 F1000.000
G1 X18.094 Y389.250 F1000.000
G1 X17.712 Y388.750 F1000.000
G1 X17.381 Y388.212 F1000.000
G1 X17.144 Y387.738 F1000.000
G1 X16.950 Y387.256 F1000.000
G1 X16.762 Y386.719 F1000.000
G1 X16.619 Y386.106 F1000.000
G1 X16.525 Y385.519 F1000.000
G1 X16.469 Y384.894 F1000.000
G1 X16.469 Y384.269 F1000.000
G1 X16.556 Y383.650 F1000.000
G1 X16.750 Y383.019 F1000.000
G1 X16.800 Y382.931 F1000.000
G1 X16.944 Y382.794 F1000.000
G1 X16.944 Y382.794 F1000.000
G1 X17.275 Y382.837 F1000.000
G1 X17.488 Y382.913 F1000.000
G1 X17.663 Y383.038 F1000.000
G0 X17.738 Y383.119
G0 X17.894 Y383.406
G0 X20.206 Y389.575
G1 X20.250 Y389.700 F1000.000
G1 X20.363 Y390.025 F1000.000
G1 X20.369 Y390.125 F1000.000
G1 X20.350 Y390.212 F1000.000
G1 X20.306 Y390.294 F1000.000
G1 X20.231 Y390.363 F1000.000
G1 X20.050 Y390.469 F1000.000
G1 X19.625 Y390.562 F1000.000
G1 X19.625 Y390.562 F1000.000
G1 X18.425 Y390.556 F1000.000
G1 X17.825 Y390.450 F1000.000
G1 X17.438 Y390.306 F1000.000
G1 X16.775 Y389.794 F1000.000
G1 X16.256 Y389.275 F1000.000
G1 X15.875 Y388.775 F1000.000
G1 X15.550 Y388.238 F1000.000
G1 X15.319 Y387.775 F1000.000
G1 X15.137 Y387.312 F1000.000
G1 X14.956 Y386.794 F1000.000
G1 X14.819 Y386.181 F1000.000
G1 X14.725 Y385.594 F1000.000
G1 X14.669 Y384.969 F1000.000
G1 X14.669 Y384.344 F1000.000
G1 X14.744 Y383.719 F1000.000
G1 X14.931 Y383.044 F1000.000
G1 X14.969 Y382.950 F1000.000
G1 X15.113 Y382.812 F1000.000
G1 X15.206 Y382.788 F1000.000
G1 X15.206 Y382.788 F1000.000
G1 X15.537 Y382.831 F1000.000
G1 X15.750 Y382.906 F1000.000
G1 X15.925 Y383.031 F1000.000
G0 X16.000 Y383.113
G0 X16.150 Y383.406
G0 X18.413 Y389.575
G1 X18.456 Y389.700 F1000.000
G1 X18.562 Y390.025 F1000.000
G1 X18.575 Y390.125 F1000.000
G1 X18.550 Y390.212 F1000.000
G1 X18.506 Y390.294 F1000.000
G1 X18.438 Y390.363 F1000.000
G1 X18.250 Y390.469 F1000.000
G1 X17.825 Y390.562 F1000.000
G1 X17.825 Y390.562 F1000.000
G1 X16.525 Y390.544 F1000.000
G1 X16.025 Y390.450 F1000.000
G1 X15.637 Y390.306 F1000.000
G1 X15.294 Y390.075 F1000.000
G1 X14.900 Y389.738 F1000.000
G1 X14.463 Y389.288 F1000.000
G1 X14.056 Y388.806 F1000.000
G1 X13.731 Y388.269 F1000.000
G1 X13.512 Y387.831 F1000.000
G1 X13.331 Y387.406 F1000.000
G1 X13.137 Y386.850 F1000.000
G1 X12.994 Y386.238 F1000.000
G1 X12.900 Y385.669 F1000.000
G1 X12.844 Y385.044 F1000.000
G1 X12.844 Y384.419 F1000.000
G1 X12.894 Y383.806 F1000.000
G1 X13.119 Y383.012 F1000.000
G1 X13.169 Y382.925 F1000.000
G1 X13.312 Y382.794 F1000.000
G1 X13.312 Y382.794 F1000.000
G1 X13.644 Y382.837 F1000.000
G1 X13.856 Y382.913 F1000.000
G1 X14.031 Y383.038 F1000.000
G0 X14.106 Y383.119
G0 X14.306 Y383.512
G0 X16.600 Y389.575
G1 X16.650 Y389.700 F1000.000
G1 X16.762 Y390.025 F1000.000
G1 X16.769 Y390.125 F1000.000
G1 X16.750 Y390.212 F1000.000
G1 X16.706 Y390.294 F1000.000
G1 X16.631 Y390.363 F1000.000
G1 X16.450 Y390.469 F1000.000
G1 X16.025 Y390.562 F1000.000
G1 X16.025 Y390.562 F1000.000
G1 X14.625 Y390.538 F1000.000
G1 X13.925 Y390.369 F1000.000
G1 X13.738 Y390.281 F1000.000
G1 X13.006 Y389.706 F1000.000
G1 X12.569 Y389.256 F1000.000
G1 X12.194 Y388.750 F1000.000
G1 X11.894 Y388.244 F1000.000
G1 X11.675 Y387.831 F1000.000
G1 X11.444 Y387.244 F1000.000
G1 X11.287 Y386.712 F1000.000
G1 X11.062 Y385.606 F1000.000
G1 X11.012 Y384.981 F1000.000
G1 X11.000 Y384.356 F1000.000
G1 X11.081 Y383.731 F1000.000
G1 X11.250 Y383.119 F1000.000
G1 X11.331 Y382.938 F1000.000
G1 X11.475 Y382.800 F1000.000
G1 X11.569 Y382.788 F1000.000
G1 X11.569 Y382.788 F1000.000
G1 X11.900 Y382.831 F1000.000
G1 X12.113 Y382.906 F1000.000
G1 X12.287 Y383.031 F1000.000
G0 X12.363 Y383.113
G0 X12.519 Y383.406
G0 X14.806 Y389.575
G1 X14.850 Y389.700 F1000.000
G1 X14.963 Y390.025 F1000.000
G1 X14.969 Y390.125 F1000.000
G1 X14.950 Y390.212 F1000.000
G1 X14.906 Y390.294 F1000.000
G1 X14.831 Y390.363 F1000.000
G1 X14.650 Y390.469 F1000.000
G1 X14.225 Y390.562 F1000.000
G1 X14.225 Y390.562 F1000.000
G1 X12.925 Y390.550 F1000.000
G1 X12.325 Y390.438 F1000.000
G1 X12.025 Y390.337 F1000.000
G1 X11.669 Y390.119 F1000.000
G1 X11.200 Y389.719 F1000.000
G1 X10.756 Y389.275 F1000.000
G1 X10.381 Y388.769 F1000.000
G1 X10.094 Y388.294 F1000.000
G1 X9.863 Y387.875 F1000.000
G1 X9.625 Y387.294 F1000.000
G1 X9.463 Y386.756 F1000.000
G1 X9.338 Y386.212 F1000.000
G1 X9.231 Y385.631 F1000.000
G1 X9.181 Y385.006 F1000.000
G1 X9.169 Y384.381 F1000.000
G1 X9.250 Y383.756 F1000.000
G1 X9.425 Y383.125 F1000.000
G1 X9.506 Y382.938 F1000.000
G1 X9.650 Y382.806 F1000.000
G1 X9.744 Y382.788 F1000.000
G1 X9.744 Y382.788 F1000.000
G1 X10.075 Y382.831 F1000.000
G1 X10.287 Y382.906 F1000.000
G1 X10.463 Y383.031 F1000.000
G0 X10.537 Y383.113
G0 X10.694 Y383.406
G0 X13.006 Y389.575
G1 X13.050 Y389.700 F1000.000
G1 X13.162 Y390.025 F1000.000
G1 X13.169 Y390.125 F1000.000
G1 X13.150 Y390.212 F1000.000
G1 X13.106 Y390.294 F1000.000
G1 X13.031 Y390.363 F1000.000
G1 X12.850 Y390.469 F1000.000
G1 X12.425 Y390.562 F1000.000
G1 X12.425 Y390.562 F1000.000
G1 X11.025 Y390.544 F1000.000
G1 X10.425 Y390.431 F1000.000
G1 X10.131 Y390.319 F1000.000
G1 X9.787 Y390.094 F1000.000
G1 X9.394 Y389.756 F1000.000
G1 X8.950 Y389.312 F1000.000
G1 X8.569 Y388.812 F1000.000
G1 X8.244 Y388.275 F1000.000
G1 X8.025 Y387.825 F1000.000
G1 X7.662 Y386.869 F1000.000
G1 X7.494 Y386.262 F1000.000
G1 X7.375 Y385.644 F1000.000
G1 X7.325 Y385.019 F1000.000
G1 X7.306 Y384.506 F1000.000
G1 X7.369 Y383.881 F1000.000
G1 X7.569 Y383.131 F1000.000
G1 X7.656 Y382.950 F1000.000
G1 X7.719 Y382.875 F1000.000
G1 X7.794 Y382.812 F1000.000
G1 X7.888 Y382.788 F1000.000
G1 X7.888 Y382.788 F1000.000
G1 X8.219 Y382.831 F1000.000
G1 X8.431 Y382.906 F1000.000
G1 X8.606 Y383.031 F1000.000
G0 X8.675 Y383.113
G0 X8.831 Y383.406
G0 X10.994 Y389.575
G1 X11.037 Y389.700 F1000.000
G1 X11.144 Y390.025 F1000.000
G1 X11.150 Y390.125 F1000.000
G1 X11.131 Y390.212 F1000.000
G1 X11.081 Y390.294 F1000.000
G1 X11.012 Y390.363 F1000.000
G1 X10.825 Y390.469 F1000.000
G1 X10.400 Y390.562 F1000.000
G1 X10.400 Y390.562 F1000.000
G1 X9.300 Y390.556 F1000.000
G1 X8.800 Y390.488 F1000.000
G1 X8.400 Y390.369 F1000.000
G1 X8.125 Y390.219 F1000.000
G1 X7.713 Y389.900 F1000.000
G1 X7.125 Y389.300 F1000.000
G1 X6.737 Y388.806 F1000.000
G1 X6.412 Y388.269 F1000.000
G1 X6.188 Y387.831 F1000.000
G1 X5.987 Y387.350 F1000.000
G1 X5.794 Y386.812 F1000.000
G1 X5.644 Y386.200 F1000.000
G1 X5.537 Y385.594 F1000.000
G1 X5.469 Y384.969 F1000.000
G1 X5.481 Y384.344 F1000.000
G1 X5.544 Y383.844 F1000.000
G1 X5.631 Y383.387 F1000.000
G1 X5.875 Y382.794 F1000.000
G1 X5.938 Y382.712 F1000.000
G1 X6.019 Y382.650 F1000.000
G1 X6.112 Y382.631 F1000.000
G1 X6.112 Y382.631 F1000.000
G1 X6.344 Y382.762 F1000.000
G1 X6.544 Y382.931 F1000.000
G1 X6.694 Y383.113 F1000.000
G0 X6.750 Y383.212
G0 X6.994 Y383.794
G0 X9.175 Y389.575
G1 X9.225 Y389.700 F1000.000
G1 X9.338 Y390.025 F1000.000
G1 X9.344 Y390.125 F1000.000
G1 X9.325 Y390.212 F1000.000
G1 X9.281 Y390.294 F1000.000
G1 X9.206 Y390.363 F1000.000
G1 X9.025 Y390.469 F1000.000
G1 X8.600 Y390.562 F1000.000
G1 X8.600 Y390.562 F1000.000
G1 X7.500 Y390.556 F1000.000
G1 X7.000 Y390.488 F1000.000
G1 X6.600 Y390.381 F1000.000
G1 X6.244 Y390.175 F1000.000
G1 X5.919 Y389.919 F1000.000
G1 X5.444 Y389.506 F1000.000
G1 X5.044 Y389.025 F1000.000
G1 X4.525 Y388.225 F1000.000
G1 X4.112 Y387.256 F1000.000
G1 X3.850 Y386.356 F1000.000
G1 X3.675 Y384.656 F1000.000
G1 X3.737 Y383.356 F1000.000
G1 X3.856 Y382.856 F1000.000
G1 X4.088 Y382.413 F1000.000
G1 X4.388 Y382.019 F1000.000
G1 X4.612 Y381.819 F1000.000
G1 X4.700 Y381.769 F1000.000
G1 X4.794 Y381.750 F1000.000
G1 X4.888 Y381.756 F1000.000
G1 X4.888 Y381.756 F1000.000
G1 X5.088 Y382.025 F1000.000
G1 X5.188 Y382.225 F1000.000
G1 X5.250 Y382.438 F1000.000
G0 X5.281 Y382.544
G0 X7.375 Y389.462
G1 X7.412 Y389.587 F1000.000
G1 X7.506 Y389.919 F1000.000
G1 X7.513 Y390.025 F1000.000
G1 X7.494 Y390.119 F1000.000
G1 X7.450 Y390.206 F1000.000
G1 X7.388 Y390.288 F1000.000
G1 X7.219 Y390.419 F1000.000
G1 X6.800 Y390.569 F1000.000
G1 X6.800 Y390.569 F1000.000
G1 X5.800 Y390.738 F1000.000
G1 X5.500 Y390.744 F1000.000
G1 X5.200 Y390.656 F1000.000
G1 X4.825 Y390.481 F1000.000
G1 X4.287 Y390.156 F1000.000
G1 X3.825 Y389.750 F1000.000
G1 X3.706 Y389.575 F1000.000
G1 X3.619 Y389.387 F1000.000
G1 X3.619 Y386.988 F1000.000
G1 X3.619 Y386.988 F1000.000
G1 X3.663 Y386.644 F1000.000
G1 X3.737 Y386.431 F1000.000
G1 X3.794 Y386.344 F1000.000
G1 X3.850 Y386.288 F1000.000
G0 X3.906 Y386.281
G0 X3.962 Y386.306
G0 X4.138 Y386.531
G0 X5.912 Y389.562
G1 X5.975 Y389.669 F1000.000
G1 X6.144 Y389.962 F1000.000
G1 X6.175 Y390.062 F1000.000
G1 X6.194 Y390.169 F1000.000
G1 X6.181 Y390.269 F1000.000
G1 X6.112 Y390.469 F1000.000
G1 X5.981 Y390.650 F1000.000
G1 X5.731 Y390.887 F1000.000
G1 X5.731 Y390.887 F1000.000
G1 X5.131 Y391.244 F1000.000
G1 X4.844 Y391.350 F1000.000
G1 X4.744 Y391.369 F1000.000
G1 X4.444 Y391.350 F1000.000
G1 X4.144 Y391.275 F1000.000
G1 X3.850 Y391.163 F1000.000
G1 X3.763 Y391.106 F1000.000
G1 X3.625 Y390.950 F1000.000
G1 X3.619 Y390.850 F1000.000
G1 X3.619 Y390.850 F1000.000
G1 X3.638 Y390.619 F1000.000
G1 X3.700 Y390.413 F1000.000
G1 X3.756 Y390.337 F1000.000
G0 X3.825 Y390.300
G0 X3.906 Y390.294
G0 X4.100 Y390.331
G0 X4.731 Y390.581
G1 X4.831 Y390.625 F1000.000
G1 X5.138 Y390.762 F1000.000
G1 X5.213 Y390.825 F1000.000
G1 X5.250 Y390.900 F1000.000
G1 X5.263 Y390.981 F1000.000
G1 X5.250 Y391.075 F1000.000
G1 X5.156 Y391.262 F1000.000
G1 X5.025 Y391.444 F1000.000
G1 X5.025 Y391.444 F1000.000
G1 X4.662 Y391.775 F1000.000
G1 X4.406 Y391.938 F1000.000
G1 X4.219 Y392.019 F1000.000
G1 X4.019 Y392.056 F1000.000
G1 X3.819 Y392.031 F1000.000
G1 X3.725 Y391.981 F1000.000
G1 X3.650 Y391.913 F1000.000
G1 X3.619 Y391.812 F1000.000
G1 X3.619 Y391.812 F1000.000
G1 X3.650 Y391.594 F1000.000
G1 X3.688 Y391.512 F1000.000
G0 X3.750 Y391.469
G0 X3.825 Y391.450
G0 X4.019 Y391.481
G1 X4.125 Y391.512 F1000.000
G1 X4.425 Y391.625 F1000.000
G1 X4.494 Y391.681 F1000.000
G1 X4.531 Y391.744 F1000.000
G1 X4.525 Y391.819 F1000.000
G1 X4.388 Y392.075 F1000.000
G1 X4.388 Y392.075 F1000.000
G1 X4.181 Y392.288 F1000.000
G1 X3.931 Y392.456 F1000.000
G1 X3.837 Y392.494 F1000.000
G1 X3.737 Y392.500 F1000.000
G1 X3.638 Y392.481 F1000.000
G1 X3.619 Y392.381 F1000.000
G1 X3.619 Y392.381 F1000.000
G1 X3.650 Y392.312 F1000.000
G1 X3.700 Y392.275 F1000.000
G1 X3.775 Y392.275 F1000.000
G1 X3.850 Y392.300 F1000.000
G1 X3.906 Y392.344 F1000.000
G1 X3.931 Y392.406 F1000.000
G1 X3.913 Y392.550 F1000.000
G1 X3.913 Y392.550 F1000.000
G1 X3.819 Y392.594 F1000.000
G1 X3.719 Y392.575 F1000.000
G1 X3.638 Y392.512 F1000.000
G1 X3.638 Y392.512 F1000.000
G1 X3.638 Y391.706 F1000.000
G0 X3.669 Y391.606
G0 X3.831 Y391.319
G0 X4.706 Y390.144
G0 X4.794 Y389.950
G0 X4.831 Y389.625
G0 X4.787 Y387.812
G0 X4.906 Y386.169
G0 X4.881 Y385.944
G0 X4.275 Y384.781
G1 X4.206 Y384.669 F1000.000
G1 X3.763 Y383.913 F1000.000
G1 X3.681 Y383.700 F1000.000
G1 X3.612 Y383.375 F1000.000
G1 X3.612 Y383.375 F1000.000
G1 X3.625 Y381.875 F1000.000
G1 X3.694 Y381.475 F1000.000
G1 X3.806 Y381.194 F1000.000
G1 X3.931 Y381.044 F1000.000
G1 X4.025 Y381.019 F1000.000
G1 X4.119 Y381.012 F1000.000
G1 X4.119 Y381.012 F1000.000
G1 X4.131 Y381.094 F1000.000
G1 X4.106 Y381.175 F1000.000
G1 X4.044 Y381.262 F1000.000
G1 X3.862 Y381.400 F1000.000
G1 X3.775 Y381.438 F1000.000
G1 X3.706 Y381.431 F1000.000
G1 X3.612 Y381.350 F1000.000
G1 X3.612 Y381.350 F1000.000
G1 X3.625 Y380.950 F1000.000
G1 X3.644 Y380.850 F1000.000
G1 X3.712 Y380.781 F1000.000
G1 X3.806 Y380.756 F1000.000
G1 X3.894 Y380.788 F1000.000
G1 X3.894 Y380.788 F1000.000
G1 X4.169 Y380.975 F1000.000
G1 X4.463 Y381.319 F1000.000
G0 X4.531 Y381.406
G0 X5.656 Y382.550
G1 X5.737 Y382.625 F1000.000
G1 X5.987 Y382.850 F1000.000
G1 X6.069 Y382.894 F1000.000
G1 X6.156 Y382.913 F1000.000
G1 X6.344 Y382.863 F1000.000
G1 X6.769 Y382.712 F1000.000
G1 X6.994 Y382.663 F1000.000
G1 X6.994 Y382.663 F1000.000
G1 X127.156 Y382.675 F1000.000
G1 X128.294 Y382.794 F1000.000
G1 X128.881 Y382.975 F1000.000
G1 X129.575 Y383.337 F1000.000
G1 X130.262 Y383.894 F1000.000
G1 X130.569 Y384.256 F1000.000
G1 X130.881 Y384.738 F1000.000
G1 X130.969 Y384.900 F1000.000
G1 X131.169 Y385.387 F1000.000
G1 X131.350 Y386.125 F1000.000
G1 X131.387 Y386.788 F1000.000
G1 X131.287 Y387.544 F1000.000
G1 X131.181 Y387.925 F1000.000
G1 X131.044 Y388.262 F1000.000
G1 X130.694 Y388.925 F1000.000
G1 X130.519 Y389.163 F1000.000
G1 X130.094 Y389.600 F1000.000
G1 X129.469 Y390.062 F1000.000
G1 X129.256 Y390.181 F1000.000
G1 X128.569 Y390.481 F1000.000
G1 X127.963 Y390.619 F1000.000
G1 X127.312 Y390.669 F1000.000
G1 X6.831 Y390.688 F1000.000
G1 X6.481 Y390.738 F1000.000
G1 X6.138 Y390.837 F1000.000
G1 X5.975 Y390.900 F1000.000
G1 X5.669 Y391.069 F1000.000
G1 X5.381 Y391.281 F1000.000
G1 X4.138 Y392.506 F1000.000
G1 X3.944 Y392.669 F1000.000
G1 X3.837 Y392.706 F1000.000
G1 X3.700 Y392.688 F1000.000
G1 X3.562 Y392.594 F1000.000
G1 X3.519 Y392.500 F1000.000
G1 X3.500 Y392.375 F1000.000
G1 X3.506 Y380.950 F1000.000
G1 X3.538 Y380.806 F1000.000
G1 X3.631 Y380.700 F1000.000
G1 X3.725 Y380.650 F1000.000
G1 X3.869 Y380.656 F1000.000
G1 X4.044 Y380.756 F1000.000
G1 X5.356 Y382.056 F1000.000
G1 X5.638 Y382.269 F1000.000
G1 X5.787 Y382.363 F1000.000
G1 X6.112 Y382.506 F1000.000
G1 X6.450 Y382.606 F1000.000
G1 X6.625 Y382.644 F1000.000
G1 X6.800 Y382.663 F1000.000
G1 X6.994 Y382.669 F1000.000
G1 X6.994 Y382.663 F1000.000
G0 Z5.000
(Helix to depth: -5.000000)
G0 X97.907 Y295.297 Z5.000
G0 X97.907 Y295.297 Z3.000
G1 X97.907 Y295.297 Z0.000 F100.000
G1 X97.907 Y295.297 Z0.000 F100.000
G1 X98.151 Y295.569 Z-0.032 F100.000
G1 X98.338 Y295.883 Z-0.064 F100.000
G1 X98.461 Y296.228 Z-0.097 F100.000
G1 X98.513 Y296.589 Z-0.129 F100.000
G1 X98.494 Y296.954 Z-0.161 F100.000
G1 X98.404 Y297.309 Z-0.193 F100.000
G1 X98.247 Y297.639 Z-0.225 F100.000
G1 X98.028 Y297.932 Z-0.258 F100.000
G1 X97.756 Y298.176 Z-0.290 F100.000
G1 X97.442 Y298.363 Z-0.322 F100.000
G1 X97.097 Y298.486 Z-0.354 F100.000
G1 X96.736 Y298.538 Z-0.387 F100.000
G1 X96.371 Y298.519 Z-0.419 F100.000
G1 X96.016 Y298.429 Z-0.451 F100.000
G1 X95.686 Y298.272 Z-0.483 F100.000
G1 X95.393 Y298.053 Z-0.515 F100.000
G1 X95.149 Y297.781 Z-0.548 F100.000
G1 X94.962 Y297.467 Z-0.580 F100.000
G1 X94.839 Y297.122 Z-0.612 F100.000
G1 X94.787 Y296.761 Z-0.644 F100.000
G1 X94.806 Y296.396 Z-0.676 F100.000
G1 X94.896 Y296.041 Z-0.709 F100.000
G1 X95.053 Y295.711 Z-0.741 F100.000
G1 X95.272 Y295.418 Z-0.773 F100.000
G1 X95.544 Y295.174 Z-0.805 F100.000
G1 X95.858 Y294.987 Z-0.837 F100.000
G1 X96.203 Y294.864 Z-0.870 F100.000
G1 X96.564 Y294.812 Z-0.902 F100.000
G1 X96.929 Y294.831 Z-0.934 F100.000
G1 X97.284 Y294.921 Z-0.966 F100.000
G1 X97.614 Y295.078 Z-0.998 F100.000
G1 X97.907 Y295.297 Z-1.031 F100.000
G1 X98.151 Y295.569 Z-1.063 F100.000
G1 X98.338 Y295.883 Z-1.095 F100.000
G1 X98.461 Y296.228 Z-1.127 F100.000
G1 X98.513 Y296.589 Z-1.160 F100.000
G1 X98.494 Y296.954 Z-1.192 F100.000
G1 X98.404 Y297.309 Z-1.224 F100.000
G1 X98.247 Y297.639 Z-1.256 F100.000
G1 X98.028 Y297.932 Z-1.288 F100.000
G1 X97.756 Y298.176 Z-1.321 F100.000
G1 X97.442 Y298.363 Z-1.353 F100.000
G1 X97.097 Y298.486 Z-1.385 F100.000
G1 X96.736 Y298.538 Z-1.417 F100.000
G1 X96.371 Y298.519 Z-1.449 F100.000
G1 X96.016 Y298.429 Z-1.482 F100.000
G1 X95.686 Y298.272 Z-1.514 F100.000
G1 X95.393 Y298.053 Z-1.546 F100.000
G1 X95.149 Y297.781 Z-1.578 F100.000
G1 X94.962 Y297.467 Z-1.610 F100.000
G1 X94.839 Y297.122 Z-1.643 F100.000
G1 X94.787 Y296.761 Z-1.675 F100.000
G1 X94.806 Y296.396 Z-1.707 F100.000
G1 X94.896 Y296.041 Z-1.739 F100.000
G1 X95.053 Y295.711 Z-1.772 F100.000
G1 X95.272 Y295.418 Z-1.804 F100.000
G1 X95.544 Y295.174 Z-1.836 F100.000
G1 X95.858 Y294.987 Z-1.868 F100.000
G1 X96.203 Y294.864 Z-1.900 F100.000
G1 X96.564 Y294.812 Z-1.933 F100.000
G1 X96.929 Y294.831 Z-1.965 F100.000
G1 X97.284 Y294.921 Z-1.997 F100.000
G1 X97.614 Y295.078 Z-2.029 F100.000
G1 X97.907 Y295.297 Z-2.061 F100.000
G1 X98.151 Y295.569 Z-2.094 F100.000
G1 X98.338 Y295.883 Z-2.126 F100.000
G1 X98.461 Y296.228 Z-2.158 F100.000
G1 X98.513 Y296.589 Z-2.190 F100.000
G1 X98.494 Y296.954 Z-2.222 F100.000
G1 X98.404 Y297.309 Z-2.255 F100.000
G1 X98.247 Y297.639 Z-2.287 F100.000
G1 X98.028 Y297.932 Z-2.319 F100.000
G1 X97.756 Y298.176 Z-2.351 F100.000
G1 X97.442 Y298.363 Z-2.383 F100.000
G1 X97.097 Y298.486 Z-2.416 F100.000
G1 X96.736 Y298.538 Z-2.448 F100.000
G1 X96.371 Y298.519 Z-2.480 F100.000
G1 X96.016 Y298.429 Z-2.512 F100.000
G1 X95.686 Y298.272 Z-2.545 F100.000
G1 X95.393 Y298.053 Z-2.577 F100.000
G1 X95.149 Y297.781 Z-2.609 F100.000
G1 X94.962 Y297.467 Z-2.641 F100.000
G1 X94.839 Y297.122 Z-2.673 F100.000
G1 X94.787 Y296.761 Z-2.706 F100.000
G1 X94.806 Y296.396 Z-2.738 F100.000
G1 X94.896 Y296.041 Z-2.770 F100.000
G1 X95.053 Y295.711 Z-2.802 F100.000
G1 X95.272 Y295.418 Z-2.834 F100.000
G1 X95.544 Y295.174 Z-2.867 F100.000
G1 X95.858 Y294.987 Z-2.899 F100.000
G1 X96.203 Y294.864 Z-2.931 F100.000
G1 X96.564 Y294.812 Z-2.963 F100.000
G1 X96.929 Y294.831 Z-2.995 F100.000
G1 X97.284 Y294.921 Z-3.028 F100.000
G1 X97.614 Y295.078 Z-3.060 F100.000
G1 X97.907 Y295.297 Z-3.092 F100.000
G1 X98.151 Y295.569 Z-3.124 F100.000
G1 X98.338 Y295.883 Z-3.157 F100.000
G1 X98.461 Y296.228 Z-3.189 F100.000
G1 X98.513 Y296.589 Z-3.221 F100.000
G1 X98.494 Y296.954 Z-3.253 F100.000
G1 X98.404 Y297.309 Z-3.285 F100.000
G1 X98.247 Y297.639 Z-3.318 F100.000
G1 X98.028 Y297.932 Z-3.350 F100.000
G1 X97.756 Y298.176 Z-3.382 F100.000
G1 X97.442 Y298.363 Z-3.414 F100.000
G1 X97.097 Y298.486 Z-3.446 F100.000
G1 X96.736 Y298.538 Z-3.479 F100.000
G1 X96.371 Y298.519 Z-3.511 F100.000
G1 X96.016 Y298.429 Z-3.543 F100.000
G1 X95.686 Y298.272 Z-3.575 F100.000
G1 X95.393 Y298.053 Z-3.607 F100.000
G1 X95.149 Y297.781 Z-3.640 F100.000
G1 X94.962 Y297.467 Z-3.672 F100.000
G1 X94.839 Y297.122 Z-3.704 F100.000
G1 X94.787 Y296.761 Z-3.736 F100.000
G1 X94.806 Y296.396 Z-3.769 F100.000
G1 X94.896 Y296.041 Z-3.801 F100.000
G1 X95.053 Y295.711 Z-3.833 F100.000
G1 X95.272 Y295.418 Z-3.865 F100.000
G1 X95.544 Y295.174 Z-3.897 F100.000
G1 X95.858 Y294.987 Z-3.930 F100.000
G1 X96.203 Y294.864 Z-3.962 F100.000
G1 X96.564 Y294.812 Z-3.994 F100.000
G1 X96.929 Y294.831 Z-4.026 F100.000
G1 X97.284 Y294.921 Z-4.058 F100.000
G1 X97.614 Y295.078 Z-4.091 F100.000
G1 X97.907 Y295.297 Z-4.123 F100.000
G1 X98.151 Y295.569 Z-4.155 F100.000
G1 X98.338 Y295.883 Z-4.187 F100.000
G1 X98.461 Y296.228 Z-4.219 F100.000
G1 X98.513 Y296.589 Z-4.252 F100.000
G1 X98.494 Y296.954 Z-4.284 F100.000
G1 X98.404 Y297.309 Z-4.316 F100.000
G1 X98.247 Y297.639 Z-4.348 F100.000
G1 X98.028 Y297.932 Z-4.380 F100.000
G1 X97.756 Y298.176 Z-4.413 F100.000
G1 X97.442 Y298.363 Z-4.445 F100.000
G1 X97.097 Y298.486 Z-4.477 F100.000
G1 X96.736 Y298.538 Z-4.509 F100.000
G1 X96.371 Y298.519 Z-4.542 F100.000
G1 X96.016 Y298.429 Z-4.574 F100.000
G1 X95.686 Y298.272 Z-4.606 F100.000
G1 X95.393 Y298.053 Z-4.638 F100.000
G1 X95.149 Y297.781 Z-4.670 F100.000
G1 X94.962 Y297.467 Z-4.703 F100.000
G1 X94.839 Y297.122 Z-4.735 F100.000
G1 X94.787 Y296.761 Z-4.767 F100.000
G1 X94.806 Y296.396 Z-4.799 F100.000
G1 X94.896 Y296.041 Z-4.831 F100.000
G1 X95.053 Y295.711 Z-4.864 F100.000
G1 X95.272 Y295.418 Z-4.896 F100.000
G1 X95.544 Y295.174 Z-4.928 F100.000
G1 X95.858 Y294.987 Z-4.960 F100.000
G1 X96.203 Y294.864 Z-4.992 F100.000
G1 X96.564 Y294.812 Z-5.000 F1000.000
G1 X96.929 Y294.831 Z-5.000 F1000.000
G1 X97.284 Y294.921 Z-5.000 F1000.000
G1 X97.614 Y295.078 Z-5.000 F1000.000
G1 X97.907 Y295.297 Z-5.000 F1000.000
G1 X98.151 Y295.569 Z-5.000 F1000.000
G1 X98.338 Y295.883 Z-5.000 F1000.000
G1 X98.461 Y296.228 Z-5.000 F1000.000
G1 X98.513 Y296.589 Z-5.000 F1000.000
G1 X98.494 Y296.954 Z-5.000 F1000.000
G1 X98.404 Y297.309 Z-5.000 F1000.000
G1 X98.247 Y297.639 Z-5.000 F1000.000
G1 X98.028 Y297.932 Z-5.000 F1000.000
G1 X97.756 Y298.176 Z-5.000 F1000.000
G1 X97.442 Y298.363 Z-5.000 F1000.000
G1 X97.097 Y298.486 Z-5.000 F1000.000
G1 X96.736 Y298.538 Z-5.000 F1000.000
G1 X96.371 Y298.519 Z-5.000 F1000.000
G1 X96.016 Y298.429 Z-5.000 F1000.000
G1 X95.686 Y298.272 Z-5.000 F1000.000
G1 X95.393 Y298.053 Z-5.000 F1000.000
G1 X95.149 Y297.781 Z-5.000 F1000.000
G1 X94.962 Y297.467 Z-5.000 F1000.000
G1 X94.839 Y297.122 Z-5.000 F1000.000
G1 X94.787 Y296.761 Z-5.000 F1000.000
G1 X94.806 Y296.396 Z-5.000 F1000.000
G1 X94.896 Y296.041 Z-5.000 F1000.000
G1 X95.053 Y295.711 Z-5.000 F1000.000
G1 X95.272 Y295.418 Z-5.000 F1000.000
G1 X95.544 Y295.174 Z-5.000 F1000.000
G1 X95.858 Y294.987 Z-5.000 F1000.000
G1 X96.203 Y294.864 Z-5.000 F1000.000
(Adaptive - depth: -5.000000)
G1 X96.650 Y294.800 F1000.000
G1 X96.719 Y294.725 F1000.000
G1 X96.825 Y294.556 F1000.000
G1 X96.987 Y294.438 F1000.000
G1 X97.162 Y294.350 F1000.000
G1 X97.350 Y294.294 F1000.000
G1 X97.900 Y294.288 F1000.000
G1 X98.219 Y294.363 F1000.000
G1 X98.444 Y294.456 F1000.000
G1 X98.662 Y294.569 F1000.000
G1 X98.950 Y294.781 F1000.000
G1 X99.213 Y295.062 F1000.000
G1 X99.400 Y295.312 F1000.000
G1 X99.569 Y295.625 F1000.000
G1 X99.700 Y295.944 F1000.000
G1 X99.800 Y296.350 F1000.000
G1 X99.844 Y296.719 F1000.000
G1 X99.844 Y297.094 F1000.000
G1 X99.787 Y297.481 F1000.000
G1 X99.688 Y297.844 F1000.000
G1 X99.537 Y298.200 F1000.000
G1 X99.344 Y298.531 F1000.000
G1 X99.106 Y298.837 F1000.000
G1 X98.831 Y299.113 F1000.000
G1 X98.525 Y299.350 F1000.000
G1 X98.188 Y299.544 F1000.000
G1 X97.831 Y299.694 F1000.000
G1 X97.463 Y299.819 F1000.000
G1 X96.662 Y299.919 F1000.000
G1 X96.162 Y299.887 F1000.000
G1 X95.662 Y299.769 F1000.000
G1 X94.987 Y299.481 F1000.000
G1 X94.469 Y299.119 F1000.000
G1 X94.200 Y298.856 F1000.000
G1 X94.006 Y298.619 F1000.000
G1 X93.812 Y298.337 F1000.000
G1 X93.588 Y297.913 F1000.000
G1 X93.444 Y297.456 F1000.000
G1 X93.362 Y297.113 F1000.000
G1 X93.319 Y296.688 F1000.000
G1 X93.331 Y296.275 F1000.000
G1 X93.388 Y295.881 F1000.000
G1 X93.513 Y295.488 F1000.000
G1 X93.650 Y295.175 F1000.000
G1 X93.850 Y294.856 F1000.000
G1 X94.069 Y294.550 F1000.000
G1 X94.406 Y294.150 F1000.000
G1 X94.856 Y293.744 F1000.000
G1 X95.550 Y293.212 F1000.000
G1 X96.169 Y292.900 F1000.000
G1 X96.450 Y292.806 F1000.000
G1 X96.544 Y292.788 F1000.000
G1 X98.513 Y292.812 F1000.000
G1 X99.169 Y292.950 F1000.000
G1 X99.431 Y293.062 F1000.000
G1 X99.894 Y293.394 F1000.000
G1 X100.100 Y293.594 F1000.000
G1 X100.506 Y294.062 F1000.000
G1 X100.850 Y294.581 F1000.000
G1 X101.100 Y295.087 F1000.000
G1 X101.244 Y295.481 F1000.000
G1 X101.344 Y295.875 F1000.000
G1 X101.425 Y296.325 F1000.000
G1 X101.450 Y296.875 F1000.000
G1 X101.431 Y297.337 F1000.000
G1 X101.362 Y297.825 F1000.000
G1 X101.237 Y298.312 F1000.000
G1 X101.075 Y298.769 F1000.000
G1 X100.838 Y299.200 F1000.000
G1 X100.619 Y299.525 F1000.000
G1 X100.256 Y299.944 F1000.000
G1 X99.787 Y300.331 F1000.000
G1 X99.325 Y300.538 F1000.000
G1 X99.225 Y300.556 F1000.000
G1 X94.825 Y300.544 F1000.000
G1 X94.225 Y300.431 F1000.000
G1 X93.838 Y300.288 F1000.000
G1 X93.400 Y300.000 F1000.000
G1 X93.081 Y299.719 F1000.000
G1 X92.656 Y299.256 F1000.000
G1 X92.306 Y298.738 F1000.000
G1 X92.094 Y298.319 F1000.000
G1 X91.931 Y297.950 F1000.000
G1 X91.787 Y297.450 F1000.000
G1 X91.713 Y296.994 F1000.000
G1 X91.675 Y296.544 F1000.000
G1 X91.694 Y296.069 F1000.000
G1 X91.763 Y295.606 F1000.000
G1 X91.875 Y295.156 F1000.000
G1 X92.037 Y294.719 F1000.000
G1 X92.219 Y294.294 F1000.000
G1 X92.537 Y293.756 F1000.000
G1 X93.056 Y293.012 F1000.000
G1 X93.287 Y292.831 F1000.000
G1 X93.375 Y292.788 F1000.000
G1 X94.125 Y292.788 F1000.000
G1 X94.125 Y292.788 F1000.000
G1 X94.162 Y292.800 F1000.000
G1 X94.162 Y292.806 F1000.000
G1 X94.250 Y292.788 F1000.000
G1 X94.250 Y292.788 F1000.000
G1 X94.719 Y292.788 F1000.000
G1 X94.719 Y292.788 F1000.000
G1 X95.050 Y292.831 F1000.000
G1 X95.463 Y293.000 F1000.000
G0 X95.569 Y293.031
G0 X97.431 Y293.075
G1 X97.550 Y293.075 F1000.000
G1 X97.888 Y293.075 F1000.000
G1 X98.100 Y293.025 F1000.000
G1 X98.525 Y292.863 F1000.000
G1 X98.975 Y292.788 F1000.000
G1 X98.975 Y292.788 F1000.000
G1 X100.475 Y292.800 F1000.000
G1 X101.037 Y292.906 F1000.000
G1 X101.300 Y293.012 F1000.000
G1 X101.669 Y293.306 F1000.000
G1 X101.931 Y293.594 F1000.000
G1 X102.319 Y294.081 F1000.000
G1 X102.619 Y294.625 F1000.000
G1 X102.825 Y295.131 F1000.000
G1 X102.950 Y295.519 F1000.000
G1 X103.056 Y295.962 F1000.000
G1 X103.119 Y296.581 F1000.000
G1 X103.131 Y297.062 F1000.000
G1 X103.100 Y297.575 F1000.000
G1 X103.037 Y298.113 F1000.000
G1 X102.900 Y298.719 F1000.000
G1 X102.700 Y299.269 F1000.000
G1 X102.525 Y299.688 F1000.000
G1 X102.244 Y300.188 F1000.000
G1 X102.037 Y300.406 F1000.000
G1 X101.869 Y300.519 F1000.000
G1 X101.775 Y300.556 F1000.000
G1 X100.275 Y300.556 F1000.000
G1 X100.275 Y300.556 F1000.000
G1 X99.931 Y300.506 F1000.000
G1 X99.719 Y300.425 F1000.000
G1 X99.625 Y300.369 F1000.000
G1 X99.550 Y300.294 F1000.000
G0 X99.500 Y300.212
G0 X99.469 Y300.119
G0 X99.463 Y299.794
G0 X100.069 Y293.762
G1 X100.081 Y293.625 F1000.000
G1 X100.119 Y293.356 F1000.000
G1 X100.150 Y293.238 F1000.000
G1 X100.200 Y293.131 F1000.000
