(Exported by FreeCAD)
(Post Processor: grbl_post)
(Output Time:2020-12-04 13:48:55.147889)
(Begin preamble)
G17 G90
G21
(Begin operation: Fixture)
(Path: Fixture)
G54
(Finish operation: Fixture)
(Begin operation: TC: Default Tool001)
(Path: TC: Default Tool001)
(TC: Default Tool001)
(Begin toolchange)
( M6 T1.0 )
M3 S24000.0
(Finish operation: TC: Default Tool001)
(Begin operation: Helix)
(Path: Helix)
(Helix)
(helix cut operation)
G0 Z5.000
G0 X160.149 Y21.000
G0 Z3.000
G1 Z0.000 F100.000
G2 X160.049 Y21.000 Z-0.500 I-0.050 J0.000 F1000.000
G2 X160.149 Y21.000 Z-1.000 I0.050 J0.000 F1000.000
G2 X160.049 Y21.000 Z-1.500 I-0.050 J0.000 F1000.000
G2 X160.149 Y21.000 Z-2.000 I0.050 J0.000 F1000.000
G2 X160.049 Y21.000 Z-2.000 I-0.050 J0.000 F1000.000
G2 X160.149 Y21.000 Z-2.000 I0.050 J0.000 F1000.000
G0 Z3.000
G0 X160.149 Y331.000
G0 Z3.000
G1 Z0.000 F100.000
G2 X160.049 Y331.000 Z-0.500 I-0.050 J0.000 F1000.000
G2 X160.149 Y331.000 Z-1.000 I0.050 J0.000 F1000.000
G2 X160.049 Y331.000 Z-1.500 I-0.050 J0.000 F1000.000
G2 X160.149 Y331.000 Z-2.000 I0.050 J0.000 F1000.000
G2 X160.049 Y331.000 Z-2.000 I-0.050 J0.000 F1000.000
G2 X160.149 Y331.000 Z-2.000 I0.050 J0.000 F1000.000
G0 Z3.000
(Finish operation: Helix)
(Begin postamble)
M5
G17 G90
M2
