(Exported by FreeCAD)
(Post Processor: grbl_post)
(Output Time:2020-12-04 13:49:36.735296)
(Begin preamble)
G17 G90
G21
(Begin operation: Fixture)
(Path: Fixture)
G54
(Finish operation: Fixture)
(Begin operation: TC: Default Tool)
(Path: TC: Default Tool)
(TC: Default Tool)
(Begin toolchange)
( M6 T1.0 )
M3 S24000.0
(Finish operation: TC: Default Tool)
(Begin operation: DressupTag)
(Path: DressupTag)
G0 Z5.000
G0 X176.008 Y346.909 Z5.000
G0 X176.008 Y346.909 Z3.000
G1 X176.008 Y346.909 Z-5.000 F100.000
G2 X182.598 Y331.079 Z-5.000 I-15.911 J-15.910 K0.000 F1000.000
G1 X182.599 Y21.000 Z-5.000 F1000.000
G2 X160.177 Y-1.499 Z-5.000 I-22.501 J0.002 K0.000 F1000.000
G1 X75.600 Y-1.500 Z-5.000 F1000.000
G2 X73.100 Y1.000 Z-5.000 I0.000 J2.500 K0.000 F1000.000
G1 X73.100 Y60.130 Z-5.000 F1000.000
G3 X69.530 Y63.700 Z-5.000 I-3.511 J0.059 K0.000 F1000.000
G1 X7.000 Y63.700 Z-5.000 F1000.000
G2 X-1.496 Y72.060 Z-5.000 I0.005 J8.502 K0.000 F1000.000
G1 X-1.500 Y89.800 Z-5.000 F1000.000
G2 X6.860 Y98.296 Z-5.000 I8.502 J-0.005 K0.000 F1000.000
G1 X69.530 Y98.300 Z-5.000 F1000.000
G3 X73.100 Y101.870 Z-5.000 I0.059 J3.511 K0.000 F1000.000
G1 X73.100 Y155.130 Z-5.000 F1000.000
G3 X69.530 Y158.700 Z-5.000 I-3.511 J0.059 K0.000 F1000.000
G1 X7.000 Y158.700 Z-5.000 F1000.000
G2 X-1.496 Y167.060 Z-5.000 I0.005 J8.502 K0.000 F1000.000
G1 X-1.500 Y184.800 Z-5.000 F1000.000
G2 X6.860 Y193.296 Z-5.000 I8.502 J-0.005 K0.000 F1000.000
G1 X69.530 Y193.300 Z-5.000 F1000.000
G3 X73.100 Y196.870 Z-5.000 I0.059 J3.511 K0.000 F1000.000
G1 X73.100 Y250.130 Z-5.000 F1000.000
G3 X69.530 Y253.700 Z-5.000 I-3.511 J0.059 K0.000 F1000.000
G1 X7.000 Y253.700 Z-5.000 F1000.000
G2 X-1.496 Y262.060 Z-5.000 I0.005 J8.502 K0.000 F1000.000
G1 X-1.500 Y279.800 Z-5.000 F1000.000
G2 X6.860 Y288.296 Z-5.000 I8.502 J-0.005 K0.000 F1000.000
G1 X69.530 Y288.300 Z-5.000 F1000.000
G3 X73.100 Y291.870 Z-5.000 I0.059 J3.511 K0.000 F1000.000
G1 X73.100 Y351.000 Z-5.000 F1000.000
G2 X75.600 Y353.500 Z-5.000 I2.500 J-0.000 K0.000 F1000.000
G1 X160.099 Y353.500 Z-5.000 F1000.000
G2 X176.008 Y346.909 Z-5.000 I-0.002 J-22.501 K0.000 F1000.000
G1 X176.008 Y346.909 Z-10.000 F100.000
G2 X182.598 Y331.079 Z-10.000 I-15.911 J-15.910 K0.000 F1000.000
G1 X182.599 Y21.000 Z-10.000 F1000.000
G2 X160.177 Y-1.499 Z-10.000 I-22.501 J0.002 K0.000 F1000.000
G1 X75.600 Y-1.500 Z-10.000 F1000.000
G2 X73.100 Y1.000 Z-10.000 I0.000 J2.500 K0.000 F1000.000
G1 X73.100 Y60.130 Z-10.000 F1000.000
G3 X69.530 Y63.700 Z-10.000 I-3.511 J0.059 K0.000 F1000.000
G1 X7.000 Y63.700 Z-10.000 F1000.000
G2 X-1.496 Y72.060 Z-10.000 I0.005 J8.502 K0.000 F1000.000
G1 X-1.500 Y89.800 Z-10.000 F1000.000
G2 X6.860 Y98.296 Z-10.000 I8.502 J-0.005 K0.000 F1000.000
G1 X69.530 Y98.300 Z-10.000 F1000.000
G3 X73.100 Y101.870 Z-10.000 I0.059 J3.511 K0.000 F1000.000
G1 X73.100 Y155.130 Z-10.000 F1000.000
G3 X69.530 Y158.700 Z-10.000 I-3.511 J0.059 K0.000 F1000.000
G1 X7.000 Y158.700 Z-10.000 F1000.000
G2 X-1.496 Y167.060 Z-10.000 I0.005 J8.502 K0.000 F1000.000
G1 X-1.500 Y184.800 Z-10.000 F1000.000
G2 X6.860 Y193.296 Z-10.000 I8.502 J-0.005 K0.000 F1000.000
G1 X69.530 Y193.300 Z-10.000 F1000.000
G3 X73.100 Y196.870 Z-10.000 I0.059 J3.511 K0.000 F1000.000
G1 X73.100 Y250.130 Z-10.000 F1000.000
G3 X69.530 Y253.700 Z-10.000 I-3.511 J0.059 K0.000 F1000.000
G1 X7.000 Y253.700 Z-10.000 F1000.000
G2 X-1.496 Y262.060 Z-10.000 I0.005 J8.502 K0.000 F1000.000
G1 X-1.500 Y279.800 Z-10.000 F1000.000
G2 X6.860 Y288.296 Z-10.000 I8.502 J-0.005 K0.000 F1000.000
G1 X69.530 Y288.300 Z-10.000 F1000.000
G3 X73.100 Y291.870 Z-10.000 I0.059 J3.511 K0.000 F1000.000
G1 X73.100 Y351.000 Z-10.000 F1000.000
G2 X75.600 Y353.500 Z-10.000 I2.500 J-0.000 K0.000 F1000.000
G1 X160.099 Y353.500 Z-10.000 F1000.000
G2 X176.008 Y346.909 Z-10.000 I-0.002 J-22.501 K0.000 F1000.000
G1 X176.008 Y346.909 Z-15.000 F100.000
G2 X182.598 Y331.079 Z-15.000 I-15.911 J-15.910 K0.000 F1000.000
G1 X182.598 Y189.494 Z-15.000 F1000.000
G1 X182.598 Y188.994 Z-14.500 F550.000
G1 X182.598 Y163.084 Z-14.500 F1000.000
G1 X182.598 Y162.584 Z-15.000 F550.000
G1 X182.599 Y21.000 Z-15.000 F1000.000
G2 X160.177 Y-1.499 Z-15.000 I-22.501 J0.002 K0.000 F1000.000
G1 X137.905 Y-1.499 Z-15.000 F1000.000
G1 X137.405 Y-1.499 Z-14.500 F550.000
G1 X111.495 Y-1.499 Z-14.500 F1000.000
G1 X110.995 Y-1.499 Z-15.000 F550.000
G1 X75.600 Y-1.500 Z-15.000 F1000.000
G2 X73.100 Y1.000 Z-15.000 I0.000 J2.500 K0.000 F1000.000
G1 X73.100 Y60.130 Z-15.000 F1000.000
G3 X69.530 Y63.700 Z-15.000 I-3.511 J0.059 K0.000 F1000.000
G1 X51.720 Y63.700 Z-15.000 F1000.000
G1 X51.220 Y63.700 Z-14.500 F550.000
G1 X25.310 Y63.700 Z-14.500 F1000.000
G1 X24.810 Y63.700 Z-15.000 F550.000
G1 X7.000 Y63.700 Z-15.000 F1000.000
G2 X-1.496 Y72.060 Z-15.000 I0.005 J8.502 K0.000 F1000.000
G1 X-1.500 Y89.800 Z-15.000 F1000.000
G2 X6.860 Y98.296 Z-15.000 I8.502 J-0.005 K0.000 F1000.000
G1 X69.530 Y98.300 Z-15.000 F1000.000
G3 X73.100 Y101.870 Z-15.000 I0.059 J3.511 K0.000 F1000.000
G1 X73.100 Y155.130 Z-15.000 F1000.000
G3 X69.530 Y158.700 Z-15.000 I-3.511 J0.059 K0.000 F1000.000
G1 X7.000 Y158.700 Z-15.000 F1000.000
G2 X-1.496 Y167.060 Z-15.000 I0.005 J8.502 K0.000 F1000.000
G1 X-1.500 Y184.800 Z-15.000 F1000.000
G2 X6.860 Y193.296 Z-15.000 I8.502 J-0.005 K0.000 F1000.000
G1 X24.740 Y193.297 Z-15.000 F1000.000
G1 X25.240 Y193.297 Z-14.500 F550.000
G1 X51.150 Y193.299 Z-14.500 F1000.000
G1 X51.650 Y193.299 Z-15.000 F550.000
G1 X63.301 Y193.300 Z-15.000 F1000.000
G1 X64.000 Y193.300 Z-14.500 F644.102
G1 X69.530 Y193.300 Z-14.500 F1000.000
G3 X73.100 Y196.870 Z-14.500 I0.059 J3.511 K0.000 F1000.000
G1 X73.100 Y215.475 Z-14.500 F1000.000
G1 X73.100 Y215.975 Z-15.000 F550.000
G1 X73.100 Y250.130 Z-15.000 F1000.000
G3 X69.530 Y253.700 Z-15.000 I-3.511 J0.059 K0.000 F1000.000
G1 X7.000 Y253.700 Z-15.000 F1000.000
G2 X-1.496 Y262.060 Z-15.000 I0.005 J8.502 K0.000 F1000.000
G1 X-1.500 Y279.800 Z-15.000 F1000.000
G2 X6.860 Y288.296 Z-15.000 I8.502 J-0.005 K0.000 F1000.000
G1 X28.525 Y288.297 Z-15.000 F1000.000
G1 X29.025 Y288.297 Z-14.500 F550.000
G1 X54.935 Y288.299 Z-14.500 F1000.000
G1 X55.435 Y288.299 Z-15.000 F550.000
G1 X69.530 Y288.300 Z-15.000 F1000.000
G3 X73.100 Y291.870 Z-15.000 I0.059 J3.511 K0.000 F1000.000
G1 X73.100 Y351.000 Z-15.000 F1000.000
G2 X75.600 Y353.500 Z-15.000 I2.500 J-0.000 K0.000 F1000.000
G1 X104.394 Y353.500 Z-15.000 F1000.000
G1 X104.894 Y353.500 Z-14.500 F550.000
G1 X130.804 Y353.500 Z-14.500 F1000.000
G1 X131.304 Y353.500 Z-15.000 F550.000
G1 X160.099 Y353.500 Z-15.000 F1000.000
G2 X176.008 Y346.909 Z-15.000 I-0.002 J-22.501 K0.000 F1000.000
G1 X176.008 Y346.909 Z-19.500 F100.000
G2 X182.598 Y331.079 Z-19.500 I-15.911 J-15.910 K0.000 F1000.000
G1 X182.598 Y193.994 Z-19.500 F1000.000
G1 X182.598 Y188.994 Z-14.500 F550.000
G1 X182.598 Y163.084 Z-14.500 F1000.000
G1 X182.598 Y158.084 Z-19.500 F550.000
G1 X182.599 Y21.000 Z-19.500 F1000.000
G2 X160.177 Y-1.499 Z-19.500 I-22.501 J0.002 K0.000 F1000.000
G1 X142.405 Y-1.499 Z-19.500 F1000.000
G1 X137.405 Y-1.499 Z-14.500 F550.000
G1 X111.495 Y-1.499 Z-14.500 F1000.000
G1 X106.495 Y-1.500 Z-19.500 F550.000
G1 X75.600 Y-1.500 Z-19.500 F1000.000
G2 X73.100 Y1.000 Z-19.500 I0.000 J2.500 K0.000 F1000.000
G1 X73.100 Y60.130 Z-19.500 F1000.000
G3 X69.530 Y63.700 Z-19.500 I-3.511 J0.059 K0.000 F1000.000
G1 X56.220 Y63.700 Z-19.500 F1000.000
G1 X51.220 Y63.700 Z-14.500 F550.000
G1 X25.310 Y63.700 Z-14.500 F1000.000
G1 X20.310 Y63.700 Z-19.500 F550.000
G1 X7.000 Y63.700 Z-19.500 F1000.000
G2 X-1.496 Y72.060 Z-19.500 I0.005 J8.502 K0.000 F1000.000
G1 X-1.500 Y89.800 Z-19.500 F1000.000
G2 X6.860 Y98.296 Z-19.500 I8.502 J-0.005 K0.000 F1000.000
G1 X69.530 Y98.300 Z-19.500 F1000.000
G3 X73.100 Y101.870 Z-19.500 I0.059 J3.511 K0.000 F1000.000
G1 X73.100 Y155.130 Z-19.500 F1000.000
G3 X69.530 Y158.700 Z-19.500 I-3.511 J0.059 K0.000 F1000.000
G1 X7.000 Y158.700 Z-19.500 F1000.000
G2 X-1.496 Y167.060 Z-19.500 I0.005 J8.502 K0.000 F1000.000
G1 X-1.500 Y184.800 Z-19.500 F1000.000
G2 X6.860 Y193.296 Z-19.500 I8.502 J-0.005 K0.000 F1000.000
G1 X20.240 Y193.297 Z-19.500 F1000.000
G1 X25.240 Y193.297 Z-14.500 F550.000
G1 X51.150 Y193.299 Z-14.500 F1000.000
G1 X56.150 Y193.299 Z-19.500 F550.000
G1 X57.694 Y193.299 Z-19.500 F1000.000
G1 X59.203 Y193.299 Z-18.223 F597.636
G1 X60.606 Y193.299 Z-17.073 F606.659
G1 X62.427 Y193.300 Z-15.649 F619.797
G1 X64.000 Y193.300 Z-14.500 F638.410
G1 X69.530 Y193.300 Z-14.500 F1000.000
G3 X73.100 Y196.870 Z-14.500 I0.059 J3.511 K0.000 F1000.000
G1 X73.100 Y215.475 Z-14.500 F1000.000
G1 X73.100 Y220.475 Z-19.500 F550.000
G1 X73.100 Y250.130 Z-19.500 F1000.000
G3 X69.530 Y253.700 Z-19.500 I-3.511 J0.059 K0.000 F1000.000
G1 X7.000 Y253.700 Z-19.500 F1000.000
G2 X-1.496 Y262.060 Z-19.500 I0.005 J8.502 K0.000 F1000.000
G1 X-1.500 Y279.800 Z-19.500 F1000.000
G2 X6.860 Y288.296 Z-19.500 I8.502 J-0.005 K0.000 F1000.000
G1 X24.025 Y288.297 Z-19.500 F1000.000
G1 X29.025 Y288.297 Z-14.500 F550.000
G1 X54.935 Y288.299 Z-14.500 F1000.000
G1 X59.935 Y288.299 Z-19.500 F550.000
G1 X69.530 Y288.300 Z-19.500 F1000.000
G3 X73.100 Y291.870 Z-19.500 I0.059 J3.511 K0.000 F1000.000
G1 X73.100 Y351.000 Z-19.500 F1000.000
G2 X75.600 Y353.500 Z-19.500 I2.500 J-0.000 K0.000 F1000.000
G1 X99.894 Y353.500 Z-19.500 F1000.000
G1 X104.894 Y353.500 Z-14.500 F550.000
G1 X130.804 Y353.500 Z-14.500 F1000.000
G1 X135.804 Y353.500 Z-19.500 F550.000
G1 X160.099 Y353.500 Z-19.500 F1000.000
G2 X176.008 Y346.909 Z-19.500 I-0.002 J-22.501 K0.000 F1000.000
G0 X176.008 Y346.909 Z5.000
(Finish operation: DressupTag)
(Begin postamble)
M5
G17 G90
M2
