(Exported by FreeCAD)
(Post Processor: grbl_post)
(Output Time:2020-12-04 09:52:45.050683)
(Begin preamble)
G17 G90
G21
(Begin operation: Fixture)
(Path: Fixture)
G54
(Finish operation: Fixture)
(Begin operation: TC: Default Tool001)
(Path: TC: Default Tool001)
(TC: Default Tool)
(Begin toolchange)
( M6 T1.0 )
M3 S24000.0
(Finish operation: TC: Default Tool001)
(Begin operation: Drilling)
(Path: Drilling)
(Drilling)
(Begin Drilling)
G0 Z5.000
G90
G99
G81 X21.000 Y21.000 Z-1.000 F100.000 R1.000
G80
G0 Z3.000
G81 X217.200 Y38.000 Z-1.000 F100.000 R1.000
G80
G0 Z3.000
G81 X331.000 Y21.000 Z-1.000 F100.000 R1.000
G80
G0 Z3.000
G81 X331.000 Y491.000 Z-1.000 F100.000 R1.000
G80
G0 Z3.000
G81 X331.000 Y531.000 Z-1.000 F100.000 R1.000
G80
G0 Z3.000
G81 X217.200 Y501.000 Z-1.000 F100.000 R1.000
G80
G0 Z3.000
G81 X21.000 Y491.000 Z-1.000 F100.000 R1.000
G80
G0 Z3.000
G81 X21.000 Y531.000 Z-1.000 F100.000 R1.000
G80
G0 Z3.000
(Finish operation: Drilling)
(Begin postamble)
M5
G17 G90
M2
