(Exported by FreeCAD)
(Post Processor: grbl_post)
(Output Time:2020-12-06 21:26:37.562511)
(Begin preamble)
G17 G90
G21
(Begin operation: Fixture)
(Path: Fixture)
G54
(Finish operation: Fixture)
(Begin operation: TC: Default Tool001)
(Path: TC: Default Tool001)
(TC: Default Tool001)
(Begin toolchange)
( M6 T1.0 )
M3 S16000.0
(Finish operation: TC: Default Tool001)
(Begin operation: Helix)
(Path: Helix)
(Helix)
(helix cut operation)
G0 Z5.000
G0 X6.300 Y319.000
G0 Z3.000
G1 Z0.000 F600.000
G2 X6.200 Y319.000 Z-0.500 I-0.050 J0.000 F600.000
G2 X6.300 Y319.000 Z-1.000 I0.050 J0.000 F600.000
G2 X6.200 Y319.000 Z-1.500 I-0.050 J0.000 F600.000
G2 X6.300 Y319.000 Z-2.000 I0.050 J0.000 F600.000
G2 X6.200 Y319.000 Z-2.000 I-0.050 J0.000 F600.000
G2 X6.300 Y319.000 Z-2.000 I0.050 J0.000 F600.000
G0 Z3.000
G0 X18.300 Y319.000
G0 Z3.000
G1 Z0.000 F600.000
G2 X18.200 Y319.000 Z-0.500 I-0.050 J0.000 F600.000
G2 X18.300 Y319.000 Z-1.000 I0.050 J0.000 F600.000
G2 X18.200 Y319.000 Z-1.500 I-0.050 J0.000 F600.000
G2 X18.300 Y319.000 Z-2.000 I0.050 J0.000 F600.000
G2 X18.200 Y319.000 Z-2.000 I-0.050 J0.000 F600.000
G2 X18.300 Y319.000 Z-2.000 I0.050 J0.000 F600.000
G0 Z3.000
G0 X46.300 Y319.000
G0 Z3.000
G1 Z0.000 F600.000
G2 X46.200 Y319.000 Z-0.500 I-0.050 J0.000 F600.000
G2 X46.300 Y319.000 Z-1.000 I0.050 J0.000 F600.000
G2 X46.200 Y319.000 Z-1.500 I-0.050 J0.000 F600.000
G2 X46.300 Y319.000 Z-2.000 I0.050 J0.000 F600.000
G2 X46.200 Y319.000 Z-2.000 I-0.050 J0.000 F600.000
G2 X46.300 Y319.000 Z-2.000 I0.050 J0.000 F600.000
G0 Z3.000
G0 X58.300 Y319.000
G0 Z3.000
G1 Z0.000 F600.000
G2 X58.200 Y319.000 Z-0.500 I-0.050 J0.000 F600.000
G2 X58.300 Y319.000 Z-1.000 I0.050 J0.000 F600.000
G2 X58.200 Y319.000 Z-1.500 I-0.050 J0.000 F600.000
G2 X58.300 Y319.000 Z-2.000 I0.050 J0.000 F600.000
G2 X58.200 Y319.000 Z-2.000 I-0.050 J0.000 F600.000
G2 X58.300 Y319.000 Z-2.000 I0.050 J0.000 F600.000
G0 Z3.000
G0 X86.300 Y319.000
G0 Z3.000
G1 Z0.000 F600.000
G2 X86.200 Y319.000 Z-0.500 I-0.050 J0.000 F600.000
G2 X86.300 Y319.000 Z-1.000 I0.050 J0.000 F600.000
G2 X86.200 Y319.000 Z-1.500 I-0.050 J0.000 F600.000
G2 X86.300 Y319.000 Z-2.000 I0.050 J0.000 F600.000
G2 X86.200 Y319.000 Z-2.000 I-0.050 J0.000 F600.000
G2 X86.300 Y319.000 Z-2.000 I0.050 J0.000 F600.000
G0 Z3.000
G0 X98.300 Y319.000
G0 Z3.000
G1 Z0.000 F600.000
G2 X98.200 Y319.000 Z-0.500 I-0.050 J0.000 F600.000
G2 X98.300 Y319.000 Z-1.000 I0.050 J0.000 F600.000
G2 X98.200 Y319.000 Z-1.500 I-0.050 J0.000 F600.000
G2 X98.300 Y319.000 Z-2.000 I0.050 J0.000 F600.000
G2 X98.200 Y319.000 Z-2.000 I-0.050 J0.000 F600.000
G2 X98.300 Y319.000 Z-2.000 I0.050 J0.000 F600.000
G0 Z3.000
G0 X126.300 Y319.000
G0 Z3.000
G1 Z0.000 F600.000
G2 X126.200 Y319.000 Z-0.500 I-0.050 J0.000 F600.000
G2 X126.300 Y319.000 Z-1.000 I0.050 J0.000 F600.000
G2 X126.200 Y319.000 Z-1.500 I-0.050 J0.000 F600.000
G2 X126.300 Y319.000 Z-2.000 I0.050 J0.000 F600.000
G2 X126.200 Y319.000 Z-2.000 I-0.050 J0.000 F600.000
G2 X126.300 Y319.000 Z-2.000 I0.050 J0.000 F600.000
G0 Z3.000
G0 X138.300 Y319.000
G0 Z3.000
G1 Z0.000 F600.000
G2 X138.200 Y319.000 Z-0.500 I-0.050 J0.000 F600.000
G2 X138.300 Y319.000 Z-1.000 I0.050 J0.000 F600.000
G2 X138.200 Y319.000 Z-1.500 I-0.050 J0.000 F600.000
G2 X138.300 Y319.000 Z-2.000 I0.050 J0.000 F600.000
G2 X138.200 Y319.000 Z-2.000 I-0.050 J0.000 F600.000
G2 X138.300 Y319.000 Z-2.000 I0.050 J0.000 F600.000
G0 Z3.000
(Finish operation: Helix)
(Begin postamble)
M5
G17 G90
M2
