(Exported by FreeCAD)
(Post Processor: grbl_post)
(Output Time:2020-12-06 21:20:38.763202)
(Begin preamble)
G17 G90
G21
(Begin operation: Fixture)
(Path: Fixture)
G54
(Finish operation: Fixture)
(Begin operation: TC: Default Tool)
(Path: TC: Default Tool)
(TC: Default Tool)
(Begin toolchange)
( M6 T1.0 )
M3 S16000.0
(Finish operation: TC: Default Tool)
(Begin operation: DressupTag)
(Path: DressupTag)
G0 Z5.000
G0 X25.207 Y324.707 Z5.000
G0 X25.207 Y324.707 Z3.000
G1 X25.207 Y324.707 Z-1.000 F600.000
G2 X25.500 Y324.000 Z-1.000 I-0.707 J-0.707 K0.000 F600.000
G1 X25.500 Y141.205 Z-1.000 F600.000
G2 X24.500 Y140.205 Z-1.000 I-1.000 J0.000 K0.000 F600.000
G1 X16.523 Y140.205 Z-1.000 F600.000
G3 X8.501 Y132.205 Z-1.000 I-0.022 J-8.000 K0.000 F600.000
G3 X16.523 Y124.205 Z-1.000 I8.000 J0.000 K0.000 F600.000
G1 X24.500 Y124.205 Z-1.000 F600.000
G2 X25.500 Y123.205 Z-1.000 I-0.000 J-1.000 K0.000 F600.000
G1 X25.500 Y0.000 Z-1.000 F600.000
G2 X24.500 Y-1.000 Z-1.000 I-1.000 J0.000 K0.000 F600.000
G1 X0.000 Y-1.000 Z-1.000 F600.000
G2 X-1.000 Y0.000 Z-1.000 I0.000 J1.000 K0.000 F600.000
G1 X-1.000 Y324.000 Z-1.000 F600.000
G2 X-0.000 Y325.000 Z-1.000 I1.000 J-0.000 K0.000 F600.000
G1 X24.500 Y325.000 Z-1.000 F600.000
G2 X25.207 Y324.707 Z-1.000 I-0.000 J-1.000 K0.000 F600.000
G1 X25.207 Y324.707 Z-2.000 F600.000
G2 X25.500 Y324.000 Z-2.000 I-0.707 J-0.707 K0.000 F600.000
G1 X25.500 Y141.205 Z-2.000 F600.000
G2 X24.500 Y140.205 Z-2.000 I-1.000 J0.000 K0.000 F600.000
G1 X16.523 Y140.205 Z-2.000 F600.000
G3 X8.501 Y132.205 Z-2.000 I-0.022 J-8.000 K0.000 F600.000
G3 X16.523 Y124.205 Z-2.000 I8.000 J0.000 K0.000 F600.000
G1 X24.500 Y124.205 Z-2.000 F600.000
G2 X25.500 Y123.205 Z-2.000 I-0.000 J-1.000 K0.000 F600.000
G1 X25.500 Y0.000 Z-2.000 F600.000
G2 X24.500 Y-1.000 Z-2.000 I-1.000 J0.000 K0.000 F600.000
G1 X0.000 Y-1.000 Z-2.000 F600.000
G2 X-1.000 Y0.000 Z-2.000 I0.000 J1.000 K0.000 F600.000
G1 X-1.000 Y324.000 Z-2.000 F600.000
G2 X-0.000 Y325.000 Z-2.000 I1.000 J-0.000 K0.000 F600.000
G1 X24.500 Y325.000 Z-2.000 F600.000
G2 X25.207 Y324.707 Z-2.000 I-0.000 J-1.000 K0.000 F600.000
G1 X25.207 Y324.707 Z-3.000 F600.000
G2 X25.500 Y324.000 Z-3.000 I-0.707 J-0.707 K0.000 F600.000
G1 X25.500 Y141.205 Z-3.000 F600.000
G2 X24.500 Y140.205 Z-3.000 I-1.000 J0.000 K0.000 F600.000
G1 X16.523 Y140.205 Z-3.000 F600.000
G3 X8.501 Y132.205 Z-3.000 I-0.022 J-8.000 K0.000 F600.000
G3 X16.523 Y124.205 Z-3.000 I8.000 J0.000 K0.000 F600.000
G1 X24.500 Y124.205 Z-3.000 F600.000
G2 X25.500 Y123.205 Z-3.000 I-0.000 J-1.000 K0.000 F600.000
G1 X25.500 Y0.000 Z-3.000 F600.000
G2 X24.500 Y-1.000 Z-3.000 I-1.000 J0.000 K0.000 F600.000
G1 X0.000 Y-1.000 Z-3.000 F600.000
G2 X-1.000 Y0.000 Z-3.000 I0.000 J1.000 K0.000 F600.000
G1 X-1.000 Y324.000 Z-3.000 F600.000
G2 X-0.000 Y325.000 Z-3.000 I1.000 J-0.000 K0.000 F600.000
G1 X24.500 Y325.000 Z-3.000 F600.000
G2 X25.207 Y324.707 Z-3.000 I-0.000 J-1.000 K0.000 F600.000
G1 X25.207 Y324.707 Z-4.000 F600.000
G2 X25.500 Y324.000 Z-4.000 I-0.707 J-0.707 K0.000 F600.000
G1 X25.500 Y321.050 Z-4.000 F600.000
G1 X25.500 Y320.550 Z-3.500 F600.000
G1 X25.500 Y307.190 Z-3.500 F600.000
G1 X25.500 Y306.690 Z-4.000 F600.000
G1 X25.500 Y176.670 Z-4.000 F600.000
G1 X25.500 Y176.170 Z-3.500 F600.000
G1 X25.500 Y162.810 Z-3.500 F600.000
G1 X25.500 Y162.310 Z-4.000 F600.000
G1 X25.500 Y141.205 Z-4.000 F600.000
G2 X24.500 Y140.205 Z-4.000 I-1.000 J0.000 K0.000 F600.000
G1 X16.523 Y140.205 Z-4.000 F600.000
G3 X8.501 Y132.205 Z-4.000 I-0.022 J-8.000 K0.000 F600.000
G3 X16.523 Y124.205 Z-4.000 I8.000 J0.000 K0.000 F600.000
G1 X24.500 Y124.205 Z-4.000 F600.000
G2 X25.500 Y123.205 Z-4.000 I-0.000 J-1.000 K0.000 F600.000
G1 X25.500 Y20.820 Z-4.000 F600.000
G1 X25.500 Y20.320 Z-3.500 F600.000
G1 X25.500 Y6.960 Z-3.500 F600.000
G1 X25.500 Y6.460 Z-4.000 F600.000
G1 X25.500 Y0.000 Z-4.000 F600.000
G2 X24.500 Y-1.000 Z-4.000 I-1.000 J0.000 K0.000 F600.000
G1 X0.000 Y-1.000 Z-4.000 F600.000
G2 X-1.000 Y0.000 Z-4.000 I0.000 J1.000 K0.000 F600.000
G1 X-1.000 Y48.850 Z-4.000 F600.000
G1 X-1.000 Y49.350 Z-3.500 F600.000
G1 X-1.000 Y62.710 Z-3.500 F600.000
G1 X-1.000 Y63.210 Z-4.000 F600.000
G1 X-1.000 Y236.210 Z-4.000 F600.000
G1 X-1.000 Y236.710 Z-3.500 F600.000
G1 X-1.000 Y250.070 Z-3.500 F600.000
G1 X-1.000 Y250.570 Z-4.000 F600.000
G1 X-1.000 Y324.000 Z-4.000 F600.000
G2 X-0.000 Y325.000 Z-4.000 I1.000 J-0.000 K0.000 F600.000
G1 X24.500 Y325.000 Z-4.000 F600.000
G2 X25.207 Y324.707 Z-4.000 I-0.000 J-1.000 K0.000 F600.000
G1 X25.207 Y324.707 Z-5.000 F600.000
G2 X25.500 Y324.000 Z-5.000 I-0.707 J-0.707 K0.000 F600.000
G1 X25.500 Y322.050 Z-5.000 F600.000
G1 X25.500 Y320.550 Z-3.500 F600.000
G1 X25.500 Y307.190 Z-3.500 F600.000
G1 X25.500 Y305.690 Z-5.000 F600.000
G1 X25.500 Y177.670 Z-5.000 F600.000
G1 X25.500 Y176.170 Z-3.500 F600.000
G1 X25.500 Y162.810 Z-3.500 F600.000
G1 X25.500 Y161.310 Z-5.000 F600.000
G1 X25.500 Y141.205 Z-5.000 F600.000
G2 X24.500 Y140.205 Z-5.000 I-1.000 J0.000 K0.000 F600.000
G1 X16.523 Y140.205 Z-5.000 F600.000
G3 X8.501 Y132.205 Z-5.000 I-0.022 J-8.000 K0.000 F600.000
G3 X16.523 Y124.205 Z-5.000 I8.000 J0.000 K0.000 F600.000
G1 X24.500 Y124.205 Z-5.000 F600.000
G2 X25.500 Y123.205 Z-5.000 I-0.000 J-1.000 K0.000 F600.000
G1 X25.500 Y21.820 Z-5.000 F600.000
G1 X25.500 Y20.320 Z-3.500 F600.000
G1 X25.500 Y6.960 Z-3.500 F600.000
G1 X25.500 Y5.460 Z-5.000 F600.000
G1 X25.500 Y0.000 Z-5.000 F600.000
G2 X24.500 Y-1.000 Z-5.000 I-1.000 J0.000 K0.000 F600.000
G1 X0.000 Y-1.000 Z-5.000 F600.000
G2 X-1.000 Y0.000 Z-5.000 I0.000 J1.000 K0.000 F600.000
G1 X-1.000 Y47.850 Z-5.000 F600.000
G1 X-1.000 Y49.350 Z-3.500 F600.000
G1 X-1.000 Y62.710 Z-3.500 F600.000
G1 X-1.000 Y64.210 Z-5.000 F600.000
G1 X-1.000 Y235.210 Z-5.000 F600.000
G1 X-1.000 Y236.710 Z-3.500 F600.000
G1 X-1.000 Y250.070 Z-3.500 F600.000
G1 X-1.000 Y251.570 Z-5.000 F600.000
G1 X-1.000 Y324.000 Z-5.000 F600.000
G2 X-0.000 Y325.000 Z-5.000 I1.000 J-0.000 K0.000 F600.000
G1 X24.500 Y325.000 Z-5.000 F600.000
G2 X25.207 Y324.707 Z-5.000 I-0.000 J-1.000 K0.000 F600.000
G1 X25.207 Y324.707 Z-5.500 F600.000
G2 X25.500 Y324.000 Z-5.500 I-0.707 J-0.707 K0.000 F600.000
G1 X25.500 Y322.550 Z-5.500 F600.000
G1 X25.500 Y320.550 Z-3.500 F600.000
G1 X25.500 Y307.190 Z-3.500 F600.000
G1 X25.500 Y305.190 Z-5.500 F600.000
G1 X25.500 Y178.170 Z-5.500 F600.000
G1 X25.500 Y176.170 Z-3.500 F600.000
G1 X25.500 Y162.810 Z-3.500 F600.000
G1 X25.500 Y160.810 Z-5.500 F600.000
G1 X25.500 Y141.205 Z-5.500 F600.000
G2 X24.500 Y140.205 Z-5.500 I-1.000 J0.000 K0.000 F600.000
G1 X16.523 Y140.205 Z-5.500 F600.000
G3 X8.501 Y132.205 Z-5.500 I-0.022 J-8.000 K0.000 F600.000
G3 X16.523 Y124.205 Z-5.500 I8.000 J0.000 K0.000 F600.000
G1 X24.500 Y124.205 Z-5.500 F600.000
G2 X25.500 Y123.205 Z-5.500 I-0.000 J-1.000 K0.000 F600.000
G1 X25.500 Y22.320 Z-5.500 F600.000
G1 X25.500 Y20.320 Z-3.500 F600.000
G1 X25.500 Y6.960 Z-3.500 F600.000
G1 X25.500 Y4.960 Z-5.500 F600.000
G1 X25.500 Y0.000 Z-5.500 F600.000
G2 X24.500 Y-1.000 Z-5.500 I-1.000 J0.000 K0.000 F600.000
G1 X0.000 Y-1.000 Z-5.500 F600.000
G2 X-1.000 Y0.000 Z-5.500 I0.000 J1.000 K0.000 F600.000
G1 X-1.000 Y47.350 Z-5.500 F600.000
G1 X-1.000 Y49.350 Z-3.500 F600.000
G1 X-1.000 Y62.710 Z-3.500 F600.000
G1 X-1.000 Y64.710 Z-5.500 F600.000
G1 X-1.000 Y234.710 Z-5.500 F600.000
G1 X-1.000 Y236.710 Z-3.500 F600.000
G1 X-1.000 Y250.070 Z-3.500 F600.000
G1 X-1.000 Y252.070 Z-5.500 F600.000
G1 X-1.000 Y324.000 Z-5.500 F600.000
G2 X-0.000 Y325.000 Z-5.500 I1.000 J-0.000 K0.000 F600.000
G1 X24.500 Y325.000 Z-5.500 F600.000
G2 X25.207 Y324.707 Z-5.500 I-0.000 J-1.000 K0.000 F600.000
G0 X25.207 Y324.707 Z5.000
G0 X39.001 Y324.048 Z5.000
G0 X39.001 Y324.048 Z3.000
G1 X39.001 Y324.048 Z-1.000 F600.000
G2 X40.000 Y325.000 Z-1.000 I0.999 J-0.048 K0.000 F600.000
G1 X64.500 Y325.000 Z-1.000 F600.000
G2 X65.500 Y324.000 Z-1.000 I-0.000 J-1.000 K0.000 F600.000
G1 X65.500 Y80.382 Z-1.000 F600.000
G2 X64.500 Y79.382 Z-1.000 I-1.000 J0.000 K0.000 F600.000
G1 X56.523 Y79.382 Z-1.000 F600.000
G3 X48.501 Y71.382 Z-1.000 I-0.022 J-8.000 K0.000 F600.000
G3 X56.523 Y63.382 Z-1.000 I8.000 J0.000 K0.000 F600.000
G1 X64.500 Y63.382 Z-1.000 F600.000
G2 X65.500 Y62.382 Z-1.000 I-0.000 J-1.000 K0.000 F600.000
G1 X65.500 Y0.000 Z-1.000 F600.000
G2 X64.500 Y-1.000 Z-1.000 I-1.000 J0.000 K0.000 F600.000
G1 X40.000 Y-1.000 Z-1.000 F600.000
G2 X39.000 Y0.000 Z-1.000 I0.000 J1.000 K0.000 F600.000
G1 X39.000 Y324.000 Z-1.000 F600.000
G2 X39.001 Y324.048 Z-1.000 I1.000 J-0.000 K0.000 F600.000
G1 X39.001 Y324.048 Z-2.000 F600.000
G2 X40.000 Y325.000 Z-2.000 I0.999 J-0.048 K0.000 F600.000
G1 X64.500 Y325.000 Z-2.000 F600.000
G2 X65.500 Y324.000 Z-2.000 I-0.000 J-1.000 K0.000 F600.000
G1 X65.500 Y80.382 Z-2.000 F600.000
G2 X64.500 Y79.382 Z-2.000 I-1.000 J0.000 K0.000 F600.000
G1 X56.523 Y79.382 Z-2.000 F600.000
G3 X48.501 Y71.382 Z-2.000 I-0.022 J-8.000 K0.000 F600.000
G3 X56.523 Y63.382 Z-2.000 I8.000 J0.000 K0.000 F600.000
G1 X64.500 Y63.382 Z-2.000 F600.000
G2 X65.500 Y62.382 Z-2.000 I-0.000 J-1.000 K0.000 F600.000
G1 X65.500 Y0.000 Z-2.000 F600.000
G2 X64.500 Y-1.000 Z-2.000 I-1.000 J0.000 K0.000 F600.000
G1 X40.000 Y-1.000 Z-2.000 F600.000
G2 X39.000 Y0.000 Z-2.000 I0.000 J1.000 K0.000 F600.000
G1 X39.000 Y324.000 Z-2.000 F600.000
G2 X39.001 Y324.048 Z-2.000 I1.000 J-0.000 K0.000 F600.000
G1 X39.001 Y324.048 Z-3.000 F600.000
G2 X40.000 Y325.000 Z-3.000 I0.999 J-0.048 K0.000 F600.000
G1 X64.500 Y325.000 Z-3.000 F600.000
G2 X65.500 Y324.000 Z-3.000 I-0.000 J-1.000 K0.000 F600.000
G1 X65.500 Y80.382 Z-3.000 F600.000
G2 X64.500 Y79.382 Z-3.000 I-1.000 J0.000 K0.000 F600.000
G1 X56.523 Y79.382 Z-3.000 F600.000
G3 X48.501 Y71.382 Z-3.000 I-0.022 J-8.000 K0.000 F600.000
G3 X56.523 Y63.382 Z-3.000 I8.000 J0.000 K0.000 F600.000
G1 X64.500 Y63.382 Z-3.000 F600.000
G2 X65.500 Y62.382 Z-3.000 I-0.000 J-1.000 K0.000 F600.000
G1 X65.500 Y0.000 Z-3.000 F600.000
G2 X64.500 Y-1.000 Z-3.000 I-1.000 J0.000 K0.000 F600.000
G1 X40.000 Y-1.000 Z-3.000 F600.000
G2 X39.000 Y0.000 Z-3.000 I0.000 J1.000 K0.000 F600.000
G1 X39.000 Y324.000 Z-3.000 F600.000
G2 X39.001 Y324.048 Z-3.000 I1.000 J-0.000 K0.000 F600.000
G1 X39.001 Y324.048 Z-4.000 F600.000
G2 X40.000 Y325.000 Z-4.000 I0.999 J-0.048 K0.000 F600.000
G1 X64.500 Y325.000 Z-4.000 F600.000
G2 X65.500 Y324.000 Z-4.000 I-0.000 J-1.000 K0.000 F600.000
G1 X65.500 Y323.940 Z-4.000 F600.000
G1 X65.500 Y323.440 Z-3.500 F600.000
G1 X65.500 Y310.080 Z-3.500 F600.000
G1 X65.500 Y309.580 Z-4.000 F600.000
G1 X65.500 Y165.210 Z-4.000 F600.000
G1 X65.500 Y164.710 Z-3.500 F600.000
G1 X65.500 Y151.350 Z-3.500 F600.000
G1 X65.500 Y150.850 Z-4.000 F600.000
G1 X65.500 Y80.382 Z-4.000 F600.000
G2 X64.500 Y79.382 Z-4.000 I-1.000 J0.000 K0.000 F600.000
G1 X56.523 Y79.382 Z-4.000 F600.000
G3 X48.501 Y71.382 Z-4.000 I-0.022 J-8.000 K0.000 F600.000
G3 X56.523 Y63.382 Z-4.000 I8.000 J0.000 K0.000 F600.000
G1 X64.500 Y63.382 Z-4.000 F600.000
G2 X65.500 Y62.382 Z-4.000 I-0.000 J-1.000 K0.000 F600.000
G1 X65.500 Y17.590 Z-4.000 F600.000
G1 X65.500 Y17.090 Z-3.500 F600.000
G1 X65.500 Y3.730 Z-3.500 F600.000
G1 X65.500 Y3.230 Z-4.000 F600.000
G1 X65.500 Y0.000 Z-4.000 F600.000
G2 X64.500 Y-1.000 Z-4.000 I-1.000 J0.000 K0.000 F600.000
G1 X40.000 Y-1.000 Z-4.000 F600.000
G2 X39.000 Y0.000 Z-4.000 I0.000 J1.000 K0.000 F600.000
G1 X39.000 Y50.080 Z-4.000 F600.000
G1 X39.000 Y50.580 Z-3.500 F600.000
G1 X39.000 Y63.940 Z-3.500 F600.000
G1 X39.000 Y64.440 Z-4.000 F600.000
G1 X39.000 Y245.030 Z-4.000 F600.000
G1 X39.000 Y245.530 Z-3.500 F600.000
G1 X39.000 Y258.890 Z-3.500 F600.000
G1 X39.000 Y259.390 Z-4.000 F600.000
G1 X39.000 Y324.000 Z-4.000 F600.000
G2 X39.001 Y324.048 Z-4.000 I1.000 J-0.000 K0.000 F600.000
G1 X39.001 Y324.048 Z-5.000 F600.000
G2 X40.000 Y325.000 Z-5.000 I0.999 J-0.048 K0.000 F600.000
G1 X64.500 Y325.000 Z-5.000 F600.000
G2 X64.897 Y324.918 Z-5.000 I-0.000 J-1.000 K0.000 F600.000
G1 X65.072 Y324.820 Z-4.891
G1 X65.212 Y324.702 Z-4.767
G1 X65.320 Y324.572 Z-4.634
G1 X65.401 Y324.434 Z-4.495
G1 X65.457 Y324.292 Z-4.352
G1 X65.489 Y324.146 Z-4.206
G1 X65.500 Y324.000 Z-4.060
G1 X65.500 Y323.440 Z-3.500 F600.000
G1 X65.500 Y310.080 Z-3.500 F600.000
G1 X65.500 Y308.580 Z-5.000 F600.000
G1 X65.500 Y166.210 Z-5.000 F600.000
G1 X65.500 Y164.710 Z-3.500 F600.000
G1 X65.500 Y151.350 Z-3.500 F600.000
G1 X65.500 Y149.850 Z-5.000 F600.000
G1 X65.500 Y80.382 Z-5.000 F600.000
G2 X64.500 Y79.382 Z-5.000 I-1.000 J0.000 K0.000 F600.000
G1 X56.523 Y79.382 Z-5.000 F600.000
G3 X48.501 Y71.382 Z-5.000 I-0.022 J-8.000 K0.000 F600.000
G3 X56.523 Y63.382 Z-5.000 I8.000 J0.000 K0.000 F600.000
G1 X64.500 Y63.382 Z-5.000 F600.000
G2 X65.500 Y62.382 Z-5.000 I-0.000 J-1.000 K0.000 F600.000
G1 X65.500 Y18.590 Z-5.000 F600.000
G1 X65.500 Y17.090 Z-3.500 F600.000
G1 X65.500 Y3.730 Z-3.500 F600.000
G1 X65.500 Y2.230 Z-5.000 F600.000
G1 X65.500 Y0.000 Z-5.000 F600.000
G2 X64.500 Y-1.000 Z-5.000 I-1.000 J0.000 K0.000 F600.000
G1 X40.000 Y-1.000 Z-5.000 F600.000
G2 X39.000 Y0.000 Z-5.000 I0.000 J1.000 K0.000 F600.000
G1 X39.000 Y49.080 Z-5.000 F600.000
G1 X39.000 Y50.580 Z-3.500 F600.000
G1 X39.000 Y63.940 Z-3.500 F600.000
G1 X39.000 Y65.440 Z-5.000 F600.000
G1 X39.000 Y244.030 Z-5.000 F600.000
G1 X39.000 Y245.530 Z-3.500 F600.000
G1 X39.000 Y258.890 Z-3.500 F600.000
G1 X39.000 Y260.390 Z-5.000 F600.000
G1 X39.000 Y324.000 Z-5.000 F600.000
G2 X39.001 Y324.048 Z-5.000 I1.000 J-0.000 K0.000 F600.000
G1 X39.001 Y324.048 Z-5.500 F600.000
G2 X40.000 Y325.000 Z-5.500 I0.999 J-0.048 K0.000 F600.000
G1 X62.771 Y325.000 Z-5.500 F600.000
G1 X63.709 Y325.000 Z-5.252 F600.000
G1 X64.500 Y325.000 Z-5.120 F600.000
G1 X64.710 Y324.978 Z-5.076
G1 X64.896 Y324.918 Z-5.001
G1 X65.051 Y324.834 Z-4.907
G1 X65.180 Y324.734 Z-4.800
G1 X65.283 Y324.622 Z-4.685
G1 X65.364 Y324.504 Z-4.565
G1 X65.424 Y324.381 Z-4.442
G1 X65.467 Y324.256 Z-4.316
G1 X65.492 Y324.128 Z-4.188
G1 X65.500 Y324.000 Z-4.060
G1 X65.500 Y323.440 Z-3.500 F600.000
G1 X65.500 Y310.080 Z-3.500 F600.000
G1 X65.500 Y308.080 Z-5.500 F600.000
G1 X65.500 Y166.710 Z-5.500 F600.000
G1 X65.500 Y164.710 Z-3.500 F600.000
G1 X65.500 Y151.350 Z-3.500 F600.000
G1 X65.500 Y149.350 Z-5.500 F600.000
G1 X65.500 Y80.382 Z-5.500 F600.000
G2 X64.500 Y79.382 Z-5.500 I-1.000 J0.000 K0.000 F600.000
G1 X56.523 Y79.382 Z-5.500 F600.000
G3 X48.501 Y71.382 Z-5.500 I-0.022 J-8.000 K0.000 F600.000
G3 X56.523 Y63.382 Z-5.500 I8.000 J0.000 K0.000 F600.000
G1 X64.500 Y63.382 Z-5.500 F600.000
G2 X65.500 Y62.382 Z-5.500 I-0.000 J-1.000 K0.000 F600.000
G1 X65.500 Y19.090 Z-5.500 F600.000
G1 X65.500 Y17.090 Z-3.500 F600.000
G1 X65.500 Y3.730 Z-3.500 F600.000
G1 X65.500 Y1.730 Z-5.500 F600.000
G1 X65.500 Y0.000 Z-5.500 F600.000
G2 X64.500 Y-1.000 Z-5.500 I-1.000 J0.000 K0.000 F600.000
G1 X40.000 Y-1.000 Z-5.500 F600.000
G2 X39.000 Y0.000 Z-5.500 I0.000 J1.000 K0.000 F600.000
G1 X39.000 Y48.580 Z-5.500 F600.000
G1 X39.000 Y50.580 Z-3.500 F600.000
G1 X39.000 Y63.940 Z-3.500 F600.000
G1 X39.000 Y65.940 Z-5.500 F600.000
G1 X39.000 Y243.530 Z-5.500 F600.000
G1 X39.000 Y245.530 Z-3.500 F600.000
G1 X39.000 Y258.890 Z-3.500 F600.000
G1 X39.000 Y260.890 Z-5.500 F600.000
G1 X39.000 Y324.000 Z-5.500 F600.000
G2 X39.001 Y324.048 Z-5.500 I1.000 J-0.000 K0.000 F600.000
G0 X39.001 Y324.048 Z5.000
G0 X79.000 Y324.000 Z5.000
G0 X79.000 Y324.000 Z3.000
G1 X79.000 Y324.000 Z-1.000 F600.000
G2 X80.000 Y325.000 Z-1.000 I1.000 J-0.000 K0.000 F600.000
G1 X104.500 Y325.000 Z-1.000 F600.000
G2 X105.500 Y324.000 Z-1.000 I-0.000 J-1.000 K0.000 F600.000
G1 X105.500 Y145.778 Z-1.000 F600.000
G2 X104.500 Y144.778 Z-1.000 I-1.000 J0.000 K0.000 F600.000
G1 X96.523 Y144.778 Z-1.000 F600.000
G3 X88.501 Y136.778 Z-1.000 I-0.022 J-8.000 K0.000 F600.000
G3 X96.523 Y128.778 Z-1.000 I8.000 J0.000 K0.000 F600.000
G1 X104.500 Y128.778 Z-1.000 F600.000
G2 X105.500 Y127.778 Z-1.000 I-0.000 J-1.000 K0.000 F600.000
G1 X105.500 Y0.000 Z-1.000 F600.000
G2 X104.500 Y-1.000 Z-1.000 I-1.000 J0.000 K0.000 F600.000
G1 X80.000 Y-1.000 Z-1.000 F600.000
G2 X79.000 Y0.000 Z-1.000 I0.000 J1.000 K0.000 F600.000
G1 X79.000 Y324.000 Z-1.000 F600.000
G1 X79.000 Y324.000 Z-2.000 F600.000
G2 X80.000 Y325.000 Z-2.000 I1.000 J-0.000 K0.000 F600.000
G1 X104.500 Y325.000 Z-2.000 F600.000
G2 X105.500 Y324.000 Z-2.000 I-0.000 J-1.000 K0.000 F600.000
G1 X105.500 Y145.778 Z-2.000 F600.000
G2 X104.500 Y144.778 Z-2.000 I-1.000 J0.000 K0.000 F600.000
G1 X96.523 Y144.778 Z-2.000 F600.000
G3 X88.501 Y136.778 Z-2.000 I-0.022 J-8.000 K0.000 F600.000
G3 X96.523 Y128.778 Z-2.000 I8.000 J0.000 K0.000 F600.000
G1 X104.500 Y128.778 Z-2.000 F600.000
G2 X105.500 Y127.778 Z-2.000 I-0.000 J-1.000 K0.000 F600.000
G1 X105.500 Y0.000 Z-2.000 F600.000
G2 X104.500 Y-1.000 Z-2.000 I-1.000 J0.000 K0.000 F600.000
G1 X80.000 Y-1.000 Z-2.000 F600.000
G2 X79.000 Y0.000 Z-2.000 I0.000 J1.000 K0.000 F600.000
G1 X79.000 Y324.000 Z-2.000 F600.000
G1 X79.000 Y324.000 Z-3.000 F600.000
G2 X80.000 Y325.000 Z-3.000 I1.000 J-0.000 K0.000 F600.000
G1 X104.500 Y325.000 Z-3.000 F600.000
G2 X105.500 Y324.000 Z-3.000 I-0.000 J-1.000 K0.000 F600.000
G1 X105.500 Y145.778 Z-3.000 F600.000
G2 X104.500 Y144.778 Z-3.000 I-1.000 J0.000 K0.000 F600.000
G1 X96.523 Y144.778 Z-3.000 F600.000
G3 X88.501 Y136.778 Z-3.000 I-0.022 J-8.000 K0.000 F600.000
G3 X96.523 Y128.778 Z-3.000 I8.000 J0.000 K0.000 F600.000
G1 X104.500 Y128.778 Z-3.000 F600.000
G2 X105.500 Y127.778 Z-3.000 I-0.000 J-1.000 K0.000 F600.000
G1 X105.500 Y0.000 Z-3.000 F600.000
G2 X104.500 Y-1.000 Z-3.000 I-1.000 J0.000 K0.000 F600.000
G1 X80.000 Y-1.000 Z-3.000 F600.000
G2 X79.000 Y0.000 Z-3.000 I0.000 J1.000 K0.000 F600.000
G1 X79.000 Y324.000 Z-3.000 F600.000
G1 X79.000 Y324.000 Z-4.000 F600.000
G2 X80.000 Y325.000 Z-4.000 I1.000 J-0.000 K0.000 F600.000
G1 X104.500 Y325.000 Z-4.000 F600.000
G2 X105.500 Y324.000 Z-4.000 I-0.000 J-1.000 K0.000 F600.000
G1 X105.500 Y322.390 Z-4.000 F600.000
G1 X105.500 Y321.890 Z-3.500 F600.000
G1 X105.500 Y308.530 Z-3.500 F600.000
G1 X105.500 Y308.030 Z-4.000 F600.000
G1 X105.500 Y174.560 Z-4.000 F600.000
G1 X105.500 Y174.060 Z-3.500 F600.000
G1 X105.500 Y160.700 Z-3.500 F600.000
G1 X105.500 Y160.200 Z-4.000 F600.000
G1 X105.500 Y145.778 Z-4.000 F600.000
G2 X104.500 Y144.778 Z-4.000 I-1.000 J0.000 K0.000 F600.000
G1 X96.523 Y144.778 Z-4.000 F600.000
G3 X88.501 Y136.778 Z-4.000 I-0.022 J-8.000 K0.000 F600.000
G3 X96.523 Y128.778 Z-4.000 I8.000 J0.000 K0.000 F600.000
G1 X104.500 Y128.778 Z-4.000 F600.000
G2 X105.500 Y127.778 Z-4.000 I-0.000 J-1.000 K0.000 F600.000
G1 X105.500 Y17.030 Z-4.000 F600.000
G1 X105.500 Y16.530 Z-3.500 F600.000
G1 X105.500 Y3.170 Z-3.500 F600.000
G1 X105.500 Y2.670 Z-4.000 F600.000
G1 X105.500 Y0.000 Z-4.000 F600.000
G2 X104.500 Y-1.000 Z-4.000 I-1.000 J0.000 K0.000 F600.000
G1 X80.000 Y-1.000 Z-4.000 F600.000
G2 X79.000 Y0.000 Z-4.000 I0.000 J1.000 K0.000 F600.000
G1 X79.000 Y46.460 Z-4.000 F600.000
G1 X79.000 Y46.960 Z-3.500 F600.000
G1 X79.000 Y60.320 Z-3.500 F600.000
G1 X79.000 Y60.820 Z-4.000 F600.000
G1 X79.000 Y252.500 Z-4.000 F600.000
G1 X79.000 Y253.000 Z-3.500 F600.000
G1 X79.000 Y266.360 Z-3.500 F600.000
G1 X79.000 Y266.860 Z-4.000 F600.000
G1 X79.000 Y324.000 Z-4.000 F600.000
G1 X79.000 Y324.000 Z-5.000 F600.000
G2 X80.000 Y325.000 Z-5.000 I1.000 J-0.000 K0.000 F600.000
G1 X104.500 Y325.000 Z-5.000 F600.000
G2 X105.500 Y324.000 Z-5.000 I-0.000 J-1.000 K0.000 F600.000
G1 X105.500 Y323.390 Z-5.000 F600.000
G1 X105.500 Y321.890 Z-3.500 F600.000
G1 X105.500 Y308.530 Z-3.500 F600.000
G1 X105.500 Y307.030 Z-5.000 F600.000
G1 X105.500 Y175.560 Z-5.000 F600.000
G1 X105.500 Y174.060 Z-3.500 F600.000
G1 X105.500 Y160.700 Z-3.500 F600.000
G1 X105.500 Y159.200 Z-5.000 F600.000
G1 X105.500 Y145.778 Z-5.000 F600.000
G2 X104.500 Y144.778 Z-5.000 I-1.000 J0.000 K0.000 F600.000
G1 X96.523 Y144.778 Z-5.000 F600.000
G3 X88.501 Y136.778 Z-5.000 I-0.022 J-8.000 K0.000 F600.000
G3 X96.523 Y128.778 Z-5.000 I8.000 J0.000 K0.000 F600.000
G1 X104.500 Y128.778 Z-5.000 F600.000
G2 X105.500 Y127.778 Z-5.000 I-0.000 J-1.000 K0.000 F600.000
G1 X105.500 Y18.030 Z-5.000 F600.000
G1 X105.500 Y16.530 Z-3.500 F600.000
G1 X105.500 Y3.170 Z-3.500 F600.000
G1 X105.500 Y1.670 Z-5.000 F600.000
G1 X105.500 Y0.000 Z-5.000 F600.000
G2 X104.500 Y-1.000 Z-5.000 I-1.000 J0.000 K0.000 F600.000
G1 X80.000 Y-1.000 Z-5.000 F600.000
G2 X79.000 Y0.000 Z-5.000 I0.000 J1.000 K0.000 F600.000
G1 X79.000 Y45.460 Z-5.000 F600.000
G1 X79.000 Y46.960 Z-3.500 F600.000
G1 X79.000 Y60.320 Z-3.500 F600.000
G1 X79.000 Y61.820 Z-5.000 F600.000
G1 X79.000 Y251.500 Z-5.000 F600.000
G1 X79.000 Y253.000 Z-3.500 F600.000
G1 X79.000 Y266.360 Z-3.500 F600.000
G1 X79.000 Y267.860 Z-5.000 F600.000
G1 X79.000 Y324.000 Z-5.000 F600.000
G1 X79.000 Y324.000 Z-5.500 F600.000
G2 X80.000 Y325.000 Z-5.500 I1.000 J-0.000 K0.000 F600.000
G1 X104.500 Y325.000 Z-5.500 F600.000
G2 X105.500 Y324.000 Z-5.500 I-0.000 J-1.000 K0.000 F600.000
G1 X105.500 Y323.890 Z-5.500 F600.000
G1 X105.500 Y321.890 Z-3.500 F600.000
G1 X105.500 Y308.530 Z-3.500 F600.000
G1 X105.500 Y306.530 Z-5.500 F600.000
G1 X105.500 Y176.060 Z-5.500 F600.000
G1 X105.500 Y174.060 Z-3.500 F600.000
G1 X105.500 Y160.700 Z-3.500 F600.000
G1 X105.500 Y158.700 Z-5.500 F600.000
G1 X105.500 Y145.778 Z-5.500 F600.000
G2 X104.500 Y144.778 Z-5.500 I-1.000 J0.000 K0.000 F600.000
G1 X96.523 Y144.778 Z-5.500 F600.000
G3 X88.501 Y136.778 Z-5.500 I-0.022 J-8.000 K0.000 F600.000
G3 X96.523 Y128.778 Z-5.500 I8.000 J0.000 K0.000 F600.000
G1 X104.500 Y128.778 Z-5.500 F600.000
G2 X105.500 Y127.778 Z-5.500 I-0.000 J-1.000 K0.000 F600.000
G1 X105.500 Y18.530 Z-5.500 F600.000
G1 X105.500 Y16.530 Z-3.500 F600.000
G1 X105.500 Y3.170 Z-3.500 F600.000
G1 X105.500 Y1.170 Z-5.500 F600.000
G1 X105.500 Y0.000 Z-5.500 F600.000
G2 X104.500 Y-1.000 Z-5.500 I-1.000 J0.000 K0.000 F600.000
G1 X80.000 Y-1.000 Z-5.500 F600.000
G2 X79.000 Y0.000 Z-5.500 I0.000 J1.000 K0.000 F600.000
G1 X79.000 Y44.960 Z-5.500 F600.000
G1 X79.000 Y46.960 Z-3.500 F600.000
G1 X79.000 Y60.320 Z-3.500 F600.000
G1 X79.000 Y62.320 Z-5.500 F600.000
G1 X79.000 Y251.000 Z-5.500 F600.000
G1 X79.000 Y253.000 Z-3.500 F600.000
G1 X79.000 Y266.360 Z-3.500 F600.000
G1 X79.000 Y268.360 Z-5.500 F600.000
G1 X79.000 Y324.000 Z-5.500 F600.000
G0 X79.000 Y324.000 Z5.000
G0 X119.000 Y324.000 Z5.000
G0 X119.000 Y324.000 Z3.000
G1 X119.000 Y324.000 Z-1.000 F600.000
G2 X120.000 Y325.000 Z-1.000 I1.000 J-0.000 K0.000 F600.000
G1 X144.500 Y325.000 Z-1.000 F600.000
G2 X145.500 Y324.000 Z-1.000 I-0.000 J-1.000 K0.000 F600.000
G1 X145.500 Y206.600 Z-1.000 F600.000
G2 X144.500 Y205.600 Z-1.000 I-1.000 J0.000 K0.000 F600.000
G1 X136.523 Y205.600 Z-1.000 F600.000
G3 X128.501 Y197.600 Z-1.000 I-0.022 J-8.000 K0.000 F600.000
G3 X136.523 Y189.600 Z-1.000 I8.000 J-0.000 K0.000 F600.000
G1 X144.500 Y189.600 Z-1.000 F600.000
G2 X145.500 Y188.600 Z-1.000 I-0.000 J-1.000 K0.000 F600.000
G1 X145.500 Y0.000 Z-1.000 F600.000
G2 X144.500 Y-1.000 Z-1.000 I-1.000 J0.000 K0.000 F600.000
G1 X120.000 Y-1.000 Z-1.000 F600.000
G2 X119.000 Y0.000 Z-1.000 I0.000 J1.000 K0.000 F600.000
G1 X119.000 Y324.000 Z-1.000 F600.000
G1 X119.000 Y324.000 Z-2.000 F600.000
G2 X120.000 Y325.000 Z-2.000 I1.000 J-0.000 K0.000 F600.000
G1 X144.500 Y325.000 Z-2.000 F600.000
G2 X145.500 Y324.000 Z-2.000 I-0.000 J-1.000 K0.000 F600.000
G1 X145.500 Y206.600 Z-2.000 F600.000
G2 X144.500 Y205.600 Z-2.000 I-1.000 J0.000 K0.000 F600.000
G1 X136.523 Y205.600 Z-2.000 F600.000
G3 X128.501 Y197.600 Z-2.000 I-0.022 J-8.000 K0.000 F600.000
G3 X136.523 Y189.600 Z-2.000 I8.000 J-0.000 K0.000 F600.000
G1 X144.500 Y189.600 Z-2.000 F600.000
G2 X145.500 Y188.600 Z-2.000 I-0.000 J-1.000 K0.000 F600.000
G1 X145.500 Y0.000 Z-2.000 F600.000
G2 X144.500 Y-1.000 Z-2.000 I-1.000 J0.000 K0.000 F600.000
G1 X120.000 Y-1.000 Z-2.000 F600.000
G2 X119.000 Y0.000 Z-2.000 I0.000 J1.000 K0.000 F600.000
G1 X119.000 Y324.000 Z-2.000 F600.000
G1 X119.000 Y324.000 Z-3.000 F600.000
G2 X120.000 Y325.000 Z-3.000 I1.000 J-0.000 K0.000 F600.000
G1 X144.500 Y325.000 Z-3.000 F600.000
G2 X145.500 Y324.000 Z-3.000 I-0.000 J-1.000 K0.000 F600.000
G1 X145.500 Y206.600 Z-3.000 F600.000
G2 X144.500 Y205.600 Z-3.000 I-1.000 J0.000 K0.000 F600.000
G1 X136.523 Y205.600 Z-3.000 F600.000
G3 X128.501 Y197.600 Z-3.000 I-0.022 J-8.000 K0.000 F600.000
G3 X136.523 Y189.600 Z-3.000 I8.000 J-0.000 K0.000 F600.000
G1 X144.500 Y189.600 Z-3.000 F600.000
G2 X145.500 Y188.600 Z-3.000 I-0.000 J-1.000 K0.000 F600.000
G1 X145.500 Y0.000 Z-3.000 F600.000
G2 X144.500 Y-1.000 Z-3.000 I-1.000 J0.000 K0.000 F600.000
G1 X120.000 Y-1.000 Z-3.000 F600.000
G2 X119.000 Y0.000 Z-3.000 I0.000 J1.000 K0.000 F600.000
G1 X119.000 Y324.000 Z-3.000 F600.000
G1 X119.000 Y324.000 Z-4.000 F600.000
G2 X120.000 Y325.000 Z-4.000 I1.000 J-0.000 K0.000 F600.000
G1 X142.168 Y325.000 Z-4.000 F600.000
G1 X142.694 Y325.000 Z-3.771 F600.000
G1 X143.457 Y325.000 Z-3.500 F600.000
G1 X144.500 Y325.000 Z-3.500 F600.000
G2 X145.500 Y324.000 Z-3.500 I-0.000 J-1.000 K0.000 F600.000
G1 X145.500 Y311.960 Z-3.500 F600.000
G1 X145.500 Y311.460 Z-4.000 F600.000
G1 X145.500 Y206.600 Z-4.000 F600.000
G2 X144.500 Y205.600 Z-4.000 I-1.000 J0.000 K0.000 F600.000
G1 X136.523 Y205.600 Z-4.000 F600.000
G3 X128.501 Y197.600 Z-4.000 I-0.022 J-8.000 K0.000 F600.000
G3 X136.523 Y189.600 Z-4.000 I8.000 J-0.000 K0.000 F600.000
G1 X144.500 Y189.600 Z-4.000 F600.000
G2 X145.500 Y188.600 Z-4.000 I-0.000 J-1.000 K0.000 F600.000
G1 X145.500 Y153.440 Z-4.000 F600.000
G1 X145.500 Y152.940 Z-3.500 F600.000
G1 X145.500 Y139.580 Z-3.500 F600.000
G1 X145.500 Y139.080 Z-4.000 F600.000
G1 X145.500 Y15.950 Z-4.000 F600.000
G1 X145.500 Y15.450 Z-3.500 F600.000
G1 X145.500 Y2.090 Z-3.500 F600.000
G1 X145.500 Y1.590 Z-4.000 F600.000
G1 X145.500 Y0.000 Z-4.000 F600.000
G2 X144.500 Y-1.000 Z-4.000 I-1.000 J0.000 K0.000 F600.000
G1 X120.000 Y-1.000 Z-4.000 F600.000
G2 X119.000 Y0.000 Z-4.000 I0.000 J1.000 K0.000 F600.000
G1 X119.000 Y41.100 Z-4.000 F600.000
G1 X119.000 Y41.600 Z-3.500 F600.000
G1 X119.000 Y54.960 Z-3.500 F600.000
G1 X119.000 Y55.460 Z-4.000 F600.000
G1 X119.000 Y278.390 Z-4.000 F600.000
G1 X119.000 Y278.890 Z-3.500 F600.000
G1 X119.000 Y292.250 Z-3.500 F600.000
G1 X119.000 Y292.750 Z-4.000 F600.000
G1 X119.000 Y324.000 Z-4.000 F600.000
G1 X119.000 Y324.000 Z-5.000 F600.000
G2 X120.000 Y325.000 Z-5.000 I1.000 J-0.000 K0.000 F600.000
G1 X140.356 Y325.000 Z-5.000 F600.000
G1 X140.949 Y325.000 Z-4.640 F600.000
G1 X141.866 Y325.000 Z-4.145 F600.000
G1 X142.694 Y325.000 Z-3.771 F600.000
G1 X143.457 Y325.000 Z-3.500 F600.000
G1 X144.500 Y325.000 Z-3.500 F600.000
G2 X145.500 Y324.000 Z-3.500 I-0.000 J-1.000 K0.000 F600.000
G1 X145.500 Y311.960 Z-3.500 F600.000
G1 X145.500 Y310.460 Z-5.000 F600.000
G1 X145.500 Y206.600 Z-5.000 F600.000
G2 X144.500 Y205.600 Z-5.000 I-1.000 J0.000 K0.000 F600.000
G1 X136.523 Y205.600 Z-5.000 F600.000
G3 X128.501 Y197.600 Z-5.000 I-0.022 J-8.000 K0.000 F600.000
G3 X136.523 Y189.600 Z-5.000 I8.000 J-0.000 K0.000 F600.000
G1 X144.500 Y189.600 Z-5.000 F600.000
G2 X145.500 Y188.600 Z-5.000 I-0.000 J-1.000 K0.000 F600.000
G1 X145.500 Y154.440 Z-5.000 F600.000
G1 X145.500 Y152.940 Z-3.500 F600.000
G1 X145.500 Y139.580 Z-3.500 F600.000
G1 X145.500 Y138.080 Z-5.000 F600.000
G1 X145.500 Y16.950 Z-5.000 F600.000
G1 X145.500 Y15.450 Z-3.500 F600.000
G1 X145.500 Y2.090 Z-3.500 F600.000
G1 X145.500 Y0.590 Z-5.000 F600.000
G1 X145.500 Y0.000 Z-5.000 F600.000
G2 X144.500 Y-1.000 Z-5.000 I-1.000 J0.000 K0.000 F600.000
G1 X120.000 Y-1.000 Z-5.000 F600.000
G2 X119.000 Y0.000 Z-5.000 I0.000 J1.000 K0.000 F600.000
G1 X119.000 Y40.100 Z-5.000 F600.000
G1 X119.000 Y41.600 Z-3.500 F600.000
G1 X119.000 Y54.960 Z-3.500 F600.000
G1 X119.000 Y56.460 Z-5.000 F600.000
G1 X119.000 Y277.390 Z-5.000 F600.000
G1 X119.000 Y278.890 Z-3.500 F600.000
G1 X119.000 Y292.250 Z-3.500 F600.000
G1 X119.000 Y293.750 Z-5.000 F600.000
G1 X119.000 Y324.000 Z-5.000 F600.000
G1 X119.000 Y324.000 Z-5.500 F600.000
G2 X120.000 Y325.000 Z-5.500 I1.000 J-0.000 K0.000 F600.000
G1 X139.593 Y325.000 Z-5.500 F600.000
G1 X140.949 Y325.000 Z-4.640 F600.000
G1 X141.866 Y325.000 Z-4.145 F600.000
G1 X142.694 Y325.000 Z-3.771 F600.000
G1 X143.457 Y325.000 Z-3.500 F600.000
G1 X144.500 Y325.000 Z-3.500 F600.000
G2 X145.500 Y324.000 Z-3.500 I-0.000 J-1.000 K0.000 F600.000
G1 X145.500 Y311.960 Z-3.500 F600.000
G1 X145.500 Y309.960 Z-5.500 F600.000
G1 X145.500 Y206.600 Z-5.500 F600.000
G2 X144.500 Y205.600 Z-5.500 I-1.000 J0.000 K0.000 F600.000
G1 X136.523 Y205.600 Z-5.500 F600.000
G3 X128.501 Y197.600 Z-5.500 I-0.022 J-8.000 K0.000 F600.000
G3 X136.523 Y189.600 Z-5.500 I8.000 J-0.000 K0.000 F600.000
G1 X144.500 Y189.600 Z-5.500 F600.000
G2 X145.500 Y188.600 Z-5.500 I-0.000 J-1.000 K0.000 F600.000
G1 X145.500 Y154.940 Z-5.500 F600.000
G1 X145.500 Y152.940 Z-3.500 F600.000
G1 X145.500 Y139.580 Z-3.500 F600.000
G1 X145.500 Y137.580 Z-5.500 F600.000
G1 X145.500 Y17.450 Z-5.500 F600.000
G1 X145.500 Y15.450 Z-3.500 F600.000
G1 X145.500 Y2.090 Z-3.500 F600.000
G1 X145.500 Y0.090 Z-5.500 F600.000
G1 X145.500 Y0.000 Z-5.500 F600.000
G2 X144.500 Y-1.000 Z-5.500 I-1.000 J0.000 K0.000 F600.000
G1 X120.000 Y-1.000 Z-5.500 F600.000
G2 X119.000 Y0.000 Z-5.500 I0.000 J1.000 K0.000 F600.000
G1 X119.000 Y39.600 Z-5.500 F600.000
G1 X119.000 Y41.600 Z-3.500 F600.000
G1 X119.000 Y54.960 Z-3.500 F600.000
G1 X119.000 Y56.960 Z-5.500 F600.000
G1 X119.000 Y276.890 Z-5.500 F600.000
G1 X119.000 Y278.890 Z-3.500 F600.000
G1 X119.000 Y292.250 Z-3.500 F600.000
G1 X119.000 Y294.250 Z-5.500 F600.000
G1 X119.000 Y324.000 Z-5.500 F600.000
G0 X119.000 Y324.000 Z5.000
(Finish operation: DressupTag)
(Begin postamble)
M5
G17 G90
M2
