(Exported by FreeCAD)
(Post Processor: grbl_post)
(Output Time:2020-12-03 16:21:03.979057)
(Begin preamble)
G17 G90
G21
(Begin operation: Fixture)
(Path: Fixture)
G54
(Finish operation: Fixture)
(Begin operation: Default Tool)
(Path: Default Tool)
(Default Tool)
(Begin toolchange)
( M6 T1.0 )
M3 S24000.0
(Finish operation: Default Tool)
(Begin operation: Adaptive)
(Path: Adaptive)
(Adaptive)
(Helix to depth: -5.000000)
G91 G0 Z15
G90
G0 X10.257 Y528.410 Z15.000
G0 X10.257 Y528.410 Z3.000
G1 X10.257 Y528.410 Z0.000 F100.000
G1 X10.257 Y528.410 Z0.000 F100.000
G1 X10.501 Y528.681 Z-0.032 F100.000
G1 X10.688 Y528.995 Z-0.064 F100.000
G1 X10.811 Y529.340 Z-0.097 F100.000
G1 X10.863 Y529.702 Z-0.129 F100.000
G1 X10.844 Y530.067 Z-0.161 F100.000
G1 X10.754 Y530.421 Z-0.193 F100.000
G1 X10.597 Y530.751 Z-0.225 F100.000
G1 X10.378 Y531.044 Z-0.258 F100.000
G1 X10.106 Y531.289 Z-0.290 F100.000
G1 X9.792 Y531.476 Z-0.322 F100.000
G1 X9.447 Y531.598 Z-0.354 F100.000
G1 X9.086 Y531.651 Z-0.387 F100.000
G1 X8.721 Y531.631 Z-0.419 F100.000
G1 X8.366 Y531.542 Z-0.451 F100.000
G1 X8.036 Y531.384 Z-0.483 F100.000
G1 X7.743 Y531.165 Z-0.515 F100.000
G1 X7.499 Y530.894 Z-0.548 F100.000
G1 X7.312 Y530.580 Z-0.580 F100.000
G1 X7.189 Y530.235 Z-0.612 F100.000
G1 X7.137 Y529.873 Z-0.644 F100.000
G1 X7.156 Y529.508 Z-0.676 F100.000
G1 X7.246 Y529.154 Z-0.709 F100.000
G1 X7.403 Y528.824 Z-0.741 F100.000
G1 X7.622 Y528.531 Z-0.773 F100.000
G1 X7.894 Y528.286 Z-0.805 F100.000
G1 X8.208 Y528.099 Z-0.837 F100.000
G1 X8.553 Y527.977 Z-0.870 F100.000
G1 X8.914 Y527.924 Z-0.902 F100.000
G1 X9.279 Y527.944 Z-0.934 F100.000
G1 X9.634 Y528.033 Z-0.966 F100.000
G1 X9.964 Y528.191 Z-0.998 F100.000
G1 X10.257 Y528.410 Z-1.031 F100.000
G1 X10.501 Y528.681 Z-1.063 F100.000
G1 X10.688 Y528.995 Z-1.095 F100.000
G1 X10.811 Y529.340 Z-1.127 F100.000
G1 X10.863 Y529.702 Z-1.160 F100.000
G1 X10.844 Y530.067 Z-1.192 F100.000
G1 X10.754 Y530.421 Z-1.224 F100.000
G1 X10.597 Y530.751 Z-1.256 F100.000
G1 X10.378 Y531.044 Z-1.288 F100.000
G1 X10.106 Y531.289 Z-1.321 F100.000
G1 X9.792 Y531.476 Z-1.353 F100.000
G1 X9.447 Y531.598 Z-1.385 F100.000
G1 X9.086 Y531.651 Z-1.417 F100.000
G1 X8.721 Y531.631 Z-1.449 F100.000
G1 X8.366 Y531.542 Z-1.482 F100.000
G1 X8.036 Y531.384 Z-1.514 F100.000
G1 X7.743 Y531.165 Z-1.546 F100.000
G1 X7.499 Y530.894 Z-1.578 F100.000
G1 X7.312 Y530.580 Z-1.610 F100.000
G1 X7.189 Y530.235 Z-1.643 F100.000
G1 X7.137 Y529.873 Z-1.675 F100.000
G1 X7.156 Y529.508 Z-1.707 F100.000
G1 X7.246 Y529.154 Z-1.739 F100.000
G1 X7.403 Y528.824 Z-1.772 F100.000
G1 X7.622 Y528.531 Z-1.804 F100.000
G1 X7.894 Y528.286 Z-1.836 F100.000
G1 X8.208 Y528.099 Z-1.868 F100.000
G1 X8.553 Y527.977 Z-1.900 F100.000
G1 X8.914 Y527.924 Z-1.933 F100.000
G1 X9.279 Y527.944 Z-1.965 F100.000
G1 X9.634 Y528.033 Z-1.997 F100.000
G1 X9.964 Y528.191 Z-2.029 F100.000
G1 X10.257 Y528.410 Z-2.061 F100.000
G1 X10.501 Y528.681 Z-2.094 F100.000
G1 X10.688 Y528.995 Z-2.126 F100.000
G1 X10.811 Y529.340 Z-2.158 F100.000
G1 X10.863 Y529.702 Z-2.190 F100.000
G1 X10.844 Y530.067 Z-2.222 F100.000
G1 X10.754 Y530.421 Z-2.255 F100.000
G1 X10.597 Y530.751 Z-2.287 F100.000
G1 X10.378 Y531.044 Z-2.319 F100.000
G1 X10.106 Y531.289 Z-2.351 F100.000
G1 X9.792 Y531.476 Z-2.383 F100.000
G1 X9.447 Y531.598 Z-2.416 F100.000
G1 X9.086 Y531.651 Z-2.448 F100.000
G1 X8.721 Y531.631 Z-2.480 F100.000
G1 X8.366 Y531.542 Z-2.512 F100.000
G1 X8.036 Y531.384 Z-2.545 F100.000
G1 X7.743 Y531.165 Z-2.577 F100.000
G1 X7.499 Y530.894 Z-2.609 F100.000
G1 X7.312 Y530.580 Z-2.641 F100.000
G1 X7.189 Y530.235 Z-2.673 F100.000
G1 X7.137 Y529.873 Z-2.706 F100.000
G1 X7.156 Y529.508 Z-2.738 F100.000
G1 X7.246 Y529.154 Z-2.770 F100.000
G1 X7.403 Y528.824 Z-2.802 F100.000
G1 X7.622 Y528.531 Z-2.834 F100.000
G1 X7.894 Y528.286 Z-2.867 F100.000
G1 X8.208 Y528.099 Z-2.899 F100.000
G1 X8.553 Y527.977 Z-2.931 F100.000
G1 X8.914 Y527.924 Z-2.963 F100.000
G1 X9.279 Y527.944 Z-2.995 F100.000
G1 X9.634 Y528.033 Z-3.028 F100.000
G1 X9.964 Y528.191 Z-3.060 F100.000
G1 X10.257 Y528.410 Z-3.092 F100.000
G1 X10.501 Y528.681 Z-3.124 F100.000
G1 X10.688 Y528.995 Z-3.157 F100.000
G1 X10.811 Y529.340 Z-3.189 F100.000
G1 X10.863 Y529.702 Z-3.221 F100.000
G1 X10.844 Y530.067 Z-3.253 F100.000
G1 X10.754 Y530.421 Z-3.285 F100.000
G1 X10.597 Y530.751 Z-3.318 F100.000
G1 X10.378 Y531.044 Z-3.350 F100.000
G1 X10.106 Y531.289 Z-3.382 F100.000
G1 X9.792 Y531.476 Z-3.414 F100.000
G1 X9.447 Y531.598 Z-3.446 F100.000
G1 X9.086 Y531.651 Z-3.479 F100.000
G1 X8.721 Y531.631 Z-3.511 F100.000
G1 X8.366 Y531.542 Z-3.543 F100.000
G1 X8.036 Y531.384 Z-3.575 F100.000
G1 X7.743 Y531.165 Z-3.607 F100.000
G1 X7.499 Y530.894 Z-3.640 F100.000
G1 X7.312 Y530.580 Z-3.672 F100.000
G1 X7.189 Y530.235 Z-3.704 F100.000
G1 X7.137 Y529.873 Z-3.736 F100.000
G1 X7.156 Y529.508 Z-3.769 F100.000
G1 X7.246 Y529.154 Z-3.801 F100.000
G1 X7.403 Y528.824 Z-3.833 F100.000
G1 X7.622 Y528.531 Z-3.865 F100.000
G1 X7.894 Y528.286 Z-3.897 F100.000
G1 X8.208 Y528.099 Z-3.930 F100.000
G1 X8.553 Y527.977 Z-3.962 F100.000
G1 X8.914 Y527.924 Z-3.994 F100.000
G1 X9.279 Y527.944 Z-4.026 F100.000
G1 X9.634 Y528.033 Z-4.058 F100.000
G1 X9.964 Y528.191 Z-4.091 F100.000
G1 X10.257 Y528.410 Z-4.123 F100.000
G1 X10.501 Y528.681 Z-4.155 F100.000
G1 X10.688 Y528.995 Z-4.187 F100.000
G1 X10.811 Y529.340 Z-4.219 F100.000
G1 X10.863 Y529.702 Z-4.252 F100.000
G1 X10.844 Y530.067 Z-4.284 F100.000
G1 X10.754 Y530.421 Z-4.316 F100.000
G1 X10.597 Y530.751 Z-4.348 F100.000
G1 X10.378 Y531.044 Z-4.380 F100.000
G1 X10.106 Y531.289 Z-4.413 F100.000
G1 X9.792 Y531.476 Z-4.445 F100.000
G1 X9.447 Y531.598 Z-4.477 F100.000
G1 X9.086 Y531.651 Z-4.509 F100.000
G1 X8.721 Y531.631 Z-4.542 F100.000
G1 X8.366 Y531.542 Z-4.574 F100.000
G1 X8.036 Y531.384 Z-4.606 F100.000
G1 X7.743 Y531.165 Z-4.638 F100.000
G1 X7.499 Y530.894 Z-4.670 F100.000
G1 X7.312 Y530.580 Z-4.703 F100.000
G1 X7.189 Y530.235 Z-4.735 F100.000
G1 X7.137 Y529.873 Z-4.767 F100.000
G1 X7.156 Y529.508 Z-4.799 F100.000
G1 X7.246 Y529.154 Z-4.831 F100.000
G1 X7.403 Y528.824 Z-4.864 F100.000
G1 X7.622 Y528.531 Z-4.896 F100.000
G1 X7.894 Y528.286 Z-4.928 F100.000
G1 X8.208 Y528.099 Z-4.960 F100.000
G1 X8.553 Y527.977 Z-4.992 F100.000
G1 X8.914 Y527.924 Z-5.000 F1000.000
G1 X9.279 Y527.944 Z-5.000 F1000.000
G1 X9.634 Y528.033 Z-5.000 F1000.000
G1 X9.964 Y528.191 Z-5.000 F1000.000
G1 X10.257 Y528.410 Z-5.000 F1000.000
G1 X10.501 Y528.681 Z-5.000 F1000.000
G1 X10.688 Y528.995 Z-5.000 F1000.000
G1 X10.811 Y529.340 Z-5.000 F1000.000
G1 X10.863 Y529.702 Z-5.000 F1000.000
G1 X10.844 Y530.067 Z-5.000 F1000.000
G1 X10.754 Y530.421 Z-5.000 F1000.000
G1 X10.597 Y530.751 Z-5.000 F1000.000
G1 X10.378 Y531.044 Z-5.000 F1000.000
G1 X10.106 Y531.289 Z-5.000 F1000.000
G1 X9.792 Y531.476 Z-5.000 F1000.000
G1 X9.447 Y531.598 Z-5.000 F1000.000
G1 X9.086 Y531.651 Z-5.000 F1000.000
G1 X8.721 Y531.631 Z-5.000 F1000.000
G1 X8.366 Y531.542 Z-5.000 F1000.000
G1 X8.036 Y531.384 Z-5.000 F1000.000
G1 X7.743 Y531.165 Z-5.000 F1000.000
G1 X7.499 Y530.894 Z-5.000 F1000.000
G1 X7.312 Y530.580 Z-5.000 F1000.000
G1 X7.189 Y530.235 Z-5.000 F1000.000
G1 X7.137 Y529.873 Z-5.000 F1000.000
G1 X7.156 Y529.508 Z-5.000 F1000.000
G1 X7.246 Y529.154 Z-5.000 F1000.000
G1 X7.403 Y528.824 Z-5.000 F1000.000
G1 X7.622 Y528.531 Z-5.000 F1000.000
G1 X7.894 Y528.286 Z-5.000 F1000.000
G1 X8.208 Y528.099 Z-5.000 F1000.000
G1 X8.553 Y527.977 Z-5.000 F1000.000
(Adaptive - depth: -5.000000)
G1 X9.000 Y527.913 F1000.000
G1 X9.069 Y527.837 F1000.000
G1 X9.175 Y527.669 F1000.000
G1 X9.338 Y527.550 F1000.000
G1 X9.512 Y527.462 F1000.000
G1 X9.700 Y527.406 F1000.000
G1 X10.250 Y527.400 F1000.000
G1 X10.569 Y527.475 F1000.000
G1 X10.794 Y527.569 F1000.000
G1 X11.012 Y527.681 F1000.000
G1 X11.300 Y527.894 F1000.000
G1 X11.562 Y528.175 F1000.000
G1 X11.750 Y528.425 F1000.000
G1 X11.919 Y528.737 F1000.000
G1 X12.050 Y529.056 F1000.000
G1 X12.150 Y529.462 F1000.000
G1 X12.194 Y529.831 F1000.000
G1 X12.194 Y530.206 F1000.000
G1 X12.137 Y530.594 F1000.000
G1 X12.037 Y530.956 F1000.000
G1 X11.887 Y531.312 F1000.000
G1 X11.694 Y531.644 F1000.000
G1 X11.456 Y531.950 F1000.000
G1 X11.181 Y532.225 F1000.000
G1 X10.875 Y532.462 F1000.000
G1 X10.537 Y532.656 F1000.000
G1 X10.181 Y532.806 F1000.000
G1 X9.812 Y532.931 F1000.000
G1 X9.331 Y533.019 F1000.000
G1 X8.919 Y533.050 F1000.000
G1 X8.494 Y533.013 F1000.000
G1 X8.150 Y532.944 F1000.000
G1 X7.775 Y532.819 F1000.000
G1 X7.425 Y532.644 F1000.000
G1 X7.106 Y532.438 F1000.000
G1 X6.794 Y532.206 F1000.000
G1 X6.400 Y531.806 F1000.000
G1 X6.156 Y531.456 F1000.000
G1 X5.994 Y531.156 F1000.000
G1 X5.875 Y530.837 F1000.000
G1 X5.769 Y530.487 F1000.000
G1 X5.706 Y529.987 F1000.000
G1 X5.700 Y529.600 F1000.000
G1 X5.737 Y529.188 F1000.000
G1 X5.831 Y528.763 F1000.000
G1 X5.969 Y528.375 F1000.000
G1 X6.150 Y528.000 F1000.000
G1 X6.394 Y527.656 F1000.000
G1 X6.894 Y527.100 F1000.000
G1 X7.356 Y526.681 F1000.000
G1 X7.875 Y526.337 F1000.000
G1 X8.281 Y526.131 F1000.000
G1 X8.650 Y525.975 F1000.000
G1 X9.131 Y525.844 F1000.000
G1 X9.569 Y525.794 F1000.000
G1 X9.931 Y525.781 F1000.000
G1 X10.356 Y525.831 F1000.000
G1 X10.756 Y525.931 F1000.000
G1 X11.137 Y526.050 F1000.000
G1 X11.606 Y526.275 F1000.000
G1 X11.975 Y526.500 F1000.000
G1 X12.331 Y526.769 F1000.000
G1 X12.662 Y527.094 F1000.000
G1 X12.950 Y527.438 F1000.000
G1 X13.200 Y527.812 F1000.000
G1 X13.412 Y528.219 F1000.000
G1 X13.575 Y528.638 F1000.000
G1 X13.694 Y529.075 F1000.000
G1 X13.762 Y529.525 F1000.000
G1 X13.781 Y529.975 F1000.000
G1 X13.750 Y530.425 F1000.000
G1 X13.694 Y530.875 F1000.000
G1 X13.544 Y531.462 F1000.000
G1 X13.375 Y531.931 F1000.000
G1 X13.131 Y532.381 F1000.000
G1 X12.919 Y532.700 F1000.000
G1 X12.625 Y533.050 F1000.000
G1 X12.312 Y533.362 F1000.000
G1 X11.894 Y533.694 F1000.000
G1 X11.494 Y533.950 F1000.000
G1 X11.062 Y534.169 F1000.000
G1 X10.606 Y534.369 F1000.000
G1 X10.006 Y534.556 F1000.000
G1 X9.488 Y534.644 F1000.000
G1 X9.069 Y534.663 F1000.000
G1 X8.662 Y534.644 F1000.000
G1 X8.219 Y534.600 F1000.000
G1 X7.606 Y534.450 F1000.000
G1 X7.144 Y534.294 F1000.000
G1 X6.669 Y534.094 F1000.000
G1 X6.200 Y533.825 F1000.000
G1 X5.775 Y533.531 F1000.000
G1 X5.394 Y533.169 F1000.000
G1 X5.131 Y532.875 F1000.000
G1 X4.862 Y532.494 F1000.000
G1 X4.625 Y532.106 F1000.000
G1 X4.381 Y531.581 F1000.000
G1 X4.219 Y531.112 F1000.000
G1 X4.094 Y530.625 F1000.000
G1 X4.019 Y530.106 F1000.000
G1 X3.994 Y529.600 F1000.000
G1 X4.019 Y529.094 F1000.000
G1 X4.094 Y528.581 F1000.000
G1 X4.237 Y528.094 F1000.000
G1 X4.381 Y527.719 F1000.000
G1 X4.575 Y527.288 F1000.000
G1 X4.888 Y526.744 F1000.000
G1 X5.250 Y526.231 F1000.000
G1 X5.638 Y525.812 F1000.000
G1 X5.956 Y525.513 F1000.000
G1 X6.362 Y525.169 F1000.000
G1 X6.888 Y524.831 F1000.000
G1 X7.356 Y524.569 F1000.000
G1 X7.881 Y524.331 F1000.000
G1 X8.450 Y524.169 F1000.000
G1 X8.887 Y524.075 F1000.000
G1 X9.412 Y524.013 F1000.000
G1 X9.925 Y524.013 F1000.000
G1 X10.412 Y524.050 F1000.000
G1 X10.912 Y524.144 F1000.000
G1 X11.400 Y524.288 F1000.000
G1 X11.869 Y524.475 F1000.000
G1 X12.331 Y524.681 F1000.000
G1 X12.863 Y525.000 F1000.000
G1 X13.331 Y525.325 F1000.000
G1 X13.775 Y525.725 F1000.000
G1 X14.106 Y526.069 F1000.000
G1 X14.438 Y526.494 F1000.000
G1 X14.850 Y527.200 F1000.000
G1 X15.131 Y527.919 F1000.000
G1 X15.275 Y528.669 F1000.000
G1 X15.363 Y530.544 F1000.000
G1 X15.275 Y531.481 F1000.000
G1 X15.137 Y532.044 F1000.000
G1 X14.637 Y533.013 F1000.000
G1 X14.269 Y533.631 F1000.000
G1 X13.887 Y534.125 F1000.000
G1 X13.463 Y534.581 F1000.000
G1 X13.044 Y534.956 F1000.000
G1 X12.656 Y535.250 F1000.000
G1 X12.156 Y535.550 F1000.000
G1 X11.669 Y535.788 F1000.000
G1 X11.169 Y535.981 F1000.000
G1 X10.644 Y536.156 F1000.000
G1 X10.031 Y536.294 F1000.000
G1 X9.438 Y536.381 F1000.000
G1 X8.812 Y536.394 F1000.000
G1 X8.338 Y536.369 F1000.000
G1 X7.781 Y536.288 F1000.000
G1 X7.244 Y536.188 F1000.000
G1 X6.644 Y536.006 F1000.000
G1 X6.075 Y535.788 F1000.000
G1 X5.519 Y535.494 F1000.000
G1 X5.112 Y535.244 F1000.000
G1 X4.662 Y534.900 F1000.000
G1 X4.263 Y534.525 F1000.000
G1 X3.906 Y534.131 F1000.000
G1 X3.556 Y533.712 F1000.000
G1 X3.112 Y533.013 F1000.000
G1 X2.812 Y532.356 F1000.000
G1 X2.631 Y531.656 F1000.000
G1 X2.650 Y527.456 F1000.000
G1 X2.800 Y526.656 F1000.000
G1 X2.944 Y526.275 F1000.000
G1 X3.456 Y525.406 F1000.000
G1 X3.844 Y524.919 F1000.000
G1 X4.275 Y524.469 F1000.000
G1 X4.731 Y524.044 F1000.000
G1 X5.206 Y523.638 F1000.000
G1 X5.706 Y523.269 F1000.000
G1 X6.688 Y522.756 F1000.000
G1 X7.269 Y522.525 F1000.000
G1 X7.869 Y522.356 F1000.000
G1 X8.444 Y522.225 F1000.000
G1 X9.062 Y522.144 F1000.000
G1 X9.681 Y522.112 F1000.000
G1 X10.294 Y522.131 F1000.000
G1 X10.912 Y522.200 F1000.000
G1 X11.525 Y522.319 F1000.000
G1 X12.113 Y522.513 F1000.000
G1 X12.556 Y522.688 F1000.000
G1 X13.069 Y522.919 F1000.000
G1 X13.600 Y523.244 F1000.000
G1 X14.575 Y523.944 F1000.000
G1 X15.169 Y524.500 F1000.000
G1 X15.275 Y524.656 F1000.000
G1 X15.381 Y524.919 F1000.000
G1 X15.381 Y528.106 F1000.000
G1 X15.381 Y528.106 F1000.000
G1 X15.319 Y528.431 F1000.000
G1 X15.144 Y528.850 F1000.000
G0 X15.113 Y528.956
G0 X15.062 Y530.031
G1 X15.069 Y530.144 F1000.000
G1 X15.075 Y530.487 F1000.000
G1 X15.125 Y530.700 F1000.000
G1 X15.300 Y531.125 F1000.000
G1 X15.381 Y531.575 F1000.000
G1 X15.381 Y531.575 F1000.000
G1 X15.356 Y533.825 F1000.000
G1 X15.219 Y534.481 F1000.000
G1 X15.106 Y534.756 F1000.000
G1 X14.588 Y535.481 F1000.000
G1 X14.131 Y536.044 F1000.000
G1 X13.681 Y536.475 F1000.000
G1 X13.188 Y536.856 F1000.000
G1 X12.744 Y537.138 F1000.000
G1 X11.819 Y537.600 F1000.000
G1 X11.225 Y537.806 F1000.000
G1 X10.656 Y537.962 F1000.000
G1 X10.044 Y538.087 F1000.000
G1 X9.419 Y538.156 F1000.000
G1 X8.794 Y538.181 F1000.000
G1 X8.169 Y538.156 F1000.000
G1 X7.544 Y538.081 F1000.000
G1 X6.925 Y537.962 F1000.000
G1 X6.319 Y537.800 F1000.000
G1 X5.725 Y537.587 F1000.000
G1 X5.150 Y537.331 F1000.000
G1 X4.594 Y537.031 F1000.000
G1 X4.062 Y536.688 F1000.000
G1 X3.562 Y536.306 F1000.000
G1 X2.875 Y535.663 F1000.000
G1 X2.706 Y535.400 F1000.000
G1 X2.619 Y535.212 F1000.000
G1 X2.619 Y533.312 F1000.000
G1 X2.619 Y533.312 F1000.000
G1 X2.663 Y532.969 F1000.000
G1 X2.737 Y532.756 F1000.000
G1 X2.794 Y532.663 F1000.000
G1 X2.862 Y532.587 F1000.000
G0 X2.950 Y532.538
G0 X3.044 Y532.506
G0 X3.362 Y532.494
G0 X14.344 Y533.350
G1 X14.488 Y533.362 F1000.000
G1 X14.844 Y533.406 F1000.000
G1 X14.944 Y533.431 F1000.000
G1 X15.037 Y533.481 F1000.000
G1 X15.119 Y533.550 F1000.000
G1 X15.250 Y533.725 F1000.000
G1 X15.325 Y533.938 F1000.000
G1 X15.381 Y534.275 F1000.000
G1 X15.381 Y534.275 F1000.000
G1 X15.369 Y535.775 F1000.000
G1 X15.231 Y536.525 F1000.000
G1 X15.125 Y536.800 F1000.000
G1 X14.650 Y537.438 F1000.000
G1 X14.169 Y537.981 F1000.000
G1 X13.700 Y538.394 F1000.000
G1 X13.188 Y538.756 F1000.000
G1 X12.738 Y539.019 F1000.000
G1 X11.600 Y539.438 F1000.000
G1 X10.100 Y539.700 F1000.000
G1 X6.800 Y539.663 F1000.000
G1 X5.900 Y539.538 F1000.000
G1 X4.713 Y539.150 F1000.000
G1 X4.150 Y538.881 F1000.000
G1 X3.594 Y538.594 F1000.000
G1 X2.888 Y538.138 F1000.000
G1 X2.744 Y537.987 F1000.000
G1 X2.638 Y537.812 F1000.000
G1 X2.619 Y537.712 F1000.000
G1 X2.619 Y536.612 F1000.000
G1 X2.619 Y536.612 F1000.000
G1 X2.663 Y536.269 F1000.000
G1 X2.737 Y536.056 F1000.000
G1 X2.794 Y535.962 F1000.000
G1 X2.862 Y535.881 F1000.000
G0 X2.950 Y535.825
G0 X3.144 Y535.769
G0 X3.594 Y535.737
G0 X14.344 Y535.456
G1 X14.488 Y535.456 F1000.000
G1 X14.844 Y535.456 F1000.000
G1 X14.944 Y535.475 F1000.000
G1 X15.037 Y535.513 F1000.000
G1 X15.119 Y535.581 F1000.000
G1 X15.250 Y535.750 F1000.000
G1 X15.325 Y535.962 F1000.000
G1 X15.381 Y536.300 F1000.000
G1 X15.381 Y536.300 F1000.000
G1 X15.363 Y537.800 F1000.000
G1 X15.250 Y538.362 F1000.000
G1 X15.150 Y538.644 F1000.000
G1 X14.812 Y539.131 F1000.000
G1 X14.463 Y539.494 F1000.000
G1 X14.200 Y539.644 F1000.000
G1 X14.106 Y539.681 F1000.000
G1 X14.006 Y539.700 F1000.000
G1 X11.006 Y539.700 F1000.000
G1 X11.006 Y539.700 F1000.000
G1 X10.775 Y539.669 F1000.000
G1 X10.569 Y539.606 F1000.000
G1 X10.506 Y539.556 F1000.000
G0 X10.488 Y539.494
G0 X10.500 Y539.425
G0 X10.681 Y539.194
G0 X11.169 Y538.719
G0 X11.262 Y538.650
G0 X11.463 Y538.575
G0 X12.613 Y538.487
G0 X14.556 Y537.875
G1 X14.662 Y537.837 F1000.000
G1 X14.981 Y537.744 F1000.000
G1 X15.081 Y537.737 F1000.000
G1 X15.162 Y537.769 F1000.000
G1 X15.231 Y537.825 F1000.000
G1 X15.281 Y537.900 F1000.000
G1 X15.350 Y538.100 F1000.000
G1 X15.381 Y538.325 F1000.000
G1 X15.381 Y538.325 F1000.000
G1 X15.363 Y539.450 F1000.000
G1 X15.325 Y539.638 F1000.000
G1 X15.250 Y539.700 F1000.000
G1 X15.050 Y539.700 F1000.000
G1 X15.050 Y539.700 F1000.000
G1 X14.819 Y539.669 F1000.000
G1 X14.600 Y539.612 F1000.000
G1 X14.287 Y539.450 F1000.000
G0 X14.188 Y539.394
G0 X12.675 Y538.644
G0 X12.456 Y538.575
G0 X8.881 Y538.538
G0 X8.662 Y538.575
G0 X7.531 Y539.087
G1 X7.425 Y539.144 F1000.000
G1 X7.306 Y539.200 F1000.000
G1 X6.650 Y539.569 F1000.000
G1 X6.438 Y539.644 F1000.000
G1 X6.106 Y539.700 F1000.000
G1 X6.106 Y539.700 F1000.000
G1 X3.406 Y539.688 F1000.000
G1 X2.806 Y539.575 F1000.000
G1 X2.706 Y539.544 F1000.000
G1 X2.625 Y539.475 F1000.000
G1 X2.619 Y539.375 F1000.000
G1 X2.619 Y539.375 F1000.000
G1 X2.631 Y539.312 F1000.000
G1 X2.656 Y539.294 F1000.000
G1 X2.688 Y539.312 F1000.000
G1 X2.825 Y539.506 F1000.000
G1 X2.844 Y539.575 F1000.000
G1 X2.825 Y539.625 F1000.000
G1 X2.731 Y539.688 F1000.000
G1 X2.731 Y539.688 F1000.000
G1 X2.650 Y539.619 F1000.000
G1 X2.650 Y539.619 F1000.000
G1 X2.625 Y539.156 F1000.000
G1 X2.650 Y538.925 F1000.000
G1 X2.681 Y538.819 F1000.000
G0 X2.725 Y538.719
G0 X2.938 Y538.450
G0 X3.606 Y537.781
G0 X3.675 Y537.694
G0 X3.719 Y537.594
G0 X3.769 Y537.375
G0 X3.800 Y533.231
G0 X3.888 Y532.525
G0 X3.750 Y530.194
G0 X3.781 Y529.163
G0 X3.737 Y528.950
G0 X3.581 Y528.663
G0 X3.306 Y528.281
G1 X3.231 Y528.181 F1000.000
G1 X2.794 Y527.562 F1000.000
G1 X2.694 Y527.350 F1000.000
G1 X2.619 Y526.913 F1000.000
G1 X2.619 Y526.913 F1000.000
G1 X2.644 Y524.612 F1000.000
G1 X2.763 Y523.913 F1000.000
G1 X2.919 Y523.538 F1000.000
G1 X3.456 Y522.800 F1000.000
G1 X3.900 Y522.362 F1000.000
G1 X4.381 Y521.962 F1000.000
G1 X4.894 Y521.606 F1000.000
G1 X5.419 Y521.269 F1000.000
G1 X5.969 Y520.975 F1000.000
G1 X7.375 Y520.431 F1000.000
G1 X8.594 Y520.163 F1000.000
G1 X10.375 Y520.044 F1000.000
G1 X11.406 Y520.131 F1000.000
G1 X12.887 Y520.587 F1000.000
G1 X13.238 Y520.737 F1000.000
G1 X13.787 Y521.025 F1000.000
G1 X15.175 Y521.881 F1000.000
G1 X15.344 Y522.112 F1000.000
G1 X15.381 Y522.200 F1000.000
G1 X15.381 Y523.700 F1000.000
G1 X15.381 Y523.700 F1000.000
G1 X15.319 Y524.025 F1000.000
G1 X15.238 Y524.237 F1000.000
G1 X15.181 Y524.325 F1000.000
G1 X15.106 Y524.406 F1000.000
G0 X15.025 Y524.456
G0 X14.825 Y524.513
G0 X14.375 Y524.544
G0 X3.625 Y524.800
G1 X3.469 Y524.806 F1000.000
G1 X3.194 Y524.806 F1000.000
G1 X3.069 Y524.788 F1000.000
G1 X2.962 Y524.750 F1000.000
G1 X2.875 Y524.688 F1000.000
G1 X2.800 Y524.612 F1000.000
G1 X2.700 Y524.425 F1000.000
G1 X2.644 Y524.206 F1000.000
G1 X2.619 Y523.987 F1000.000
G1 X2.619 Y523.987 F1000.000
G1 X2.631 Y522.288 F1000.000
G1 X2.737 Y521.688 F1000.000
G1 X2.881 Y521.306 F1000.000
G1 X3.356 Y520.663 F1000.000
G1 X3.850 Y520.163 F1000.000
G1 X4.194 Y519.969 F1000.000
G1 X4.287 Y519.938 F1000.000
G1 X7.475 Y519.938 F1000.000
G1 X7.475 Y519.938 F1000.000
G1 X7.800 Y519.987 F1000.000
G1 X7.888 Y520.025 F1000.000
G1 X7.944 Y520.069 F1000.000
G0 X7.956 Y520.112
G0 X7.925 Y520.163
G0 X7.575 Y520.362
G0 X4.787 Y521.600
G0 X3.394 Y522.138
G1 X3.275 Y522.188 F1000.000
G1 X3.031 Y522.263 F1000.000
G1 X2.919 Y522.263 F1000.000
G1 X2.819 Y522.219 F1000.000
G1 X2.744 Y522.150 F1000.000
G1 X2.688 Y522.056 F1000.000
G1 X2.619 Y521.737 F1000.000
G1 X2.619 Y521.737 F1000.000
G1 X2.631 Y520.237 F1000.000
G1 X2.656 Y520.038 F1000.000
G1 X2.719 Y519.962 F1000.000
G1 X2.812 Y519.938 F1000.000
G1 X2.812 Y519.938 F1000.000
G1 X3.138 Y519.987 F1000.000
G1 X3.444 Y520.125 F1000.000
G1 X3.544 Y520.181 F1000.000
G0 X3.644 Y520.244
G0 X4.881 Y520.956
G0 X5.100 Y521.038
G0 X8.275 Y521.256
G0 X8.494 Y521.219
G0 X8.700 Y521.125
G0 X9.375 Y520.663
G1 X9.469 Y520.594 F1000.000
G1 X10.125 Y520.138 F1000.000
G1 X10.331 Y520.038 F1000.000
G1 X10.781 Y519.931 F1000.000
G1 X10.781 Y519.931 F1000.000
G1 X14.719 Y519.956 F1000.000
G1 X15.281 Y520.062 F1000.000
G1 X15.356 Y520.119 F1000.000
G1 X15.381 Y520.212 F1000.000
G1 X15.381 Y520.962 F1000.000
G1 X15.381 Y520.962 F1000.000
G1 X15.363 Y520.994 F1000.000
G0 X15.344 Y520.987
G1 X15.319 Y520.931 F1000.000
G1 X15.150 Y520.350 F1000.000
G1 X15.131 Y520.225 F1000.000
G1 X15.131 Y520.119 F1000.000
G1 X15.162 Y520.044 F1000.000
G1 X15.281 Y519.950 F1000.000
G1 X15.281 Y519.950 F1000.000
G1 X15.350 Y520.013 F1000.000
G1 X15.381 Y520.100 F1000.000
G1 X15.381 Y520.100 F1000.000
G1 X15.350 Y520.150 F1000.000
G1 X15.300 Y520.163 F1000.000
G1 X15.238 Y520.138 F1000.000
G1 X15.088 Y520.013 F1000.000
G1 X15.044 Y519.944 F1000.000
G1 X15.044 Y519.894 F1000.000
G1 X15.119 Y519.825 F1000.000
G1 X15.119 Y519.825 F1000.000
G1 X15.262 Y519.831 F1000.000
G1 X15.331 Y519.856 F1000.000
G1 X15.438 Y519.950 F1000.000
G1 X15.494 Y520.075 F1000.000
G1 X15.494 Y539.487 F1000.000
G1 X15.463 Y539.650 F1000.000
G1 X15.369 Y539.756 F1000.000
G1 X15.244 Y539.812 F1000.000
G1 X2.819 Y539.812 F1000.000
G1 X2.669 Y539.781 F1000.000
G1 X2.562 Y539.688 F1000.000
G1 X2.506 Y539.575 F1000.000
G1 X2.506 Y520.119 F1000.000
G1 X2.538 Y519.987 F1000.000
G1 X2.631 Y519.881 F1000.000
G1 X2.744 Y519.825 F1000.000
G1 X15.125 Y519.819 F1000.000
G1 X15.119 Y519.825 F1000.000
G0 Z15.000
(Helix to depth: -5.000000)
G0 X10.257 Y438.410 Z15.000
G0 X10.257 Y438.410 Z3.000
G1 X10.257 Y438.410 Z0.000 F100.000
G1 X10.257 Y438.410 Z0.000 F100.000
G1 X10.501 Y438.681 Z-0.032 F100.000
G1 X10.688 Y438.995 Z-0.064 F100.000
G1 X10.811 Y439.340 Z-0.097 F100.000
G1 X10.863 Y439.702 Z-0.129 F100.000
G1 X10.844 Y440.067 Z-0.161 F100.000
G1 X10.754 Y440.421 Z-0.193 F100.000
G1 X10.597 Y440.751 Z-0.225 F100.000
G1 X10.378 Y441.044 Z-0.258 F100.000
G1 X10.106 Y441.289 Z-0.290 F100.000
G1 X9.792 Y441.476 Z-0.322 F100.000
G1 X9.447 Y441.598 Z-0.354 F100.000
G1 X9.086 Y441.651 Z-0.387 F100.000
G1 X8.721 Y441.631 Z-0.419 F100.000
G1 X8.366 Y441.542 Z-0.451 F100.000
G1 X8.036 Y441.384 Z-0.483 F100.000
G1 X7.743 Y441.165 Z-0.515 F100.000
G1 X7.499 Y440.894 Z-0.548 F100.000
G1 X7.312 Y440.580 Z-0.580 F100.000
G1 X7.189 Y440.235 Z-0.612 F100.000
G1 X7.137 Y439.873 Z-0.644 F100.000
G1 X7.156 Y439.508 Z-0.676 F100.000
G1 X7.246 Y439.154 Z-0.709 F100.000
G1 X7.403 Y438.824 Z-0.741 F100.000
G1 X7.622 Y438.531 Z-0.773 F100.000
G1 X7.894 Y438.286 Z-0.805 F100.000
G1 X8.208 Y438.099 Z-0.837 F100.000
G1 X8.553 Y437.977 Z-0.870 F100.000
G1 X8.914 Y437.924 Z-0.902 F100.000
G1 X9.279 Y437.944 Z-0.934 F100.000
G1 X9.634 Y438.033 Z-0.966 F100.000
G1 X9.964 Y438.191 Z-0.998 F100.000
G1 X10.257 Y438.410 Z-1.031 F100.000
G1 X10.501 Y438.681 Z-1.063 F100.000
G1 X10.688 Y438.995 Z-1.095 F100.000
G1 X10.811 Y439.340 Z-1.127 F100.000
G1 X10.863 Y439.702 Z-1.160 F100.000
G1 X10.844 Y440.067 Z-1.192 F100.000
G1 X10.754 Y440.421 Z-1.224 F100.000
G1 X10.597 Y440.751 Z-1.256 F100.000
G1 X10.378 Y441.044 Z-1.288 F100.000
G1 X10.106 Y441.289 Z-1.321 F100.000
G1 X9.792 Y441.476 Z-1.353 F100.000
G1 X9.447 Y441.598 Z-1.385 F100.000
G1 X9.086 Y441.651 Z-1.417 F100.000
G1 X8.721 Y441.631 Z-1.449 F100.000
G1 X8.366 Y441.542 Z-1.482 F100.000
G1 X8.036 Y441.384 Z-1.514 F100.000
G1 X7.743 Y441.165 Z-1.546 F100.000
G1 X7.499 Y440.894 Z-1.578 F100.000
G1 X7.312 Y440.580 Z-1.610 F100.000
G1 X7.189 Y440.235 Z-1.643 F100.000
G1 X7.137 Y439.873 Z-1.675 F100.000
G1 X7.156 Y439.508 Z-1.707 F100.000
G1 X7.246 Y439.154 Z-1.739 F100.000
G1 X7.403 Y438.824 Z-1.772 F100.000
G1 X7.622 Y438.531 Z-1.804 F100.000
G1 X7.894 Y438.286 Z-1.836 F100.000
G1 X8.208 Y438.099 Z-1.868 F100.000
G1 X8.553 Y437.977 Z-1.900 F100.000
G1 X8.914 Y437.924 Z-1.933 F100.000
G1 X9.279 Y437.944 Z-1.965 F100.000
G1 X9.634 Y438.033 Z-1.997 F100.000
G1 X9.964 Y438.191 Z-2.029 F100.000
G1 X10.257 Y438.410 Z-2.061 F100.000
G1 X10.501 Y438.681 Z-2.094 F100.000
G1 X10.688 Y438.995 Z-2.126 F100.000
G1 X10.811 Y439.340 Z-2.158 F100.000
G1 X10.863 Y439.702 Z-2.190 F100.000
G1 X10.844 Y440.067 Z-2.222 F100.000
G1 X10.754 Y440.421 Z-2.255 F100.000
G1 X10.597 Y440.751 Z-2.287 F100.000
G1 X10.378 Y441.044 Z-2.319 F100.000
G1 X10.106 Y441.289 Z-2.351 F100.000
G1 X9.792 Y441.476 Z-2.383 F100.000
G1 X9.447 Y441.598 Z-2.416 F100.000
G1 X9.086 Y441.651 Z-2.448 F100.000
G1 X8.721 Y441.631 Z-2.480 F100.000
G1 X8.366 Y441.542 Z-2.512 F100.000
G1 X8.036 Y441.384 Z-2.545 F100.000
G1 X7.743 Y441.165 Z-2.577 F100.000
G1 X7.499 Y440.894 Z-2.609 F100.000
G1 X7.312 Y440.580 Z-2.641 F100.000
G1 X7.189 Y440.235 Z-2.673 F100.000
G1 X7.137 Y439.873 Z-2.706 F100.000
G1 X7.156 Y439.508 Z-2.738 F100.000
G1 X7.246 Y439.154 Z-2.770 F100.000
G1 X7.403 Y438.824 Z-2.802 F100.000
G1 X7.622 Y438.531 Z-2.834 F100.000
G1 X7.894 Y438.286 Z-2.867 F100.000
G1 X8.208 Y438.099 Z-2.899 F100.000
G1 X8.553 Y437.977 Z-2.931 F100.000
G1 X8.914 Y437.924 Z-2.963 F100.000
G1 X9.279 Y437.944 Z-2.995 F100.000
G1 X9.634 Y438.033 Z-3.028 F100.000
G1 X9.964 Y438.191 Z-3.060 F100.000
G1 X10.257 Y438.410 Z-3.092 F100.000
G1 X10.501 Y438.681 Z-3.124 F100.000
G1 X10.688 Y438.995 Z-3.157 F100.000
G1 X10.811 Y439.340 Z-3.189 F100.000
G1 X10.863 Y439.702 Z-3.221 F100.000
G1 X10.844 Y440.067 Z-3.253 F100.000
G1 X10.754 Y440.421 Z-3.285 F100.000
G1 X10.597 Y440.751 Z-3.318 F100.000
G1 X10.378 Y441.044 Z-3.350 F100.000
G1 X10.106 Y441.289 Z-3.382 F100.000
G1 X9.792 Y441.476 Z-3.414 F100.000
G1 X9.447 Y441.598 Z-3.446 F100.000
G1 X9.086 Y441.651 Z-3.479 F100.000
G1 X8.721 Y441.631 Z-3.511 F100.000
G1 X8.366 Y441.542 Z-3.543 F100.000
G1 X8.036 Y441.384 Z-3.575 F100.000
G1 X7.743 Y441.165 Z-3.607 F100.000
G1 X7.499 Y440.894 Z-3.640 F100.000
G1 X7.312 Y440.580 Z-3.672 F100.000
G1 X7.189 Y440.235 Z-3.704 F100.000
G1 X7.137 Y439.873 Z-3.736 F100.000
G1 X7.156 Y439.508 Z-3.769 F100.000
G1 X7.246 Y439.154 Z-3.801 F100.000
G1 X7.403 Y438.824 Z-3.833 F100.000
G1 X7.622 Y438.531 Z-3.865 F100.000
G1 X7.894 Y438.286 Z-3.897 F100.000
G1 X8.208 Y438.099 Z-3.930 F100.000
G1 X8.553 Y437.977 Z-3.962 F100.000
G1 X8.914 Y437.924 Z-3.994 F100.000
G1 X9.279 Y437.944 Z-4.026 F100.000
G1 X9.634 Y438.033 Z-4.058 F100.000
G1 X9.964 Y438.191 Z-4.091 F100.000
G1 X10.257 Y438.410 Z-4.123 F100.000
G1 X10.501 Y438.681 Z-4.155 F100.000
G1 X10.688 Y438.995 Z-4.187 F100.000
G1 X10.811 Y439.340 Z-4.219 F100.000
G1 X10.863 Y439.702 Z-4.252 F100.000
G1 X10.844 Y440.067 Z-4.284 F100.000
G1 X10.754 Y440.421 Z-4.316 F100.000
G1 X10.597 Y440.751 Z-4.348 F100.000
G1 X10.378 Y441.044 Z-4.380 F100.000
G1 X10.106 Y441.289 Z-4.413 F100.000
G1 X9.792 Y441.476 Z-4.445 F100.000
G1 X9.447 Y441.598 Z-4.477 F100.000
G1 X9.086 Y441.651 Z-4.509 F100.000
G1 X8.721 Y441.631 Z-4.542 F100.000
G1 X8.366 Y441.542 Z-4.574 F100.000
G1 X8.036 Y441.384 Z-4.606 F100.000
G1 X7.743 Y441.165 Z-4.638 F100.000
G1 X7.499 Y440.894 Z-4.670 F100.000
G1 X7.312 Y440.580 Z-4.703 F100.000
G1 X7.189 Y440.235 Z-4.735 F100.000
G1 X7.137 Y439.873 Z-4.767 F100.000
G1 X7.156 Y439.508 Z-4.799 F100.000
G1 X7.246 Y439.154 Z-4.831 F100.000
G1 X7.403 Y438.824 Z-4.864 F100.000
G1 X7.622 Y438.531 Z-4.896 F100.000
G1 X7.894 Y438.286 Z-4.928 F100.000
G1 X8.208 Y438.099 Z-4.960 F100.000
G1 X8.553 Y437.977 Z-4.992 F100.000
G1 X8.914 Y437.924 Z-5.000 F1000.000
G1 X9.279 Y437.944 Z-5.000 F1000.000
G1 X9.634 Y438.033 Z-5.000 F1000.000
G1 X9.964 Y438.191 Z-5.000 F1000.000
G1 X10.257 Y438.410 Z-5.000 F1000.000
G1 X10.501 Y438.681 Z-5.000 F1000.000
G1 X10.688 Y438.995 Z-5.000 F1000.000
G1 X10.811 Y439.340 Z-5.000 F1000.000
G1 X10.863 Y439.702 Z-5.000 F1000.000
G1 X10.844 Y440.067 Z-5.000 F1000.000
G1 X10.754 Y440.421 Z-5.000 F1000.000
G1 X10.597 Y440.751 Z-5.000 F1000.000
G1 X10.378 Y441.044 Z-5.000 F1000.000
G1 X10.106 Y441.289 Z-5.000 F1000.000
G1 X9.792 Y441.476 Z-5.000 F1000.000
G1 X9.447 Y441.598 Z-5.000 F1000.000
G1 X9.086 Y441.651 Z-5.000 F1000.000
G1 X8.721 Y441.631 Z-5.000 F1000.000
G1 X8.366 Y441.542 Z-5.000 F1000.000
G1 X8.036 Y441.384 Z-5.000 F1000.000
G1 X7.743 Y441.165 Z-5.000 F1000.000
G1 X7.499 Y440.894 Z-5.000 F1000.000
G1 X7.312 Y440.580 Z-5.000 F1000.000
G1 X7.189 Y440.235 Z-5.000 F1000.000
G1 X7.137 Y439.873 Z-5.000 F1000.000
G1 X7.156 Y439.508 Z-5.000 F1000.000
G1 X7.246 Y439.154 Z-5.000 F1000.000
G1 X7.403 Y438.824 Z-5.000 F1000.000
G1 X7.622 Y438.531 Z-5.000 F1000.000
G1 X7.894 Y438.286 Z-5.000 F1000.000
G1 X8.208 Y438.099 Z-5.000 F1000.000
G1 X8.553 Y437.977 Z-5.000 F1000.000
(Adaptive - depth: -5.000000)
G1 X9.000 Y437.913 F1000.000
G1 X9.069 Y437.837 F1000.000
G1 X9.175 Y437.669 F1000.000
G1 X9.338 Y437.550 F1000.000
G1 X9.512 Y437.462 F1000.000
G1 X9.700 Y437.406 F1000.000
G1 X10.250 Y437.400 F1000.000
G1 X10.569 Y437.475 F1000.000
G1 X10.794 Y437.569 F1000.000
G1 X11.012 Y437.681 F1000.000
G1 X11.300 Y437.894 F1000.000
G1 X11.562 Y438.175 F1000.000
G1 X11.750 Y438.425 F1000.000
G1 X11.919 Y438.738 F1000.000
G1 X12.050 Y439.056 F1000.000
G1 X12.150 Y439.462 F1000.000
G1 X12.194 Y439.831 F1000.000
G1 X12.194 Y440.206 F1000.000
G1 X12.137 Y440.594 F1000.000
G1 X12.037 Y440.956 F1000.000
G1 X11.887 Y441.312 F1000.000
G1 X11.694 Y441.644 F1000.000
G1 X11.456 Y441.950 F1000.000
G1 X11.181 Y442.225 F1000.000
G1 X10.875 Y442.462 F1000.000
G1 X10.537 Y442.656 F1000.000
G1 X10.181 Y442.806 F1000.000
G1 X9.812 Y442.931 F1000.000
G1 X9.331 Y443.019 F1000.000
G1 X8.919 Y443.050 F1000.000
G1 X8.494 Y443.012 F1000.000
G1 X8.150 Y442.944 F1000.000
G1 X7.775 Y442.819 F1000.000
G1 X7.425 Y442.644 F1000.000
G1 X7.106 Y442.438 F1000.000
G1 X6.794 Y442.206 F1000.000
G1 X6.400 Y441.806 F1000.000
G1 X6.156 Y441.456 F1000.000
G1 X5.994 Y441.156 F1000.000
G1 X5.875 Y440.837 F1000.000
G1 X5.769 Y440.488 F1000.000
G1 X5.706 Y439.988 F1000.000
G1 X5.700 Y439.600 F1000.000
G1 X5.737 Y439.188 F1000.000
G1 X5.831 Y438.762 F1000.000
G1 X5.969 Y438.375 F1000.000
G1 X6.150 Y438.000 F1000.000
G1 X6.394 Y437.656 F1000.000
G1 X6.894 Y437.100 F1000.000
G1 X7.356 Y436.681 F1000.000
G1 X7.875 Y436.337 F1000.000
G1 X8.281 Y436.131 F1000.000
G1 X8.650 Y435.975 F1000.000
G1 X9.131 Y435.844 F1000.000
G1 X9.569 Y435.794 F1000.000
G1 X9.931 Y435.781 F1000.000
G1 X10.356 Y435.831 F1000.000
G1 X10.756 Y435.931 F1000.000
G1 X11.137 Y436.050 F1000.000
G1 X11.606 Y436.275 F1000.000
G1 X11.975 Y436.500 F1000.000
G1 X12.331 Y436.769 F1000.000
G1 X12.662 Y437.094 F1000.000
G1 X12.950 Y437.438 F1000.000
G1 X13.200 Y437.812 F1000.000
G1 X13.412 Y438.219 F1000.000
G1 X13.575 Y438.637 F1000.000
G1 X13.694 Y439.075 F1000.000
G1 X13.762 Y439.525 F1000.000
G1 X13.781 Y439.975 F1000.000
G1 X13.750 Y440.425 F1000.000
G1 X13.694 Y440.875 F1000.000
G1 X13.544 Y441.462 F1000.000
G1 X13.375 Y441.931 F1000.000
G1 X13.131 Y442.381 F1000.000
G1 X12.919 Y442.700 F1000.000
G1 X12.625 Y443.050 F1000.000
G1 X12.312 Y443.363 F1000.000
G1 X11.894 Y443.694 F1000.000
G1 X11.494 Y443.950 F1000.000
G1 X11.062 Y444.169 F1000.000
G1 X10.606 Y444.369 F1000.000
G1 X10.006 Y444.556 F1000.000
G1 X9.488 Y444.644 F1000.000
G1 X9.069 Y444.663 F1000.000
G1 X8.662 Y444.644 F1000.000
G1 X8.219 Y444.600 F1000.000
G1 X7.606 Y444.450 F1000.000
G1 X7.144 Y444.294 F1000.000
G1 X6.669 Y444.094 F1000.000
G1 X6.200 Y443.825 F1000.000
G1 X5.775 Y443.531 F1000.000
G1 X5.394 Y443.169 F1000.000
G1 X5.131 Y442.875 F1000.000
G1 X4.862 Y442.494 F1000.000
G1 X4.625 Y442.106 F1000.000
G1 X4.381 Y441.581 F1000.000
G1 X4.219 Y441.113 F1000.000
G1 X4.094 Y440.625 F1000.000
G1 X4.019 Y440.106 F1000.000
G1 X3.994 Y439.600 F1000.000
G1 X4.019 Y439.094 F1000.000
G1 X4.094 Y438.581 F1000.000
G1 X4.237 Y438.094 F1000.000
G1 X4.381 Y437.719 F1000.000
G1 X4.575 Y437.288 F1000.000
G1 X4.888 Y436.744 F1000.000
G1 X5.250 Y436.231 F1000.000
G1 X5.638 Y435.812 F1000.000
G1 X5.956 Y435.512 F1000.000
G1 X6.362 Y435.169 F1000.000
G1 X6.888 Y434.831 F1000.000
G1 X7.356 Y434.569 F1000.000
G1 X7.881 Y434.331 F1000.000
G1 X8.450 Y434.169 F1000.000
G1 X8.887 Y434.075 F1000.000
G1 X9.412 Y434.012 F1000.000
G1 X9.925 Y434.012 F1000.000
G1 X10.412 Y434.050 F1000.000
G1 X10.912 Y434.144 F1000.000
G1 X11.400 Y434.288 F1000.000
G1 X11.869 Y434.475 F1000.000
G1 X12.331 Y434.681 F1000.000
G1 X12.863 Y435.000 F1000.000
G1 X13.331 Y435.325 F1000.000
G1 X13.775 Y435.725 F1000.000
G1 X14.106 Y436.069 F1000.000
G1 X14.438 Y436.494 F1000.000
G1 X14.850 Y437.200 F1000.000
G1 X15.131 Y437.919 F1000.000
G1 X15.275 Y438.669 F1000.000
G1 X15.363 Y440.544 F1000.000
G1 X15.275 Y441.481 F1000.000
G1 X15.137 Y442.044 F1000.000
G1 X14.637 Y443.012 F1000.000
G1 X14.269 Y443.631 F1000.000
G1 X13.887 Y444.125 F1000.000
G1 X13.463 Y444.581 F1000.000
G1 X13.044 Y444.956 F1000.000
G1 X12.656 Y445.250 F1000.000
G1 X12.156 Y445.550 F1000.000
G1 X11.669 Y445.788 F1000.000
G1 X11.169 Y445.981 F1000.000
G1 X10.644 Y446.156 F1000.000
G1 X10.031 Y446.294 F1000.000
G1 X9.438 Y446.381 F1000.000
G1 X8.812 Y446.394 F1000.000
G1 X8.338 Y446.369 F1000.000
G1 X7.781 Y446.288 F1000.000
G1 X7.244 Y446.188 F1000.000
G1 X6.644 Y446.006 F1000.000
G1 X6.075 Y445.788 F1000.000
G1 X5.519 Y445.494 F1000.000
G1 X5.112 Y445.244 F1000.000
G1 X4.662 Y444.900 F1000.000
G1 X4.263 Y444.525 F1000.000
G1 X3.906 Y444.131 F1000.000
G1 X3.556 Y443.712 F1000.000
G1 X3.112 Y443.012 F1000.000
G1 X2.812 Y442.356 F1000.000
G1 X2.631 Y441.656 F1000.000
G1 X2.650 Y437.456 F1000.000
G1 X2.800 Y436.656 F1000.000
G1 X2.944 Y436.275 F1000.000
G1 X3.456 Y435.406 F1000.000
G1 X3.844 Y434.919 F1000.000
G1 X4.275 Y434.469 F1000.000
G1 X4.731 Y434.044 F1000.000
G1 X5.206 Y433.637 F1000.000
G1 X5.706 Y433.269 F1000.000
G1 X6.688 Y432.756 F1000.000
G1 X7.269 Y432.525 F1000.000
G1 X7.869 Y432.356 F1000.000
G1 X8.444 Y432.225 F1000.000
G1 X9.062 Y432.144 F1000.000
G1 X9.681 Y432.113 F1000.000
G1 X10.294 Y432.131 F1000.000
G1 X10.912 Y432.200 F1000.000
G1 X11.525 Y432.319 F1000.000
G1 X12.113 Y432.512 F1000.000
G1 X12.556 Y432.688 F1000.000
G1 X13.069 Y432.919 F1000.000
G1 X13.600 Y433.244 F1000.000
G1 X14.575 Y433.944 F1000.000
G1 X15.169 Y434.500 F1000.000
G1 X15.275 Y434.656 F1000.000
G1 X15.381 Y434.919 F1000.000
G1 X15.381 Y438.106 F1000.000
G1 X15.381 Y438.106 F1000.000
G1 X15.319 Y438.431 F1000.000
G1 X15.144 Y438.850 F1000.000
G0 X15.113 Y438.956
G0 X15.062 Y440.031
G1 X15.069 Y440.144 F1000.000
G1 X15.075 Y440.488 F1000.000
G1 X15.125 Y440.700 F1000.000
G1 X15.300 Y441.125 F1000.000
G1 X15.381 Y441.575 F1000.000
G1 X15.381 Y441.575 F1000.000
G1 X15.350 Y443.825 F1000.000
G1 X15.213 Y444.481 F1000.000
G1 X15.100 Y444.756 F1000.000
G1 X14.200 Y445.981 F1000.000
G1 X13.756 Y446.419 F1000.000
G1 X13.262 Y446.800 F1000.000
G1 X12.881 Y447.050 F1000.000
G1 X12.463 Y447.294 F1000.000
G1 X11.906 Y447.575 F1000.000
G1 X11.319 Y447.800 F1000.000
G1 X10.725 Y447.994 F1000.000
G1 X10.113 Y448.113 F1000.000
G1 X9.588 Y448.181 F1000.000
G1 X8.981 Y448.212 F1000.000
G1 X8.381 Y448.212 F1000.000
G1 X7.756 Y448.156 F1000.000
G1 X7.138 Y448.056 F1000.000
G1 X6.525 Y447.919 F1000.000
G1 X5.925 Y447.731 F1000.000
G1 X5.338 Y447.500 F1000.000
G1 X4.769 Y447.231 F1000.000
G1 X4.225 Y446.919 F1000.000
G1 X3.719 Y446.544 F1000.000
G1 X3.094 Y445.988 F1000.000
G1 X2.819 Y445.675 F1000.000
G1 X2.625 Y445.306 F1000.000
G1 X2.619 Y443.306 F1000.000
G1 X2.619 Y443.306 F1000.000
G1 X2.663 Y442.962 F1000.000
G1 X2.737 Y442.750 F1000.000
G1 X2.794 Y442.656 F1000.000
G1 X2.862 Y442.581 F1000.000
G0 X2.950 Y442.531
G0 X3.044 Y442.500
G0 X3.362 Y442.488
G0 X14.344 Y443.350
G1 X14.488 Y443.363 F1000.000
G1 X14.844 Y443.406 F1000.000
G1 X14.944 Y443.431 F1000.000
G1 X15.037 Y443.481 F1000.000
G1 X15.119 Y443.550 F1000.000
G1 X15.250 Y443.725 F1000.000
G1 X15.325 Y443.938 F1000.000
G1 X15.381 Y444.275 F1000.000
G1 X15.381 Y444.275 F1000.000
G1 X15.363 Y445.869 F1000.000
G1 X15.250 Y446.431 F1000.000
G1 X15.106 Y446.794 F1000.000
G1 X14.581 Y447.506 F1000.000
G1 X14.181 Y447.988 F1000.000
G1 X13.713 Y448.400 F1000.000
G1 X13.244 Y448.738 F1000.000
G1 X12.831 Y448.994 F1000.000
G1 X11.706 Y449.438 F1000.000
G1 X10.306 Y449.694 F1000.000
G1 X6.706 Y449.669 F1000.000
G1 X5.706 Y449.538 F1000.000
G1 X4.425 Y449.100 F1000.000
G1 X3.956 Y448.881 F1000.000
G1 X3.406 Y448.581 F1000.000
G1 X2.888 Y448.225 F1000.000
G1 X2.806 Y448.156 F1000.000
G1 X2.631 Y447.900 F1000.000
G1 X2.619 Y447.100 F1000.000
G1 X2.619 Y447.100 F1000.000
G1 X2.663 Y446.756 F1000.000
G1 X2.737 Y446.544 F1000.000
G1 X2.794 Y446.450 F1000.000
G1 X2.862 Y446.369 F1000.000
G0 X2.950 Y446.312
G0 X3.144 Y446.244
G0 X3.594 Y446.200
G0 X14.344 Y445.481
G1 X14.488 Y445.475 F1000.000
G1 X14.844 Y445.462 F1000.000
G1 X14.944 Y445.481 F1000.000
G1 X15.037 Y445.519 F1000.000
G1 X15.119 Y445.581 F1000.000
G1 X15.250 Y445.750 F1000.000
G1 X15.325 Y445.962 F1000.000
G1 X15.381 Y446.300 F1000.000
G1 X15.381 Y446.300 F1000.000
G1 X15.363 Y447.800 F1000.000
G1 X15.231 Y448.456 F1000.000
G1 X15.125 Y448.731 F1000.000
G1 X14.900 Y449.062 F1000.000
G1 X14.569 Y449.438 F1000.000
G1 X14.406 Y449.562 F1000.000
G1 X14.131 Y449.694 F1000.000
G1 X11.231 Y449.700 F1000.000
G1 X11.231 Y449.700 F1000.000
G1 X11.000 Y449.669 F1000.000
G1 X10.794 Y449.606 F1000.000
G1 X10.731 Y449.556 F1000.000
G0 X10.713 Y449.494
G0 X10.731 Y449.419
G0 X10.912 Y449.169
G0 X11.331 Y448.738
G0 X11.419 Y448.669
G0 X11.519 Y448.619
G0 X11.725 Y448.562
G0 X12.731 Y448.494
G0 X14.562 Y447.887
G1 X14.669 Y447.850 F1000.000
G1 X14.988 Y447.750 F1000.000
G1 X15.081 Y447.744 F1000.000
G1 X15.162 Y447.769 F1000.000
G1 X15.231 Y447.825 F1000.000
G1 X15.281 Y447.900 F1000.000
G1 X15.350 Y448.100 F1000.000
G1 X15.381 Y448.325 F1000.000
G1 X15.381 Y448.325 F1000.000
G1 X15.375 Y449.356 F1000.000
G1 X15.331 Y449.637 F1000.000
G1 X15.250 Y449.700 F1000.000
G1 X15.050 Y449.700 F1000.000
G1 X15.050 Y449.700 F1000.000
G1 X14.819 Y449.669 F1000.000
G1 X14.600 Y449.613 F1000.000
G1 X14.287 Y449.450 F1000.000
G0 X14.188 Y449.394
G0 X12.619 Y448.644
G0 X12.400 Y448.575
G0 X8.725 Y448.538
G0 X8.500 Y448.575
G0 X7.319 Y449.094
G1 X7.206 Y449.150 F1000.000
G1 X7.088 Y449.206 F1000.000
G1 X6.425 Y449.569 F1000.000
G1 X6.213 Y449.644 F1000.000
G1 X5.881 Y449.700 F1000.000
G1 X5.881 Y449.700 F1000.000
G1 X3.381 Y449.688 F1000.000
G1 X2.781 Y449.575 F1000.000
G1 X2.688 Y449.525 F1000.000
G1 X2.625 Y449.438 F1000.000
G1 X2.619 Y449.337 F1000.000
G1 X2.619 Y449.337 F1000.000
G1 X2.631 Y449.281 F1000.000
G1 X2.656 Y449.262 F1000.000
G1 X2.737 Y449.344 F1000.000
G1 X2.825 Y449.500 F1000.000
G1 X2.844 Y449.569 F1000.000
G1 X2.825 Y449.619 F1000.000
G1 X2.731 Y449.688 F1000.000
G1 X2.731 Y449.688 F1000.000
G1 X2.650 Y449.619 F1000.000
G1 X2.650 Y449.619 F1000.000
G1 X2.625 Y449.156 F1000.000
G1 X2.650 Y448.925 F1000.000
G1 X2.681 Y448.819 F1000.000
G0 X2.725 Y448.712
G0 X2.925 Y448.444
G0 X3.569 Y447.769
G0 X3.688 Y447.581
G0 X3.775 Y447.250
G0 X3.894 Y446.100
G0 X3.800 Y443.356
G0 X3.888 Y442.525
G0 X3.750 Y440.194
G0 X3.781 Y439.163
G0 X3.737 Y438.950
G0 X3.581 Y438.663
G0 X3.306 Y438.281
G1 X3.231 Y438.181 F1000.000
G1 X2.794 Y437.562 F1000.000
G1 X2.694 Y437.350 F1000.000
G1 X2.619 Y436.913 F1000.000
G1 X2.619 Y436.913 F1000.000
G1 X2.644 Y434.613 F1000.000
G1 X2.763 Y433.913 F1000.000
G1 X2.862 Y433.625 F1000.000
G1 X3.456 Y432.794 F1000.000
G1 X3.906 Y432.356 F1000.000
G1 X4.388 Y431.962 F1000.000
G1 X4.900 Y431.606 F1000.000
G1 X5.425 Y431.275 F1000.000
G1 X5.981 Y430.988 F1000.000
G1 X6.556 Y430.744 F1000.000
G1 X7.987 Y430.300 F1000.000
G1 X9.863 Y430.069 F1000.000
G1 X11.269 Y430.156 F1000.000
G1 X12.844 Y430.613 F1000.000
G1 X13.194 Y430.756 F1000.000
G1 X13.750 Y431.038 F1000.000
G1 X14.294 Y431.337 F1000.000
G1 X15.137 Y431.894 F1000.000
G1 X15.206 Y431.956 F1000.000
G1 X15.363 Y432.194 F1000.000
G1 X15.381 Y432.288 F1000.000
G1 X15.381 Y433.788 F1000.000
G1 X15.381 Y433.788 F1000.000
G1 X15.319 Y434.113 F1000.000
G1 X15.238 Y434.325 F1000.000
G1 X15.181 Y434.413 F1000.000
G1 X15.106 Y434.488 F1000.000
G0 X15.025 Y434.544
G0 X14.825 Y434.600
G0 X14.375 Y434.625
G0 X3.625 Y434.806
G1 X3.469 Y434.812 F1000.000
G1 X3.194 Y434.806 F1000.000
G1 X3.069 Y434.788 F1000.000
G1 X2.962 Y434.750 F1000.000
G1 X2.875 Y434.688 F1000.000
G1 X2.800 Y434.613 F1000.000
G1 X2.700 Y434.425 F1000.000
G1 X2.644 Y434.206 F1000.000
G1 X2.619 Y433.988 F1000.000
G1 X2.619 Y433.988 F1000.000
G1 X2.638 Y432.288 F1000.000
G1 X2.744 Y431.688 F1000.000
G1 X2.888 Y431.306 F1000.000
G1 X3.250 Y430.819 F1000.000
G1 X3.875 Y430.169 F1000.000
G1 X4.037 Y430.056 F1000.000
G1 X4.306 Y429.938 F1000.000
G1 X7.681 Y429.938 F1000.000
G1 X7.681 Y429.938 F1000.000
G1 X8.006 Y429.994 F1000.000
G1 X8.094 Y430.025 F1000.000
G1 X8.156 Y430.075 F1000.000
G0 X8.175 Y430.131
G0 X8.150 Y430.194
G0 X7.300 Y430.931
G0 X7.094 Y431.044
G0 X5.594 Y431.350
G0 X3.400 Y432.144
G1 X3.281 Y432.194 F1000.000
G1 X3.031 Y432.262 F1000.000
G1 X2.919 Y432.262 F1000.000
G1 X2.819 Y432.225 F1000.000
G1 X2.744 Y432.150 F1000.000
G1 X2.688 Y432.056 F1000.000
G1 X2.619 Y431.738 F1000.000
G1 X2.619 Y431.738 F1000.000
G1 X2.631 Y430.238 F1000.000
G1 X2.656 Y430.038 F1000.000
G1 X2.719 Y429.962 F1000.000
G1 X2.812 Y429.938 F1000.000
G1 X2.812 Y429.938 F1000.000
G1 X3.138 Y429.988 F1000.000
G1 X3.444 Y430.125 F1000.000
G1 X3.544 Y430.181 F1000.000
G0 X3.638 Y430.244
G0 X4.831 Y430.956
G0 X5.044 Y431.038
G0 X8.106 Y431.250
G0 X8.325 Y431.219
G0 X8.525 Y431.125
G0 X9.162 Y430.663
G1 X9.256 Y430.600 F1000.000
G1 X9.900 Y430.137 F1000.000
G1 X10.106 Y430.038 F1000.000
G1 X10.556 Y429.931 F1000.000
G1 X10.556 Y429.931 F1000.000
G1 X14.681 Y429.962 F1000.000
G1 X15.244 Y430.069 F1000.000
G1 X15.325 Y430.119 F1000.000
G1 X15.375 Y430.200 F1000.000
G1 X15.381 Y430.950 F1000.000
G1 X15.381 Y430.950 F1000.000
G1 X15.363 Y431.000 F1000.000
G0 X15.338 Y431.006
G0 X15.306 Y430.975
G1 X15.262 Y430.900 F1000.000
G1 X14.994 Y430.331 F1000.000
G1 X14.950 Y430.212 F1000.000
G1 X14.931 Y430.113 F1000.000
G1 X14.950 Y430.038 F1000.000
G1 X15.056 Y429.931 F1000.000
G1 X15.056 Y429.931 F1000.000
G1 X15.244 Y429.944 F1000.000
G1 X15.325 Y429.994 F1000.000
G1 X15.375 Y430.075 F1000.000
G1 X15.375 Y430.075 F1000.000
G1 X15.369 Y430.113 F1000.000
G1 X15.338 Y430.119 F1000.000
G1 X15.194 Y430.044 F1000.000
G1 X15.062 Y429.925 F1000.000
G1 X15.050 Y429.881 F1000.000
G1 X15.119 Y429.825 F1000.000
G1 X15.119 Y429.825 F1000.000
G1 X15.262 Y429.831 F1000.000
G1 X15.331 Y429.856 F1000.000
G1 X15.438 Y429.950 F1000.000
G1 X15.494 Y430.075 F1000.000
G1 X15.494 Y449.488 F1000.000
G1 X15.463 Y449.650 F1000.000
G1 X15.369 Y449.756 F1000.000
G1 X15.244 Y449.812 F1000.000
G1 X2.819 Y449.812 F1000.000
G1 X2.669 Y449.781 F1000.000
G1 X2.562 Y449.688 F1000.000
G1 X2.506 Y449.575 F1000.000
G1 X2.506 Y430.119 F1000.000
G1 X2.538 Y429.988 F1000.000
G1 X2.631 Y429.881 F1000.000
G1 X2.744 Y429.825 F1000.000
G1 X15.125 Y429.819 F1000.000
G1 X15.119 Y429.825 F1000.000
G0 Z15.000
(Helix to depth: -5.000000)
G0 X10.257 Y348.410 Z15.000
G0 X10.257 Y348.410 Z3.000
G1 X10.257 Y348.410 Z0.000 F100.000
G1 X10.257 Y348.410 Z0.000 F100.000
G1 X10.501 Y348.681 Z-0.032 F100.000
G1 X10.688 Y348.995 Z-0.064 F100.000
G1 X10.811 Y349.340 Z-0.097 F100.000
G1 X10.863 Y349.702 Z-0.129 F100.000
G1 X10.844 Y350.067 Z-0.161 F100.000
G1 X10.754 Y350.421 Z-0.193 F100.000
G1 X10.597 Y350.751 Z-0.225 F100.000
G1 X10.378 Y351.044 Z-0.258 F100.000
G1 X10.106 Y351.289 Z-0.290 F100.000
G1 X9.792 Y351.476 Z-0.322 F100.000
G1 X9.447 Y351.598 Z-0.354 F100.000
G1 X9.086 Y351.651 Z-0.387 F100.000
G1 X8.721 Y351.631 Z-0.419 F100.000
G1 X8.366 Y351.542 Z-0.451 F100.000
G1 X8.036 Y351.384 Z-0.483 F100.000
G1 X7.743 Y351.165 Z-0.515 F100.000
G1 X7.499 Y350.894 Z-0.548 F100.000
G1 X7.312 Y350.580 Z-0.580 F100.000
G1 X7.189 Y350.235 Z-0.612 F100.000
G1 X7.137 Y349.873 Z-0.644 F100.000
G1 X7.156 Y349.508 Z-0.676 F100.000
G1 X7.246 Y349.154 Z-0.709 F100.000
G1 X7.403 Y348.824 Z-0.741 F100.000
G1 X7.622 Y348.531 Z-0.773 F100.000
G1 X7.894 Y348.286 Z-0.805 F100.000
G1 X8.208 Y348.099 Z-0.837 F100.000
G1 X8.553 Y347.977 Z-0.870 F100.000
G1 X8.914 Y347.924 Z-0.902 F100.000
G1 X9.279 Y347.944 Z-0.934 F100.000
G1 X9.634 Y348.033 Z-0.966 F100.000
G1 X9.964 Y348.191 Z-0.998 F100.000
G1 X10.257 Y348.410 Z-1.031 F100.000
G1 X10.501 Y348.681 Z-1.063 F100.000
G1 X10.688 Y348.995 Z-1.095 F100.000
G1 X10.811 Y349.340 Z-1.127 F100.000
G1 X10.863 Y349.702 Z-1.160 F100.000
G1 X10.844 Y350.067 Z-1.192 F100.000
G1 X10.754 Y350.421 Z-1.224 F100.000
G1 X10.597 Y350.751 Z-1.256 F100.000
G1 X10.378 Y351.044 Z-1.288 F100.000
G1 X10.106 Y351.289 Z-1.321 F100.000
G1 X9.792 Y351.476 Z-1.353 F100.000
G1 X9.447 Y351.598 Z-1.385 F100.000
G1 X9.086 Y351.651 Z-1.417 F100.000
G1 X8.721 Y351.631 Z-1.449 F100.000
G1 X8.366 Y351.542 Z-1.482 F100.000
G1 X8.036 Y351.384 Z-1.514 F100.000
G1 X7.743 Y351.165 Z-1.546 F100.000
G1 X7.499 Y350.894 Z-1.578 F100.000
G1 X7.312 Y350.580 Z-1.610 F100.000
G1 X7.189 Y350.235 Z-1.643 F100.000
G1 X7.137 Y349.873 Z-1.675 F100.000
G1 X7.156 Y349.508 Z-1.707 F100.000
G1 X7.246 Y349.154 Z-1.739 F100.000
G1 X7.403 Y348.824 Z-1.772 F100.000
G1 X7.622 Y348.531 Z-1.804 F100.000
G1 X7.894 Y348.286 Z-1.836 F100.000
G1 X8.208 Y348.099 Z-1.868 F100.000
G1 X8.553 Y347.977 Z-1.900 F100.000
G1 X8.914 Y347.924 Z-1.933 F100.000
G1 X9.279 Y347.944 Z-1.965 F100.000
G1 X9.634 Y348.033 Z-1.997 F100.000
G1 X9.964 Y348.191 Z-2.029 F100.000
G1 X10.257 Y348.410 Z-2.061 F100.000
G1 X10.501 Y348.681 Z-2.094 F100.000
G1 X10.688 Y348.995 Z-2.126 F100.000
G1 X10.811 Y349.340 Z-2.158 F100.000
G1 X10.863 Y349.702 Z-2.190 F100.000
G1 X10.844 Y350.067 Z-2.222 F100.000
G1 X10.754 Y350.421 Z-2.255 F100.000
G1 X10.597 Y350.751 Z-2.287 F100.000
G1 X10.378 Y351.044 Z-2.319 F100.000
G1 X10.106 Y351.289 Z-2.351 F100.000
G1 X9.792 Y351.476 Z-2.383 F100.000
G1 X9.447 Y351.598 Z-2.416 F100.000
G1 X9.086 Y351.651 Z-2.448 F100.000
G1 X8.721 Y351.631 Z-2.480 F100.000
G1 X8.366 Y351.542 Z-2.512 F100.000
G1 X8.036 Y351.384 Z-2.545 F100.000
G1 X7.743 Y351.165 Z-2.577 F100.000
G1 X7.499 Y350.894 Z-2.609 F100.000
G1 X7.312 Y350.580 Z-2.641 F100.000
G1 X7.189 Y350.235 Z-2.673 F100.000
G1 X7.137 Y349.873 Z-2.706 F100.000
G1 X7.156 Y349.508 Z-2.738 F100.000
G1 X7.246 Y349.154 Z-2.770 F100.000
G1 X7.403 Y348.824 Z-2.802 F100.000
G1 X7.622 Y348.531 Z-2.834 F100.000
G1 X7.894 Y348.286 Z-2.867 F100.000
G1 X8.208 Y348.099 Z-2.899 F100.000
G1 X8.553 Y347.977 Z-2.931 F100.000
G1 X8.914 Y347.924 Z-2.963 F100.000
G1 X9.279 Y347.944 Z-2.995 F100.000
G1 X9.634 Y348.033 Z-3.028 F100.000
G1 X9.964 Y348.191 Z-3.060 F100.000
G1 X10.257 Y348.410 Z-3.092 F100.000
G1 X10.501 Y348.681 Z-3.124 F100.000
G1 X10.688 Y348.995 Z-3.157 F100.000
G1 X10.811 Y349.340 Z-3.189 F100.000
G1 X10.863 Y349.702 Z-3.221 F100.000
G1 X10.844 Y350.067 Z-3.253 F100.000
G1 X10.754 Y350.421 Z-3.285 F100.000
G1 X10.597 Y350.751 Z-3.318 F100.000
G1 X10.378 Y351.044 Z-3.350 F100.000
G1 X10.106 Y351.289 Z-3.382 F100.000
G1 X9.792 Y351.476 Z-3.414 F100.000
G1 X9.447 Y351.598 Z-3.446 F100.000
G1 X9.086 Y351.651 Z-3.479 F100.000
G1 X8.721 Y351.631 Z-3.511 F100.000
G1 X8.366 Y351.542 Z-3.543 F100.000
G1 X8.036 Y351.384 Z-3.575 F100.000
G1 X7.743 Y351.165 Z-3.607 F100.000
G1 X7.499 Y350.894 Z-3.640 F100.000
G1 X7.312 Y350.580 Z-3.672 F100.000
G1 X7.189 Y350.235 Z-3.704 F100.000
G1 X7.137 Y349.873 Z-3.736 F100.000
G1 X7.156 Y349.508 Z-3.769 F100.000
G1 X7.246 Y349.154 Z-3.801 F100.000
G1 X7.403 Y348.824 Z-3.833 F100.000
G1 X7.622 Y348.531 Z-3.865 F100.000
G1 X7.894 Y348.286 Z-3.897 F100.000
G1 X8.208 Y348.099 Z-3.930 F100.000
G1 X8.553 Y347.977 Z-3.962 F100.000
G1 X8.914 Y347.924 Z-3.994 F100.000
G1 X9.279 Y347.944 Z-4.026 F100.000
G1 X9.634 Y348.033 Z-4.058 F100.000
G1 X9.964 Y348.191 Z-4.091 F100.000
G1 X10.257 Y348.410 Z-4.123 F100.000
G1 X10.501 Y348.681 Z-4.155 F100.000
G1 X10.688 Y348.995 Z-4.187 F100.000
G1 X10.811 Y349.340 Z-4.219 F100.000
G1 X10.863 Y349.702 Z-4.252 F100.000
G1 X10.844 Y350.067 Z-4.284 F100.000
G1 X10.754 Y350.421 Z-4.316 F100.000
G1 X10.597 Y350.751 Z-4.348 F100.000
G1 X10.378 Y351.044 Z-4.380 F100.000
G1 X10.106 Y351.289 Z-4.413 F100.000
G1 X9.792 Y351.476 Z-4.445 F100.000
G1 X9.447 Y351.598 Z-4.477 F100.000
G1 X9.086 Y351.651 Z-4.509 F100.000
G1 X8.721 Y351.631 Z-4.542 F100.000
G1 X8.366 Y351.542 Z-4.574 F100.000
G1 X8.036 Y351.384 Z-4.606 F100.000
G1 X7.743 Y351.165 Z-4.638 F100.000
G1 X7.499 Y350.894 Z-4.670 F100.000
G1 X7.312 Y350.580 Z-4.703 F100.000
G1 X7.189 Y350.235 Z-4.735 F100.000
G1 X7.137 Y349.873 Z-4.767 F100.000
G1 X7.156 Y349.508 Z-4.799 F100.000
G1 X7.246 Y349.154 Z-4.831 F100.000
G1 X7.403 Y348.824 Z-4.864 F100.000
G1 X7.622 Y348.531 Z-4.896 F100.000
G1 X7.894 Y348.286 Z-4.928 F100.000
G1 X8.208 Y348.099 Z-4.960 F100.000
G1 X8.553 Y347.977 Z-4.992 F100.000
G1 X8.914 Y347.924 Z-5.000 F1000.000
G1 X9.279 Y347.944 Z-5.000 F1000.000
G1 X9.634 Y348.033 Z-5.000 F1000.000
G1 X9.964 Y348.191 Z-5.000 F1000.000
G1 X10.257 Y348.410 Z-5.000 F1000.000
G1 X10.501 Y348.681 Z-5.000 F1000.000
G1 X10.688 Y348.995 Z-5.000 F1000.000
G1 X10.811 Y349.340 Z-5.000 F1000.000
G1 X10.863 Y349.702 Z-5.000 F1000.000
G1 X10.844 Y350.067 Z-5.000 F1000.000
G1 X10.754 Y350.421 Z-5.000 F1000.000
G1 X10.597 Y350.751 Z-5.000 F1000.000
G1 X10.378 Y351.044 Z-5.000 F1000.000
G1 X10.106 Y351.289 Z-5.000 F1000.000
G1 X9.792 Y351.476 Z-5.000 F1000.000
G1 X9.447 Y351.598 Z-5.000 F1000.000
G1 X9.086 Y351.651 Z-5.000 F1000.000
G1 X8.721 Y351.631 Z-5.000 F1000.000
G1 X8.366 Y351.542 Z-5.000 F1000.000
G1 X8.036 Y351.384 Z-5.000 F1000.000
G1 X7.743 Y351.165 Z-5.000 F1000.000
G1 X7.499 Y350.894 Z-5.000 F1000.000
G1 X7.312 Y350.580 Z-5.000 F1000.000
G1 X7.189 Y350.235 Z-5.000 F1000.000
G1 X7.137 Y349.873 Z-5.000 F1000.000
G1 X7.156 Y349.508 Z-5.000 F1000.000
G1 X7.246 Y349.154 Z-5.000 F1000.000
G1 X7.403 Y348.824 Z-5.000 F1000.000
G1 X7.622 Y348.531 Z-5.000 F1000.000
G1 X7.894 Y348.286 Z-5.000 F1000.000
G1 X8.208 Y348.099 Z-5.000 F1000.000
G1 X8.553 Y347.977 Z-5.000 F1000.000
(Adaptive - depth: -5.000000)
G1 X9.000 Y347.913 F1000.000
G1 X9.069 Y347.837 F1000.000
G1 X9.175 Y347.669 F1000.000
G1 X9.338 Y347.550 F1000.000
G1 X9.512 Y347.462 F1000.000
G1 X9.700 Y347.406 F1000.000
G1 X10.250 Y347.400 F1000.000
G1 X10.569 Y347.475 F1000.000
G1 X10.794 Y347.569 F1000.000
G1 X11.012 Y347.681 F1000.000
G1 X11.300 Y347.894 F1000.000
G1 X11.562 Y348.175 F1000.000
G1 X11.750 Y348.425 F1000.000
G1 X11.919 Y348.738 F1000.000
G1 X12.050 Y349.056 F1000.000
G1 X12.150 Y349.462 F1000.000
G1 X12.194 Y349.831 F1000.000
G1 X12.194 Y350.206 F1000.000
G1 X12.137 Y350.594 F1000.000
G1 X12.037 Y350.956 F1000.000
G1 X11.887 Y351.312 F1000.000
G1 X11.694 Y351.644 F1000.000
G1 X11.456 Y351.950 F1000.000
G1 X11.181 Y352.225 F1000.000
G1 X10.875 Y352.462 F1000.000
G1 X10.537 Y352.656 F1000.000
G1 X10.181 Y352.806 F1000.000
G1 X9.812 Y352.931 F1000.000
G1 X9.331 Y353.019 F1000.000
G1 X8.919 Y353.050 F1000.000
G1 X8.494 Y353.012 F1000.000
G1 X8.150 Y352.944 F1000.000
G1 X7.775 Y352.819 F1000.000
G1 X7.425 Y352.644 F1000.000
G1 X7.106 Y352.438 F1000.000
G1 X6.794 Y352.206 F1000.000
G1 X6.400 Y351.806 F1000.000
G1 X6.156 Y351.456 F1000.000
G1 X5.994 Y351.156 F1000.000
G1 X5.875 Y350.837 F1000.000
G1 X5.769 Y350.488 F1000.000
G1 X5.706 Y349.988 F1000.000
G1 X5.700 Y349.600 F1000.000
G1 X5.737 Y349.188 F1000.000
G1 X5.831 Y348.762 F1000.000
G1 X5.969 Y348.375 F1000.000
G1 X6.150 Y348.000 F1000.000
G1 X6.394 Y347.656 F1000.000
G1 X6.894 Y347.100 F1000.000
G1 X7.356 Y346.681 F1000.000
G1 X7.875 Y346.337 F1000.000
G1 X8.281 Y346.131 F1000.000
G1 X8.650 Y345.975 F1000.000
G1 X9.131 Y345.844 F1000.000
G1 X9.569 Y345.794 F1000.000
G1 X9.931 Y345.781 F1000.000
G1 X10.356 Y345.831 F1000.000
G1 X10.756 Y345.931 F1000.000
G1 X11.137 Y346.050 F1000.000
G1 X11.606 Y346.275 F1000.000
G1 X11.975 Y346.500 F1000.000
G1 X12.331 Y346.769 F1000.000
G1 X12.662 Y347.094 F1000.000
G1 X12.950 Y347.438 F1000.000
G1 X13.200 Y347.812 F1000.000
G1 X13.412 Y348.219 F1000.000
G1 X13.575 Y348.637 F1000.000
G1 X13.694 Y349.075 F1000.000
G1 X13.762 Y349.525 F1000.000
G1 X13.781 Y349.975 F1000.000
G1 X13.750 Y350.425 F1000.000
G1 X13.694 Y350.875 F1000.000
G1 X13.544 Y351.462 F1000.000
G1 X13.375 Y351.931 F1000.000
G1 X13.131 Y352.381 F1000.000
G1 X12.919 Y352.700 F1000.000
G1 X12.625 Y353.050 F1000.000
G1 X12.312 Y353.363 F1000.000
G1 X11.894 Y353.694 F1000.000
G1 X11.494 Y353.950 F1000.000
G1 X11.062 Y354.169 F1000.000
G1 X10.606 Y354.369 F1000.000
G1 X10.006 Y354.556 F1000.000
G1 X9.488 Y354.644 F1000.000
G1 X9.069 Y354.663 F1000.000
G1 X8.662 Y354.644 F1000.000
G1 X8.219 Y354.600 F1000.000
G1 X7.606 Y354.450 F1000.000
G1 X7.144 Y354.294 F1000.000
G1 X6.669 Y354.094 F1000.000
G1 X6.200 Y353.825 F1000.000
G1 X5.775 Y353.531 F1000.000
G1 X5.394 Y353.169 F1000.000
G1 X5.131 Y352.875 F1000.000
G1 X4.862 Y352.494 F1000.000
G1 X4.625 Y352.106 F1000.000
G1 X4.381 Y351.581 F1000.000
G1 X4.219 Y351.113 F1000.000
G1 X4.094 Y350.625 F1000.000
G1 X4.019 Y350.106 F1000.000
G1 X3.994 Y349.600 F1000.000
G1 X4.019 Y349.094 F1000.000
G1 X4.094 Y348.581 F1000.000
G1 X4.237 Y348.094 F1000.000
G1 X4.381 Y347.719 F1000.000
G1 X4.575 Y347.288 F1000.000
G1 X4.888 Y346.744 F1000.000
G1 X5.250 Y346.231 F1000.000
G1 X5.638 Y345.812 F1000.000
G1 X5.956 Y345.512 F1000.000
G1 X6.362 Y345.169 F1000.000
G1 X6.888 Y344.831 F1000.000
G1 X7.356 Y344.569 F1000.000
G1 X7.881 Y344.331 F1000.000
G1 X8.450 Y344.169 F1000.000
G1 X8.887 Y344.075 F1000.000
G1 X9.412 Y344.012 F1000.000
G1 X9.925 Y344.012 F1000.000
G1 X10.412 Y344.050 F1000.000
G1 X10.912 Y344.144 F1000.000
G1 X11.400 Y344.288 F1000.000
G1 X11.869 Y344.475 F1000.000
G1 X12.331 Y344.681 F1000.000
G1 X12.863 Y345.000 F1000.000
G1 X13.331 Y345.325 F1000.000
G1 X13.775 Y345.725 F1000.000
G1 X14.106 Y346.069 F1000.000
G1 X14.438 Y346.494 F1000.000
G1 X14.850 Y347.200 F1000.000
G1 X15.131 Y347.919 F1000.000
G1 X15.275 Y348.669 F1000.000
G1 X15.363 Y350.544 F1000.000
G1 X15.275 Y351.481 F1000.000
G1 X15.137 Y352.044 F1000.000
G1 X14.637 Y353.012 F1000.000
G1 X14.269 Y353.631 F1000.000
G1 X13.887 Y354.125 F1000.000
G1 X13.463 Y354.581 F1000.000
G1 X13.044 Y354.956 F1000.000
G1 X12.656 Y355.250 F1000.000
G1 X12.156 Y355.550 F1000.000
G1 X11.669 Y355.788 F1000.000
G1 X11.169 Y355.981 F1000.000
G1 X10.644 Y356.156 F1000.000
G1 X10.031 Y356.294 F1000.000
G1 X9.438 Y356.381 F1000.000
G1 X8.812 Y356.394 F1000.000
G1 X8.338 Y356.369 F1000.000
G1 X7.781 Y356.288 F1000.000
G1 X7.244 Y356.188 F1000.000
G1 X6.644 Y356.006 F1000.000
G1 X6.075 Y355.788 F1000.000
G1 X5.519 Y355.494 F1000.000
G1 X5.112 Y355.244 F1000.000
G1 X4.662 Y354.900 F1000.000
G1 X4.263 Y354.525 F1000.000
G1 X3.906 Y354.131 F1000.000
G1 X3.556 Y353.712 F1000.000
G1 X3.112 Y353.012 F1000.000
G1 X2.812 Y352.356 F1000.000
G1 X2.631 Y351.656 F1000.000
G1 X2.650 Y347.456 F1000.000
G1 X2.800 Y346.656 F1000.000
G1 X2.944 Y346.275 F1000.000
G1 X3.456 Y345.406 F1000.000
G1 X3.844 Y344.919 F1000.000
G1 X4.275 Y344.469 F1000.000
G1 X4.731 Y344.044 F1000.000
G1 X5.206 Y343.637 F1000.000
G1 X5.706 Y343.269 F1000.000
G1 X6.688 Y342.756 F1000.000
G1 X7.269 Y342.525 F1000.000
G1 X7.869 Y342.356 F1000.000
G1 X8.444 Y342.225 F1000.000
G1 X9.062 Y342.144 F1000.000
G1 X9.681 Y342.113 F1000.000
G1 X10.294 Y342.131 F1000.000
G1 X10.912 Y342.200 F1000.000
G1 X11.525 Y342.319 F1000.000
G1 X12.113 Y342.512 F1000.000
G1 X12.556 Y342.688 F1000.000
G1 X13.069 Y342.919 F1000.000
G1 X13.600 Y343.244 F1000.000
G1 X14.575 Y343.944 F1000.000
G1 X15.169 Y344.500 F1000.000
G1 X15.275 Y344.656 F1000.000
G1 X15.381 Y344.919 F1000.000
G1 X15.381 Y348.106 F1000.000
G1 X15.381 Y348.106 F1000.000
G1 X15.319 Y348.431 F1000.000
G1 X15.144 Y348.850 F1000.000
G0 X15.113 Y348.956
G0 X15.062 Y350.031
G1 X15.069 Y350.144 F1000.000
G1 X15.075 Y350.488 F1000.000
G1 X15.125 Y350.700 F1000.000
G1 X15.300 Y351.125 F1000.000
G1 X15.381 Y351.575 F1000.000
G1 X15.381 Y351.575 F1000.000
G1 X15.350 Y353.825 F1000.000
G1 X15.219 Y354.481 F1000.000
G1 X15.062 Y354.844 F1000.000
G1 X14.531 Y355.550 F1000.000
G1 X14.144 Y356.038 F1000.000
G1 X13.688 Y356.469 F1000.000
G1 X13.194 Y356.850 F1000.000
G1 X12.762 Y357.131 F1000.000
G1 X12.306 Y357.369 F1000.000
G1 X11.806 Y357.606 F1000.000
G1 X11.213 Y357.812 F1000.000
G1 X10.631 Y357.969 F1000.000
G1 X10.019 Y358.094 F1000.000
G1 X9.394 Y358.163 F1000.000
G1 X8.769 Y358.188 F1000.000
G1 X8.144 Y358.163 F1000.000
G1 X7.519 Y358.087 F1000.000
G1 X6.900 Y357.969 F1000.000
G1 X6.294 Y357.800 F1000.000
G1 X5.700 Y357.587 F1000.000
G1 X5.125 Y357.331 F1000.000
G1 X4.575 Y357.031 F1000.000
G1 X4.050 Y356.688 F1000.000
G1 X3.550 Y356.306 F1000.000
G1 X2.869 Y355.663 F1000.000
G1 X2.744 Y355.494 F1000.000
G1 X2.650 Y355.306 F1000.000
G1 X2.619 Y355.206 F1000.000
G1 X2.619 Y353.306 F1000.000
G1 X2.619 Y353.306 F1000.000
G1 X2.663 Y352.962 F1000.000
G1 X2.737 Y352.750 F1000.000
G1 X2.794 Y352.656 F1000.000
G1 X2.862 Y352.581 F1000.000
G0 X2.950 Y352.531
G0 X3.044 Y352.500
G0 X3.362 Y352.488
G0 X14.344 Y353.350
G1 X14.488 Y353.363 F1000.000
G1 X14.844 Y353.406 F1000.000
G1 X14.944 Y353.431 F1000.000
G1 X15.037 Y353.481 F1000.000
G1 X15.119 Y353.550 F1000.000
G1 X15.250 Y353.725 F1000.000
G1 X15.325 Y353.938 F1000.000
G1 X15.381 Y354.275 F1000.000
G1 X15.381 Y354.275 F1000.000
G1 X15.363 Y355.869 F1000.000
G1 X15.250 Y356.431 F1000.000
G1 X15.106 Y356.794 F1000.000
G1 X14.762 Y357.275 F1000.000
G1 X14.150 Y357.969 F1000.000
G1 X13.681 Y358.381 F1000.000
G1 X13.175 Y358.750 F1000.000
G1 X12.675 Y359.044 F1000.000
G1 X11.625 Y359.425 F1000.000
G1 X10.125 Y359.694 F1000.000
G1 X6.625 Y359.663 F1000.000
G1 X5.625 Y359.488 F1000.000
G1 X4.000 Y358.863 F1000.000
G1 X3.450 Y358.550 F1000.000
G1 X2.844 Y358.137 F1000.000
G1 X2.706 Y357.975 F1000.000
G1 X2.650 Y357.887 F1000.000
G1 X2.619 Y357.788 F1000.000
G1 X2.619 Y356.887 F1000.000
G1 X2.619 Y356.887 F1000.000
G1 X2.663 Y356.544 F1000.000
G1 X2.737 Y356.331 F1000.000
G1 X2.794 Y356.238 F1000.000
G1 X2.862 Y356.156 F1000.000
G0 X2.950 Y356.100
G0 X3.144 Y356.038
G0 X3.594 Y355.994
G0 X14.344 Y355.475
G1 X14.488 Y355.469 F1000.000
G1 X14.844 Y355.462 F1000.000
G1 X14.944 Y355.475 F1000.000
G1 X15.037 Y355.519 F1000.000
G1 X15.119 Y355.581 F1000.000
G1 X15.250 Y355.750 F1000.000
G1 X15.325 Y355.962 F1000.000
G1 X15.381 Y356.300 F1000.000
G1 X15.381 Y356.300 F1000.000
G1 X15.363 Y357.800 F1000.000
G1 X15.225 Y358.456 F1000.000
G1 X15.113 Y358.725 F1000.000
G1 X14.625 Y359.350 F1000.000
G1 X14.488 Y359.488 F1000.000
G1 X14.131 Y359.681 F1000.000
G1 X14.031 Y359.700 F1000.000
G1 X11.031 Y359.700 F1000.000
G1 X11.031 Y359.700 F1000.000
G1 X10.800 Y359.669 F1000.000
G1 X10.594 Y359.606 F1000.000
G1 X10.531 Y359.556 F1000.000
G0 X10.512 Y359.494
G0 X10.525 Y359.425
G0 X10.706 Y359.194
G0 X11.194 Y358.719
G0 X11.281 Y358.650
G0 X11.481 Y358.575
G0 X12.625 Y358.494
G0 X14.556 Y357.875
G1 X14.669 Y357.844 F1000.000
G1 X14.981 Y357.744 F1000.000
G1 X15.081 Y357.744 F1000.000
G1 X15.162 Y357.769 F1000.000
G1 X15.231 Y357.825 F1000.000
G1 X15.281 Y357.900 F1000.000
G1 X15.350 Y358.100 F1000.000
G1 X15.381 Y358.325 F1000.000
G1 X15.381 Y358.325 F1000.000
G1 X15.375 Y359.356 F1000.000
G1 X15.331 Y359.637 F1000.000
G1 X15.250 Y359.700 F1000.000
G1 X15.050 Y359.700 F1000.000
G1 X15.050 Y359.700 F1000.000
G1 X14.819 Y359.669 F1000.000
G1 X14.600 Y359.613 F1000.000
G1 X14.287 Y359.450 F1000.000
G0 X14.188 Y359.394
G0 X12.675 Y358.644
G0 X12.456 Y358.575
G0 X8.881 Y358.538
G0 X8.662 Y358.575
G0 X7.531 Y359.087
G1 X7.425 Y359.144 F1000.000
G1 X7.306 Y359.200 F1000.000
G1 X6.650 Y359.569 F1000.000
G1 X6.438 Y359.644 F1000.000
G1 X6.106 Y359.700 F1000.000
G1 X6.106 Y359.700 F1000.000
G1 X3.306 Y359.675 F1000.000
G1 X2.806 Y359.575 F1000.000
G1 X2.706 Y359.544 F1000.000
G1 X2.625 Y359.475 F1000.000
G1 X2.619 Y359.375 F1000.000
G1 X2.619 Y359.375 F1000.000
G1 X2.631 Y359.312 F1000.000
G1 X2.656 Y359.294 F1000.000
G1 X2.688 Y359.312 F1000.000
G1 X2.825 Y359.506 F1000.000
G1 X2.844 Y359.575 F1000.000
G1 X2.825 Y359.625 F1000.000
G1 X2.731 Y359.688 F1000.000
G1 X2.731 Y359.688 F1000.000
G1 X2.650 Y359.619 F1000.000
G1 X2.650 Y359.619 F1000.000
G1 X2.625 Y359.156 F1000.000
G1 X2.650 Y358.925 F1000.000
G1 X2.681 Y358.819 F1000.000
G0 X2.725 Y358.712
G0 X2.925 Y358.444
G0 X3.569 Y357.769
G0 X3.688 Y357.581
G0 X3.775 Y357.250
G0 X3.894 Y356.100
G0 X3.800 Y353.356
G0 X3.888 Y352.525
G0 X3.750 Y350.194
G0 X3.781 Y349.163
G0 X3.737 Y348.950
G0 X3.581 Y348.663
G0 X3.306 Y348.281
G1 X3.231 Y348.181 F1000.000
G1 X2.794 Y347.562 F1000.000
G1 X2.694 Y347.350 F1000.000
G1 X2.619 Y346.913 F1000.000
G1 X2.619 Y346.913 F1000.000
G1 X2.638 Y344.613 F1000.000
G1 X2.769 Y343.913 F1000.000
G1 X2.881 Y343.631 F1000.000
G1 X3.331 Y342.962 F1000.000
G1 X3.456 Y342.812 F1000.000
G1 X3.906 Y342.375 F1000.000
G1 X4.381 Y341.969 F1000.000
G1 X4.894 Y341.613 F1000.000
G1 X5.394 Y341.294 F1000.000
G1 X5.944 Y341.000 F1000.000
G1 X6.519 Y340.756 F1000.000
G1 X8.044 Y340.281 F1000.000
G1 X9.825 Y340.069 F1000.000
G1 X10.950 Y340.100 F1000.000
G1 X11.606 Y340.200 F1000.000
G1 X13.150 Y340.731 F1000.000
G1 X13.706 Y341.006 F1000.000
G1 X15.106 Y341.831 F1000.000
G1 X15.181 Y341.887 F1000.000
G1 X15.344 Y342.119 F1000.000
G1 X15.381 Y342.206 F1000.000
G1 X15.381 Y343.800 F1000.000
G1 X15.381 Y343.800 F1000.000
G1 X15.319 Y344.125 F1000.000
G1 X15.238 Y344.337 F1000.000
G1 X15.181 Y344.425 F1000.000
G1 X15.106 Y344.500 F1000.000
G0 X15.025 Y344.556
G0 X14.825 Y344.613
G0 X14.375 Y344.637
G0 X3.625 Y344.806
G1 X3.469 Y344.812 F1000.000
G1 X3.194 Y344.806 F1000.000
G1 X3.069 Y344.788 F1000.000
G1 X2.962 Y344.750 F1000.000
G1 X2.875 Y344.688 F1000.000
G1 X2.800 Y344.613 F1000.000
G1 X2.700 Y344.425 F1000.000
G1 X2.644 Y344.206 F1000.000
G1 X2.619 Y343.988 F1000.000
G1 X2.619 Y343.988 F1000.000
G1 X2.631 Y342.387 F1000.000
G1 X2.750 Y341.688 F1000.000
G1 X2.850 Y341.400 F1000.000
G1 X3.256 Y340.825 F1000.000
G1 X3.881 Y340.175 F1000.000
G1 X4.037 Y340.062 F1000.000
G1 X4.300 Y339.944 F1000.000
G1 X7.487 Y339.938 F1000.000
G1 X7.487 Y339.938 F1000.000
G1 X7.812 Y339.988 F1000.000
G1 X7.900 Y340.025 F1000.000
G1 X7.956 Y340.069 F1000.000
G0 X7.969 Y340.113
G0 X7.938 Y340.163
G0 X7.581 Y340.363
G0 X4.794 Y341.600
G0 X3.394 Y342.137
G1 X3.275 Y342.188 F1000.000
G1 X3.031 Y342.262 F1000.000
G1 X2.919 Y342.262 F1000.000
G1 X2.819 Y342.219 F1000.000
G1 X2.744 Y342.150 F1000.000
G1 X2.688 Y342.056 F1000.000
G1 X2.619 Y341.738 F1000.000
G1 X2.619 Y341.738 F1000.000
G1 X2.631 Y340.238 F1000.000
G1 X2.656 Y340.038 F1000.000
G1 X2.719 Y339.962 F1000.000
G1 X2.812 Y339.938 F1000.000
G1 X2.812 Y339.938 F1000.000
G1 X3.138 Y339.988 F1000.000
G1 X3.444 Y340.125 F1000.000
G1 X3.544 Y340.181 F1000.000
G0 X3.644 Y340.244
G0 X4.881 Y340.956
G0 X5.100 Y341.038
G0 X8.275 Y341.256
G0 X8.494 Y341.219
G0 X8.700 Y341.125
G0 X9.375 Y340.663
G1 X9.469 Y340.594 F1000.000
G1 X10.125 Y340.137 F1000.000
G1 X10.331 Y340.038 F1000.000
G1 X10.781 Y339.931 F1000.000
G1 X10.781 Y339.931 F1000.000
G1 X14.719 Y339.956 F1000.000
G1 X15.281 Y340.062 F1000.000
G1 X15.363 Y340.119 F1000.000
G1 X15.381 Y340.212 F1000.000
G1 X15.381 Y340.962 F1000.000
G1 X15.381 Y340.962 F1000.000
G1 X15.363 Y340.994 F1000.000
G0 X15.344 Y340.988
G1 X15.319 Y340.931 F1000.000
G1 X15.150 Y340.350 F1000.000
G1 X15.131 Y340.225 F1000.000
G1 X15.131 Y340.119 F1000.000
G1 X15.162 Y340.044 F1000.000
G1 X15.281 Y339.950 F1000.000
G1 X15.281 Y339.950 F1000.000
G1 X15.350 Y340.012 F1000.000
G1 X15.350 Y340.012 F1000.000
G1 X15.356 Y340.056 F1000.000
G1 X15.331 Y340.075 F1000.000
G1 X15.200 Y340.019 F1000.000
G1 X15.069 Y339.919 F1000.000
G1 X15.056 Y339.875 F1000.000
G1 X15.119 Y339.825 F1000.000
G1 X15.119 Y339.825 F1000.000
G1 X15.262 Y339.831 F1000.000
G1 X15.331 Y339.856 F1000.000
G1 X15.438 Y339.950 F1000.000
G1 X15.494 Y340.075 F1000.000
G1 X15.494 Y359.488 F1000.000
G1 X15.463 Y359.650 F1000.000
G1 X15.369 Y359.756 F1000.000
G1 X15.244 Y359.812 F1000.000
G1 X2.819 Y359.812 F1000.000
G1 X2.669 Y359.781 F1000.000
G1 X2.562 Y359.688 F1000.000
G1 X2.506 Y359.575 F1000.000
G1 X2.506 Y340.119 F1000.000
G1 X2.538 Y339.988 F1000.000
G1 X2.631 Y339.881 F1000.000
G1 X2.744 Y339.825 F1000.000
G1 X15.125 Y339.819 F1000.000
G1 X15.119 Y339.825 F1000.000
G0 Z15.000
(Helix to depth: -5.000000)
G0 X10.257 Y258.410 Z15.000
G0 X10.257 Y258.410 Z3.000
G1 X10.257 Y258.410 Z0.000 F100.000
G1 X10.257 Y258.410 Z0.000 F100.000
G1 X10.501 Y258.681 Z-0.032 F100.000
G1 X10.688 Y258.995 Z-0.064 F100.000
G1 X10.811 Y259.340 Z-0.097 F100.000
G1 X10.863 Y259.702 Z-0.129 F100.000
G1 X10.844 Y260.067 Z-0.161 F100.000
G1 X10.754 Y260.421 Z-0.193 F100.000
G1 X10.597 Y260.751 Z-0.225 F100.000
G1 X10.378 Y261.044 Z-0.258 F100.000
G1 X10.106 Y261.289 Z-0.290 F100.000
G1 X9.792 Y261.476 Z-0.322 F100.000
G1 X9.447 Y261.598 Z-0.354 F100.000
G1 X9.086 Y261.651 Z-0.387 F100.000
G1 X8.721 Y261.631 Z-0.419 F100.000
G1 X8.366 Y261.542 Z-0.451 F100.000
G1 X8.036 Y261.384 Z-0.483 F100.000
G1 X7.743 Y261.165 Z-0.515 F100.000
G1 X7.499 Y260.894 Z-0.548 F100.000
G1 X7.312 Y260.580 Z-0.580 F100.000
G1 X7.189 Y260.235 Z-0.612 F100.000
G1 X7.137 Y259.873 Z-0.644 F100.000
G1 X7.156 Y259.508 Z-0.676 F100.000
G1 X7.246 Y259.154 Z-0.709 F100.000
G1 X7.403 Y258.824 Z-0.741 F100.000
G1 X7.622 Y258.531 Z-0.773 F100.000
G1 X7.894 Y258.286 Z-0.805 F100.000
G1 X8.208 Y258.099 Z-0.837 F100.000
G1 X8.553 Y257.977 Z-0.870 F100.000
G1 X8.914 Y257.924 Z-0.902 F100.000
G1 X9.279 Y257.944 Z-0.934 F100.000
G1 X9.634 Y258.033 Z-0.966 F100.000
G1 X9.964 Y258.191 Z-0.998 F100.000
G1 X10.257 Y258.410 Z-1.031 F100.000
G1 X10.501 Y258.681 Z-1.063 F100.000
G1 X10.688 Y258.995 Z-1.095 F100.000
G1 X10.811 Y259.340 Z-1.127 F100.000
G1 X10.863 Y259.702 Z-1.160 F100.000
G1 X10.844 Y260.067 Z-1.192 F100.000
G1 X10.754 Y260.421 Z-1.224 F100.000
G1 X10.597 Y260.751 Z-1.256 F100.000
G1 X10.378 Y261.044 Z-1.288 F100.000
G1 X10.106 Y261.289 Z-1.321 F100.000
G1 X9.792 Y261.476 Z-1.353 F100.000
G1 X9.447 Y261.598 Z-1.385 F100.000
G1 X9.086 Y261.651 Z-1.417 F100.000
G1 X8.721 Y261.631 Z-1.449 F100.000
G1 X8.366 Y261.542 Z-1.482 F100.000
G1 X8.036 Y261.384 Z-1.514 F100.000
G1 X7.743 Y261.165 Z-1.546 F100.000
G1 X7.499 Y260.894 Z-1.578 F100.000
G1 X7.312 Y260.580 Z-1.610 F100.000
G1 X7.189 Y260.235 Z-1.643 F100.000
G1 X7.137 Y259.873 Z-1.675 F100.000
G1 X7.156 Y259.508 Z-1.707 F100.000
G1 X7.246 Y259.154 Z-1.739 F100.000
G1 X7.403 Y258.824 Z-1.772 F100.000
G1 X7.622 Y258.531 Z-1.804 F100.000
G1 X7.894 Y258.286 Z-1.836 F100.000
G1 X8.208 Y258.099 Z-1.868 F100.000
G1 X8.553 Y257.977 Z-1.900 F100.000
G1 X8.914 Y257.924 Z-1.933 F100.000
G1 X9.279 Y257.944 Z-1.965 F100.000
G1 X9.634 Y258.033 Z-1.997 F100.000
G1 X9.964 Y258.191 Z-2.029 F100.000
G1 X10.257 Y258.410 Z-2.061 F100.000
G1 X10.501 Y258.681 Z-2.094 F100.000
G1 X10.688 Y258.995 Z-2.126 F100.000
G1 X10.811 Y259.340 Z-2.158 F100.000
G1 X10.863 Y259.702 Z-2.190 F100.000
G1 X10.844 Y260.067 Z-2.222 F100.000
G1 X10.754 Y260.421 Z-2.255 F100.000
G1 X10.597 Y260.751 Z-2.287 F100.000
G1 X10.378 Y261.044 Z-2.319 F100.000
G1 X10.106 Y261.289 Z-2.351 F100.000
G1 X9.792 Y261.476 Z-2.383 F100.000
G1 X9.447 Y261.598 Z-2.416 F100.000
G1 X9.086 Y261.651 Z-2.448 F100.000
G1 X8.721 Y261.631 Z-2.480 F100.000
G1 X8.366 Y261.542 Z-2.512 F100.000
G1 X8.036 Y261.384 Z-2.545 F100.000
G1 X7.743 Y261.165 Z-2.577 F100.000
G1 X7.499 Y260.894 Z-2.609 F100.000
G1 X7.312 Y260.580 Z-2.641 F100.000
G1 X7.189 Y260.235 Z-2.673 F100.000
G1 X7.137 Y259.873 Z-2.706 F100.000
G1 X7.156 Y259.508 Z-2.738 F100.000
G1 X7.246 Y259.154 Z-2.770 F100.000
G1 X7.403 Y258.824 Z-2.802 F100.000
G1 X7.622 Y258.531 Z-2.834 F100.000
G1 X7.894 Y258.286 Z-2.867 F100.000
G1 X8.208 Y258.099 Z-2.899 F100.000
G1 X8.553 Y257.977 Z-2.931 F100.000
G1 X8.914 Y257.924 Z-2.963 F100.000
G1 X9.279 Y257.944 Z-2.995 F100.000
G1 X9.634 Y258.033 Z-3.028 F100.000
G1 X9.964 Y258.191 Z-3.060 F100.000
G1 X10.257 Y258.410 Z-3.092 F100.000
G1 X10.501 Y258.681 Z-3.124 F100.000
G1 X10.688 Y258.995 Z-3.157 F100.000
G1 X10.811 Y259.340 Z-3.189 F100.000
G1 X10.863 Y259.702 Z-3.221 F100.000
G1 X10.844 Y260.067 Z-3.253 F100.000
G1 X10.754 Y260.421 Z-3.285 F100.000
G1 X10.597 Y260.751 Z-3.318 F100.000
G1 X10.378 Y261.044 Z-3.350 F100.000
G1 X10.106 Y261.289 Z-3.382 F100.000
G1 X9.792 Y261.476 Z-3.414 F100.000
G1 X9.447 Y261.598 Z-3.446 F100.000
G1 X9.086 Y261.651 Z-3.479 F100.000
G1 X8.721 Y261.631 Z-3.511 F100.000
G1 X8.366 Y261.542 Z-3.543 F100.000
G1 X8.036 Y261.384 Z-3.575 F100.000
G1 X7.743 Y261.165 Z-3.607 F100.000
G1 X7.499 Y260.894 Z-3.640 F100.000
G1 X7.312 Y260.580 Z-3.672 F100.000
G1 X7.189 Y260.235 Z-3.704 F100.000
G1 X7.137 Y259.873 Z-3.736 F100.000
G1 X7.156 Y259.508 Z-3.769 F100.000
G1 X7.246 Y259.154 Z-3.801 F100.000
G1 X7.403 Y258.824 Z-3.833 F100.000
G1 X7.622 Y258.531 Z-3.865 F100.000
G1 X7.894 Y258.286 Z-3.897 F100.000
G1 X8.208 Y258.099 Z-3.930 F100.000
G1 X8.553 Y257.977 Z-3.962 F100.000
G1 X8.914 Y257.924 Z-3.994 F100.000
G1 X9.279 Y257.944 Z-4.026 F100.000
G1 X9.634 Y258.033 Z-4.058 F100.000
G1 X9.964 Y258.191 Z-4.091 F100.000
G1 X10.257 Y258.410 Z-4.123 F100.000
G1 X10.501 Y258.681 Z-4.155 F100.000
G1 X10.688 Y258.995 Z-4.187 F100.000
G1 X10.811 Y259.340 Z-4.219 F100.000
G1 X10.863 Y259.702 Z-4.252 F100.000
G1 X10.844 Y260.067 Z-4.284 F100.000
G1 X10.754 Y260.421 Z-4.316 F100.000
G1 X10.597 Y260.751 Z-4.348 F100.000
G1 X10.378 Y261.044 Z-4.380 F100.000
G1 X10.106 Y261.289 Z-4.413 F100.000
G1 X9.792 Y261.476 Z-4.445 F100.000
G1 X9.447 Y261.598 Z-4.477 F100.000
G1 X9.086 Y261.651 Z-4.509 F100.000
G1 X8.721 Y261.631 Z-4.542 F100.000
G1 X8.366 Y261.542 Z-4.574 F100.000
G1 X8.036 Y261.384 Z-4.606 F100.000
G1 X7.743 Y261.165 Z-4.638 F100.000
G1 X7.499 Y260.894 Z-4.670 F100.000
G1 X7.312 Y260.580 Z-4.703 F100.000
G1 X7.189 Y260.235 Z-4.735 F100.000
G1 X7.137 Y259.873 Z-4.767 F100.000
G1 X7.156 Y259.508 Z-4.799 F100.000
G1 X7.246 Y259.154 Z-4.831 F100.000
G1 X7.403 Y258.824 Z-4.864 F100.000
G1 X7.622 Y258.531 Z-4.896 F100.000
G1 X7.894 Y258.286 Z-4.928 F100.000
G1 X8.208 Y258.099 Z-4.960 F100.000
G1 X8.553 Y257.977 Z-4.992 F100.000
G1 X8.914 Y257.924 Z-5.000 F1000.000
G1 X9.279 Y257.944 Z-5.000 F1000.000
G1 X9.634 Y258.033 Z-5.000 F1000.000
G1 X9.964 Y258.191 Z-5.000 F1000.000
G1 X10.257 Y258.410 Z-5.000 F1000.000
G1 X10.501 Y258.681 Z-5.000 F1000.000
G1 X10.688 Y258.995 Z-5.000 F1000.000
G1 X10.811 Y259.340 Z-5.000 F1000.000
G1 X10.863 Y259.702 Z-5.000 F1000.000
G1 X10.844 Y260.067 Z-5.000 F1000.000
G1 X10.754 Y260.421 Z-5.000 F1000.000
G1 X10.597 Y260.751 Z-5.000 F1000.000
G1 X10.378 Y261.044 Z-5.000 F1000.000
G1 X10.106 Y261.289 Z-5.000 F1000.000
G1 X9.792 Y261.476 Z-5.000 F1000.000
G1 X9.447 Y261.598 Z-5.000 F1000.000
G1 X9.086 Y261.651 Z-5.000 F1000.000
G1 X8.721 Y261.631 Z-5.000 F1000.000
G1 X8.366 Y261.542 Z-5.000 F1000.000
G1 X8.036 Y261.384 Z-5.000 F1000.000
G1 X7.743 Y261.165 Z-5.000 F1000.000
G1 X7.499 Y260.894 Z-5.000 F1000.000
G1 X7.312 Y260.580 Z-5.000 F1000.000
G1 X7.189 Y260.235 Z-5.000 F1000.000
G1 X7.137 Y259.873 Z-5.000 F1000.000
G1 X7.156 Y259.508 Z-5.000 F1000.000
G1 X7.246 Y259.154 Z-5.000 F1000.000
G1 X7.403 Y258.824 Z-5.000 F1000.000
G1 X7.622 Y258.531 Z-5.000 F1000.000
G1 X7.894 Y258.286 Z-5.000 F1000.000
G1 X8.208 Y258.099 Z-5.000 F1000.000
G1 X8.553 Y257.977 Z-5.000 F1000.000
(Adaptive - depth: -5.000000)
G1 X9.000 Y257.913 F1000.000
G1 X9.069 Y257.837 F1000.000
G1 X9.175 Y257.669 F1000.000
G1 X9.338 Y257.550 F1000.000
G1 X9.512 Y257.462 F1000.000
G1 X9.700 Y257.406 F1000.000
G1 X10.250 Y257.400 F1000.000
G1 X10.569 Y257.475 F1000.000
G1 X10.794 Y257.569 F1000.000
G1 X11.012 Y257.681 F1000.000
G1 X11.300 Y257.894 F1000.000
G1 X11.562 Y258.175 F1000.000
G1 X11.750 Y258.425 F1000.000
G1 X11.919 Y258.738 F1000.000
G1 X12.050 Y259.056 F1000.000
G1 X12.150 Y259.462 F1000.000
G1 X12.194 Y259.831 F1000.000
G1 X12.194 Y260.206 F1000.000
G1 X12.137 Y260.594 F1000.000
G1 X12.037 Y260.956 F1000.000
G1 X11.887 Y261.312 F1000.000
G1 X11.694 Y261.644 F1000.000
G1 X11.456 Y261.950 F1000.000
G1 X11.181 Y262.225 F1000.000
G1 X10.875 Y262.462 F1000.000
G1 X10.537 Y262.656 F1000.000
G1 X10.181 Y262.806 F1000.000
G1 X9.812 Y262.931 F1000.000
G1 X9.331 Y263.019 F1000.000
G1 X8.919 Y263.050 F1000.000
G1 X8.494 Y263.012 F1000.000
G1 X8.150 Y262.944 F1000.000
G1 X7.775 Y262.819 F1000.000
G1 X7.425 Y262.644 F1000.000
G1 X7.106 Y262.438 F1000.000
G1 X6.794 Y262.206 F1000.000
G1 X6.400 Y261.806 F1000.000
G1 X6.156 Y261.456 F1000.000
G1 X5.994 Y261.156 F1000.000
G1 X5.875 Y260.837 F1000.000
G1 X5.769 Y260.488 F1000.000
G1 X5.706 Y259.988 F1000.000
G1 X5.700 Y259.600 F1000.000
G1 X5.737 Y259.188 F1000.000
G1 X5.831 Y258.762 F1000.000
G1 X5.969 Y258.375 F1000.000
G1 X6.150 Y258.000 F1000.000
G1 X6.394 Y257.656 F1000.000
G1 X6.894 Y257.100 F1000.000
G1 X7.356 Y256.681 F1000.000
G1 X7.875 Y256.337 F1000.000
G1 X8.281 Y256.131 F1000.000
G1 X8.650 Y255.975 F1000.000
G1 X9.131 Y255.844 F1000.000
G1 X9.569 Y255.794 F1000.000
G1 X9.931 Y255.781 F1000.000
G1 X10.356 Y255.831 F1000.000
G1 X10.756 Y255.931 F1000.000
G1 X11.137 Y256.050 F1000.000
G1 X11.606 Y256.275 F1000.000
G1 X11.975 Y256.500 F1000.000
G1 X12.331 Y256.769 F1000.000
G1 X12.662 Y257.094 F1000.000
G1 X12.950 Y257.438 F1000.000
G1 X13.200 Y257.812 F1000.000
G1 X13.412 Y258.219 F1000.000
G1 X13.575 Y258.637 F1000.000
G1 X13.694 Y259.075 F1000.000
G1 X13.762 Y259.525 F1000.000
G1 X13.781 Y259.975 F1000.000
G1 X13.750 Y260.425 F1000.000
G1 X13.694 Y260.875 F1000.000
G1 X13.544 Y261.462 F1000.000
G1 X13.375 Y261.931 F1000.000
G1 X13.131 Y262.381 F1000.000
G1 X12.919 Y262.700 F1000.000
G1 X12.625 Y263.050 F1000.000
G1 X12.312 Y263.363 F1000.000
G1 X11.894 Y263.694 F1000.000
G1 X11.494 Y263.950 F1000.000
G1 X11.062 Y264.169 F1000.000
G1 X10.606 Y264.369 F1000.000
G1 X10.006 Y264.556 F1000.000
G1 X9.488 Y264.644 F1000.000
G1 X9.069 Y264.663 F1000.000
G1 X8.662 Y264.644 F1000.000
G1 X8.219 Y264.600 F1000.000
G1 X7.606 Y264.450 F1000.000
G1 X7.144 Y264.294 F1000.000
G1 X6.669 Y264.094 F1000.000
G1 X6.200 Y263.825 F1000.000
G1 X5.775 Y263.531 F1000.000
G1 X5.394 Y263.169 F1000.000
G1 X5.131 Y262.875 F1000.000
G1 X4.862 Y262.494 F1000.000
G1 X4.625 Y262.106 F1000.000
G1 X4.381 Y261.581 F1000.000
G1 X4.219 Y261.113 F1000.000
G1 X4.094 Y260.625 F1000.000
G1 X4.019 Y260.106 F1000.000
G1 X3.994 Y259.600 F1000.000
G1 X4.019 Y259.094 F1000.000
G1 X4.094 Y258.581 F1000.000
G1 X4.237 Y258.094 F1000.000
G1 X4.381 Y257.719 F1000.000
G1 X4.575 Y257.288 F1000.000
G1 X4.888 Y256.744 F1000.000
G1 X5.250 Y256.231 F1000.000
G1 X5.638 Y255.812 F1000.000
G1 X5.956 Y255.512 F1000.000
G1 X6.362 Y255.169 F1000.000
G1 X6.888 Y254.831 F1000.000
G1 X7.356 Y254.569 F1000.000
G1 X7.881 Y254.331 F1000.000
G1 X8.450 Y254.169 F1000.000
G1 X8.887 Y254.075 F1000.000
G1 X9.412 Y254.012 F1000.000
G1 X9.925 Y254.012 F1000.000
G1 X10.412 Y254.050 F1000.000
G1 X10.912 Y254.144 F1000.000
G1 X11.400 Y254.287 F1000.000
G1 X11.869 Y254.475 F1000.000
G1 X12.331 Y254.681 F1000.000
G1 X12.863 Y255.000 F1000.000
G1 X13.331 Y255.325 F1000.000
G1 X13.775 Y255.725 F1000.000
G1 X14.106 Y256.069 F1000.000
G1 X14.438 Y256.494 F1000.000
G1 X14.850 Y257.200 F1000.000
G1 X15.131 Y257.919 F1000.000
G1 X15.275 Y258.669 F1000.000
G1 X15.363 Y260.544 F1000.000
G1 X15.275 Y261.481 F1000.000
G1 X15.137 Y262.044 F1000.000
G1 X14.637 Y263.012 F1000.000
G1 X14.269 Y263.631 F1000.000
G1 X13.887 Y264.125 F1000.000
G1 X13.463 Y264.581 F1000.000
G1 X13.044 Y264.956 F1000.000
G1 X12.656 Y265.250 F1000.000
G1 X12.156 Y265.550 F1000.000
G1 X11.669 Y265.788 F1000.000
G1 X11.169 Y265.981 F1000.000
G1 X10.644 Y266.156 F1000.000
G1 X10.031 Y266.294 F1000.000
G1 X9.438 Y266.381 F1000.000
G1 X8.812 Y266.394 F1000.000
G1 X8.338 Y266.369 F1000.000
G1 X7.781 Y266.288 F1000.000
G1 X7.244 Y266.188 F1000.000
G1 X6.644 Y266.006 F1000.000
G1 X6.075 Y265.788 F1000.000
G1 X5.519 Y265.494 F1000.000
G1 X5.112 Y265.244 F1000.000
G1 X4.662 Y264.900 F1000.000
G1 X4.263 Y264.525 F1000.000
G1 X3.906 Y264.131 F1000.000
G1 X3.556 Y263.712 F1000.000
G1 X3.112 Y263.012 F1000.000
G1 X2.812 Y262.356 F1000.000
G1 X2.631 Y261.656 F1000.000
G1 X2.650 Y257.456 F1000.000
G1 X2.800 Y256.656 F1000.000
G1 X2.944 Y256.275 F1000.000
G1 X3.456 Y255.406 F1000.000
G1 X3.844 Y254.919 F1000.000
G1 X4.275 Y254.469 F1000.000
G1 X4.731 Y254.044 F1000.000
G1 X5.206 Y253.637 F1000.000
G1 X5.706 Y253.269 F1000.000
G1 X6.688 Y252.756 F1000.000
G1 X7.269 Y252.525 F1000.000
G1 X7.869 Y252.356 F1000.000
G1 X8.444 Y252.225 F1000.000
G1 X9.062 Y252.144 F1000.000
G1 X9.681 Y252.113 F1000.000
G1 X10.294 Y252.131 F1000.000
G1 X10.912 Y252.200 F1000.000
G1 X11.525 Y252.319 F1000.000
G1 X12.113 Y252.512 F1000.000
G1 X12.556 Y252.688 F1000.000
G1 X13.069 Y252.919 F1000.000
G1 X13.600 Y253.244 F1000.000
G1 X14.575 Y253.944 F1000.000
G1 X15.169 Y254.500 F1000.000
G1 X15.275 Y254.656 F1000.000
G1 X15.381 Y254.919 F1000.000
G1 X15.381 Y258.106 F1000.000
G1 X15.381 Y258.106 F1000.000
G1 X15.319 Y258.431 F1000.000
G1 X15.144 Y258.850 F1000.000
G0 X15.113 Y258.956
G0 X15.062 Y260.031
G1 X15.069 Y260.144 F1000.000
G1 X15.075 Y260.488 F1000.000
G1 X15.125 Y260.700 F1000.000
G1 X15.300 Y261.125 F1000.000
G1 X15.381 Y261.575 F1000.000
G1 X15.381 Y261.575 F1000.000
G1 X15.350 Y263.825 F1000.000
G1 X15.238 Y264.387 F1000.000
G1 X15.088 Y264.750 F1000.000
G1 X14.637 Y265.413 F1000.000
G1 X14.181 Y265.981 F1000.000
G1 X13.738 Y266.419 F1000.000
G1 X13.250 Y266.806 F1000.000
G1 X12.787 Y267.106 F1000.000
G1 X11.856 Y267.587 F1000.000
G1 X11.269 Y267.800 F1000.000
G1 X10.700 Y267.962 F1000.000
G1 X10.088 Y268.094 F1000.000
G1 X9.463 Y268.169 F1000.000
G1 X8.838 Y268.200 F1000.000
G1 X8.213 Y268.188 F1000.000
G1 X7.588 Y268.125 F1000.000
G1 X6.969 Y268.012 F1000.000
G1 X6.362 Y267.856 F1000.000
G1 X5.769 Y267.650 F1000.000
G1 X5.194 Y267.400 F1000.000
G1 X4.638 Y267.106 F1000.000
G1 X4.106 Y266.769 F1000.000
G1 X3.600 Y266.394 F1000.000
G1 X3.125 Y265.981 F1000.000
G1 X2.850 Y265.681 F1000.000
G1 X2.681 Y265.413 F1000.000
G1 X2.638 Y265.319 F1000.000
G1 X2.619 Y265.219 F1000.000
G1 X2.619 Y263.419 F1000.000
G1 X2.619 Y263.419 F1000.000
G1 X2.663 Y263.075 F1000.000
G1 X2.737 Y262.863 F1000.000
G1 X2.794 Y262.769 F1000.000
G1 X2.862 Y262.694 F1000.000
G0 X2.950 Y262.637
G0 X3.144 Y262.600
G0 X3.594 Y262.613
G0 X14.344 Y263.363
G1 X14.488 Y263.369 F1000.000
G1 X14.844 Y263.406 F1000.000
G1 X14.944 Y263.438 F1000.000
G1 X15.037 Y263.481 F1000.000
G1 X15.119 Y263.550 F1000.000
G1 X15.250 Y263.725 F1000.000
G1 X15.325 Y263.938 F1000.000
G1 X15.381 Y264.275 F1000.000
G1 X15.381 Y264.275 F1000.000
G1 X15.363 Y265.869 F1000.000
G1 X15.225 Y266.525 F1000.000
G1 X15.113 Y266.800 F1000.000
G1 X14.700 Y267.356 F1000.000
G1 X14.162 Y267.981 F1000.000
G1 X13.694 Y268.394 F1000.000
G1 X13.194 Y268.756 F1000.000
G1 X12.781 Y269.000 F1000.000
G1 X11.644 Y269.431 F1000.000
G1 X10.244 Y269.694 F1000.000
G1 X6.544 Y269.656 F1000.000
G1 X5.944 Y269.569 F1000.000
G1 X5.444 Y269.438 F1000.000
G1 X4.194 Y268.962 F1000.000
G1 X3.444 Y268.587 F1000.000
G1 X2.837 Y268.175 F1000.000
G1 X2.650 Y267.925 F1000.000
G1 X2.619 Y267.825 F1000.000
G1 X2.619 Y267.025 F1000.000
G1 X2.619 Y267.025 F1000.000
G1 X2.663 Y266.681 F1000.000
G1 X2.737 Y266.469 F1000.000
G1 X2.794 Y266.375 F1000.000
G1 X2.862 Y266.294 F1000.000
G0 X2.950 Y266.238
G0 X3.144 Y266.169
G0 X3.594 Y266.125
G0 X14.344 Y265.481
G1 X14.488 Y265.475 F1000.000
G1 X14.844 Y265.462 F1000.000
G1 X14.944 Y265.481 F1000.000
G1 X15.037 Y265.519 F1000.000
G1 X15.119 Y265.581 F1000.000
G1 X15.250 Y265.750 F1000.000
G1 X15.325 Y265.962 F1000.000
G1 X15.381 Y266.300 F1000.000
G1 X15.381 Y266.300 F1000.000
G1 X15.363 Y267.800 F1000.000
G1 X15.250 Y268.363 F1000.000
G1 X15.100 Y268.725 F1000.000
G1 X14.613 Y269.350 F1000.000
G1 X14.463 Y269.488 F1000.000
G1 X14.106 Y269.681 F1000.000
G1 X14.006 Y269.700 F1000.000
G1 X11.206 Y269.700 F1000.000
G1 X11.206 Y269.700 F1000.000
G1 X10.975 Y269.669 F1000.000
G1 X10.769 Y269.606 F1000.000
G1 X10.706 Y269.556 F1000.000
G0 X10.681 Y269.494
G0 X10.694 Y269.425
G0 X10.794 Y269.275
G0 X11.325 Y268.719
G0 X11.412 Y268.650
G0 X11.606 Y268.575
G0 X12.719 Y268.488
G0 X14.562 Y267.887
G1 X14.669 Y267.850 F1000.000
G1 X14.988 Y267.750 F1000.000
G1 X15.081 Y267.744 F1000.000
G1 X15.162 Y267.769 F1000.000
G1 X15.231 Y267.825 F1000.000
G1 X15.281 Y267.900 F1000.000
G1 X15.350 Y268.100 F1000.000
G1 X15.381 Y268.325 F1000.000
G1 X15.381 Y268.325 F1000.000
G1 X15.375 Y269.356 F1000.000
G1 X15.325 Y269.637 F1000.000
G1 X15.250 Y269.700 F1000.000
G1 X15.050 Y269.700 F1000.000
G1 X15.050 Y269.700 F1000.000
G1 X14.819 Y269.669 F1000.000
G1 X14.600 Y269.613 F1000.000
G1 X14.287 Y269.450 F1000.000
G0 X14.188 Y269.394
G0 X12.675 Y268.644
G0 X12.456 Y268.575
G0 X8.881 Y268.538
G0 X8.662 Y268.575
G0 X7.531 Y269.087
G1 X7.425 Y269.144 F1000.000
G1 X7.306 Y269.200 F1000.000
G1 X6.650 Y269.569 F1000.000
G1 X6.438 Y269.644 F1000.000
G1 X6.106 Y269.700 F1000.000
G1 X6.106 Y269.700 F1000.000
G1 X3.406 Y269.688 F1000.000
G1 X2.806 Y269.581 F1000.000
G1 X2.706 Y269.550 F1000.000
G1 X2.625 Y269.481 F1000.000
G1 X2.619 Y269.381 F1000.000
G1 X2.619 Y269.381 F1000.000
G1 X2.631 Y269.319 F1000.000
G1 X2.650 Y269.294 F1000.000
G1 X2.688 Y269.312 F1000.000
G1 X2.819 Y269.506 F1000.000
G1 X2.837 Y269.575 F1000.000
G1 X2.825 Y269.625 F1000.000
G1 X2.731 Y269.688 F1000.000
G1 X2.731 Y269.688 F1000.000
G1 X2.650 Y269.619 F1000.000
G1 X2.650 Y269.619 F1000.000
G1 X2.625 Y269.156 F1000.000
G1 X2.650 Y268.925 F1000.000
G1 X2.681 Y268.819 F1000.000
G0 X2.725 Y268.712
G0 X2.925 Y268.444
G0 X3.569 Y267.769
G0 X3.688 Y267.581
G0 X3.775 Y267.250
G0 X3.894 Y266.100
G0 X3.800 Y263.356
G0 X3.888 Y262.525
G0 X3.750 Y260.194
G0 X3.781 Y259.163
G0 X3.737 Y258.950
G0 X3.581 Y258.663
G0 X3.306 Y258.281
G1 X3.231 Y258.181 F1000.000
G1 X2.794 Y257.562 F1000.000
G1 X2.694 Y257.350 F1000.000
G1 X2.619 Y256.913 F1000.000
G1 X2.619 Y256.913 F1000.000
G1 X2.644 Y254.613 F1000.000
G1 X2.763 Y253.912 F1000.000
G1 X2.919 Y253.537 F1000.000
G1 X3.400 Y252.875 F1000.000
G1 X3.919 Y252.363 F1000.000
G1 X4.400 Y251.963 F1000.000
G1 X4.912 Y251.606 F1000.000
G1 X5.450 Y251.287 F1000.000
G1 X6.000 Y251.006 F1000.000
G1 X6.575 Y250.769 F1000.000
G1 X8.762 Y250.175 F1000.000
G1 X10.356 Y250.069 F1000.000
G1 X11.481 Y250.156 F1000.000
G1 X13.300 Y250.762 F1000.000
G1 X13.850 Y251.056 F1000.000
G1 X15.156 Y251.856 F1000.000
G1 X15.281 Y252.000 F1000.000
G1 X15.375 Y252.169 F1000.000
G1 X15.381 Y253.762 F1000.000
G1 X15.381 Y253.762 F1000.000
G1 X15.319 Y254.088 F1000.000
G1 X15.238 Y254.300 F1000.000
G1 X15.181 Y254.387 F1000.000
G1 X15.106 Y254.463 F1000.000
G0 X15.025 Y254.519
G0 X14.825 Y254.575
G0 X14.375 Y254.600
G0 X3.625 Y254.806
G1 X3.469 Y254.812 F1000.000
G1 X3.194 Y254.806 F1000.000
G1 X3.069 Y254.787 F1000.000
G1 X2.962 Y254.750 F1000.000
G1 X2.875 Y254.688 F1000.000
G1 X2.800 Y254.613 F1000.000
G1 X2.700 Y254.425 F1000.000
G1 X2.644 Y254.206 F1000.000
G1 X2.619 Y253.988 F1000.000
G1 X2.619 Y253.988 F1000.000
G1 X2.631 Y252.387 F1000.000
G1 X2.756 Y251.688 F1000.000
G1 X2.913 Y251.312 F1000.000
G1 X3.263 Y250.825 F1000.000
G1 X3.894 Y250.181 F1000.000
G1 X4.144 Y250.025 F1000.000
G1 X4.319 Y249.950 F1000.000
G1 X7.506 Y249.938 F1000.000
G1 X7.506 Y249.938 F1000.000
G1 X7.831 Y249.988 F1000.000
G1 X7.919 Y250.025 F1000.000
G1 X7.975 Y250.069 F1000.000
G0 X7.987 Y250.113
G0 X7.956 Y250.162
G0 X7.600 Y250.363
G0 X4.800 Y251.600
G0 X3.400 Y252.137
G1 X3.275 Y252.188 F1000.000
G1 X3.031 Y252.262 F1000.000
G1 X2.919 Y252.262 F1000.000
G1 X2.819 Y252.219 F1000.000
G1 X2.744 Y252.150 F1000.000
G1 X2.688 Y252.056 F1000.000
G1 X2.619 Y251.738 F1000.000
G1 X2.619 Y251.738 F1000.000
G1 X2.631 Y250.238 F1000.000
G1 X2.663 Y250.037 F1000.000
G1 X2.725 Y249.956 F1000.000
G1 X2.819 Y249.938 F1000.000
G1 X2.819 Y249.938 F1000.000
G1 X3.144 Y249.988 F1000.000
G1 X3.450 Y250.125 F1000.000
G1 X3.550 Y250.181 F1000.000
G0 X3.650 Y250.244
G0 X4.888 Y250.956
G0 X5.106 Y251.037
G0 X8.275 Y251.256
G0 X8.494 Y251.219
G0 X8.700 Y251.125
G0 X9.375 Y250.662
G1 X9.469 Y250.594 F1000.000
G1 X10.125 Y250.137 F1000.000
G1 X10.331 Y250.037 F1000.000
G1 X10.781 Y249.931 F1000.000
G1 X10.781 Y249.931 F1000.000
G1 X14.625 Y249.950 F1000.000
G1 X15.281 Y250.062 F1000.000
G1 X15.363 Y250.113 F1000.000
G1 X15.381 Y250.206 F1000.000
G1 X15.381 Y250.863 F1000.000
G1 X15.381 Y250.863 F1000.000
G1 X15.369 Y250.912 F1000.000
G0 X15.350 Y250.925
G1 X15.331 Y250.894 F1000.000
G1 X15.162 Y250.344 F1000.000
G1 X15.137 Y250.219 F1000.000
G1 X15.131 Y250.119 F1000.000
G1 X15.162 Y250.044 F1000.000
G1 X15.281 Y249.950 F1000.000
G1 X15.281 Y249.950 F1000.000
G1 X15.350 Y250.012 F1000.000
G1 X15.350 Y250.012 F1000.000
G1 X15.356 Y250.056 F1000.000
G1 X15.331 Y250.075 F1000.000
G1 X15.200 Y250.019 F1000.000
G1 X15.069 Y249.919 F1000.000
G1 X15.056 Y249.875 F1000.000
G1 X15.119 Y249.825 F1000.000
G1 X15.119 Y249.825 F1000.000
G1 X15.262 Y249.831 F1000.000
G1 X15.331 Y249.856 F1000.000
G1 X15.438 Y249.950 F1000.000
G1 X15.494 Y250.075 F1000.000
G1 X15.494 Y269.488 F1000.000
G1 X15.463 Y269.650 F1000.000
G1 X15.369 Y269.756 F1000.000
G1 X15.244 Y269.812 F1000.000
G1 X2.819 Y269.812 F1000.000
G1 X2.669 Y269.781 F1000.000
G1 X2.562 Y269.688 F1000.000
G1 X2.506 Y269.575 F1000.000
G1 X2.506 Y250.119 F1000.000
G1 X2.538 Y249.988 F1000.000
G1 X2.631 Y249.881 F1000.000
G1 X2.744 Y249.825 F1000.000
G1 X15.125 Y249.819 F1000.000
G1 X15.119 Y249.825 F1000.000
G0 Z15.000
(Helix to depth: -5.500000)
G0 X9.191 Y531.643 Z15.000
G0 X9.191 Y531.643 Z3.000
G1 X9.191 Y531.643 Z-5.000 F100.000
G1 X9.191 Y531.643 Z-5.000 F100.000
G1 X8.826 Y531.644 Z-5.032 F100.000
G1 X8.467 Y531.575 Z-5.064 F100.000
G1 X8.128 Y531.436 Z-5.097 F100.000
G1 X7.823 Y531.235 Z-5.129 F100.000
G1 X7.564 Y530.977 Z-5.161 F100.000
G1 X7.359 Y530.674 Z-5.193 F100.000
G1 X7.218 Y530.337 Z-5.225 F100.000
G1 X7.145 Y529.979 Z-5.258 F100.000
G1 X7.143 Y529.613 Z-5.290 F100.000
G1 X7.213 Y529.254 Z-5.322 F100.000
G1 X7.351 Y528.916 Z-5.354 F100.000
G1 X7.553 Y528.611 Z-5.387 F100.000
G1 X7.810 Y528.351 Z-5.419 F100.000
G1 X8.113 Y528.147 Z-5.451 F100.000
G1 X8.450 Y528.005 Z-5.483 F100.000
G1 X8.809 Y527.932 Z-5.500 F1000.000
G1 X9.174 Y527.931 Z-5.500 F1000.000
G1 X9.533 Y528.000 Z-5.500 F1000.000
G1 X9.872 Y528.139 Z-5.500 F1000.000
G1 X10.177 Y528.340 Z-5.500 F1000.000
G1 X10.436 Y528.598 Z-5.500 F1000.000
G1 X10.641 Y528.901 Z-5.500 F1000.000
G1 X10.782 Y529.238 Z-5.500 F1000.000
G1 X10.855 Y529.596 Z-5.500 F1000.000
G1 X10.857 Y529.962 Z-5.500 F1000.000
G1 X10.787 Y530.321 Z-5.500 F1000.000
G1 X10.649 Y530.659 Z-5.500 F1000.000
G1 X10.447 Y530.964 Z-5.500 F1000.000
G1 X10.190 Y531.224 Z-5.500 F1000.000
G1 X9.887 Y531.428 Z-5.500 F1000.000
G1 X9.550 Y531.570 Z-5.500 F1000.000
G1 X9.191 Y531.643 Z-5.500 F1000.000
G1 X8.826 Y531.644 Z-5.500 F1000.000
G1 X8.467 Y531.575 Z-5.500 F1000.000
G1 X8.128 Y531.436 Z-5.500 F1000.000
G1 X7.823 Y531.235 Z-5.500 F1000.000
G1 X7.564 Y530.977 Z-5.500 F1000.000
G1 X7.359 Y530.674 Z-5.500 F1000.000
G1 X7.218 Y530.337 Z-5.500 F1000.000
G1 X7.145 Y529.979 Z-5.500 F1000.000
G1 X7.143 Y529.613 Z-5.500 F1000.000
G1 X7.213 Y529.254 Z-5.500 F1000.000
G1 X7.351 Y528.916 Z-5.500 F1000.000
G1 X7.553 Y528.611 Z-5.500 F1000.000
G1 X7.810 Y528.351 Z-5.500 F1000.000
G1 X8.113 Y528.147 Z-5.500 F1000.000
G1 X8.450 Y528.005 Z-5.500 F1000.000
(Adaptive - depth: -5.500000)
G1 X9.000 Y527.913 F1000.000
G1 X9.069 Y527.837 F1000.000
G1 X9.175 Y527.669 F1000.000
G1 X9.338 Y527.550 F1000.000
G1 X9.512 Y527.462 F1000.000
G1 X9.700 Y527.406 F1000.000
G1 X10.250 Y527.400 F1000.000
G1 X10.569 Y527.475 F1000.000
G1 X10.794 Y527.569 F1000.000
G1 X11.012 Y527.681 F1000.000
G1 X11.300 Y527.894 F1000.000
G1 X11.562 Y528.175 F1000.000
G1 X11.750 Y528.425 F1000.000
G1 X11.919 Y528.737 F1000.000
G1 X12.050 Y529.056 F1000.000
G1 X12.150 Y529.462 F1000.000
G1 X12.194 Y529.831 F1000.000
G1 X12.194 Y530.206 F1000.000
G1 X12.137 Y530.594 F1000.000
G1 X12.037 Y530.956 F1000.000
G1 X11.887 Y531.312 F1000.000
G1 X11.694 Y531.644 F1000.000
G1 X11.456 Y531.950 F1000.000
G1 X11.181 Y532.225 F1000.000
G1 X10.875 Y532.462 F1000.000
G1 X10.537 Y532.656 F1000.000
G1 X10.181 Y532.806 F1000.000
G1 X9.812 Y532.931 F1000.000
G1 X9.331 Y533.019 F1000.000
G1 X8.919 Y533.050 F1000.000
G1 X8.494 Y533.013 F1000.000
G1 X8.150 Y532.944 F1000.000
G1 X7.775 Y532.819 F1000.000
G1 X7.425 Y532.644 F1000.000
G1 X7.106 Y532.438 F1000.000
G1 X6.794 Y532.206 F1000.000
G1 X6.400 Y531.806 F1000.000
G1 X6.156 Y531.456 F1000.000
G1 X5.994 Y531.156 F1000.000
G1 X5.875 Y530.837 F1000.000
G1 X5.769 Y530.487 F1000.000
G1 X5.706 Y529.987 F1000.000
G1 X5.700 Y529.600 F1000.000
G1 X5.737 Y529.188 F1000.000
G1 X5.831 Y528.763 F1000.000
G1 X5.969 Y528.375 F1000.000
G1 X6.150 Y528.000 F1000.000
G1 X6.394 Y527.656 F1000.000
G1 X6.894 Y527.100 F1000.000
G1 X7.356 Y526.681 F1000.000
G1 X7.875 Y526.337 F1000.000
G1 X8.281 Y526.131 F1000.000
G1 X8.650 Y525.975 F1000.000
G1 X9.131 Y525.844 F1000.000
G1 X9.569 Y525.794 F1000.000
G1 X9.931 Y525.781 F1000.000
G1 X10.356 Y525.831 F1000.000
G1 X10.756 Y525.931 F1000.000
G1 X11.137 Y526.050 F1000.000
G1 X11.606 Y526.275 F1000.000
G1 X11.975 Y526.500 F1000.000
G1 X12.331 Y526.769 F1000.000
G1 X12.662 Y527.094 F1000.000
G1 X12.950 Y527.438 F1000.000
G1 X13.200 Y527.812 F1000.000
G1 X13.412 Y528.219 F1000.000
G1 X13.575 Y528.638 F1000.000
G1 X13.694 Y529.075 F1000.000
G1 X13.762 Y529.525 F1000.000
G1 X13.781 Y529.975 F1000.000
G1 X13.750 Y530.425 F1000.000
G1 X13.694 Y530.875 F1000.000
G1 X13.544 Y531.462 F1000.000
G1 X13.375 Y531.931 F1000.000
G1 X13.131 Y532.381 F1000.000
G1 X12.919 Y532.700 F1000.000
G1 X12.625 Y533.050 F1000.000
G1 X12.312 Y533.362 F1000.000
G1 X11.894 Y533.694 F1000.000
G1 X11.494 Y533.950 F1000.000
G1 X11.062 Y534.169 F1000.000
G1 X10.606 Y534.369 F1000.000
G1 X10.006 Y534.556 F1000.000
G1 X9.488 Y534.644 F1000.000
G1 X9.069 Y534.663 F1000.000
G1 X8.662 Y534.644 F1000.000
G1 X8.219 Y534.600 F1000.000
G1 X7.606 Y534.450 F1000.000
G1 X7.144 Y534.294 F1000.000
G1 X6.669 Y534.094 F1000.000
G1 X6.200 Y533.825 F1000.000
G1 X5.775 Y533.531 F1000.000
G1 X5.394 Y533.169 F1000.000
G1 X5.131 Y532.875 F1000.000
G1 X4.862 Y532.494 F1000.000
G1 X4.625 Y532.106 F1000.000
G1 X4.381 Y531.581 F1000.000
G1 X4.219 Y531.112 F1000.000
G1 X4.094 Y530.625 F1000.000
G1 X4.019 Y530.106 F1000.000
G1 X3.994 Y529.600 F1000.000
G1 X4.019 Y529.094 F1000.000
G1 X4.094 Y528.581 F1000.000
G1 X4.237 Y528.094 F1000.000
G1 X4.381 Y527.719 F1000.000
G1 X4.575 Y527.288 F1000.000
G1 X4.888 Y526.744 F1000.000
G1 X5.250 Y526.231 F1000.000
G1 X5.638 Y525.812 F1000.000
G1 X5.956 Y525.513 F1000.000
G1 X6.362 Y525.169 F1000.000
G1 X6.888 Y524.831 F1000.000
G1 X7.356 Y524.569 F1000.000
G1 X7.881 Y524.331 F1000.000
G1 X8.450 Y524.169 F1000.000
G1 X8.887 Y524.075 F1000.000
G1 X9.412 Y524.013 F1000.000
G1 X9.925 Y524.013 F1000.000
G1 X10.412 Y524.050 F1000.000
G1 X10.912 Y524.144 F1000.000
G1 X11.400 Y524.288 F1000.000
G1 X11.869 Y524.475 F1000.000
G1 X12.331 Y524.681 F1000.000
G1 X12.863 Y525.000 F1000.000
G1 X13.331 Y525.325 F1000.000
G1 X13.775 Y525.725 F1000.000
G1 X14.106 Y526.069 F1000.000
G1 X14.438 Y526.494 F1000.000
G1 X14.850 Y527.200 F1000.000
G1 X15.131 Y527.919 F1000.000
G1 X15.275 Y528.669 F1000.000
G1 X15.363 Y530.544 F1000.000
G1 X15.275 Y531.481 F1000.000
G1 X15.137 Y532.044 F1000.000
G1 X14.637 Y533.013 F1000.000
G1 X14.269 Y533.631 F1000.000
G1 X13.887 Y534.125 F1000.000
G1 X13.463 Y534.581 F1000.000
G1 X13.044 Y534.956 F1000.000
G1 X12.656 Y535.250 F1000.000
G1 X12.156 Y535.550 F1000.000
G1 X11.669 Y535.788 F1000.000
G1 X11.169 Y535.981 F1000.000
G1 X10.644 Y536.156 F1000.000
G1 X10.031 Y536.294 F1000.000
G1 X9.438 Y536.381 F1000.000
G1 X8.812 Y536.394 F1000.000
G1 X8.338 Y536.369 F1000.000
G1 X7.781 Y536.288 F1000.000
G1 X7.244 Y536.188 F1000.000
G1 X6.644 Y536.006 F1000.000
G1 X6.075 Y535.788 F1000.000
G1 X5.519 Y535.494 F1000.000
G1 X5.112 Y535.244 F1000.000
G1 X4.662 Y534.900 F1000.000
G1 X4.263 Y534.525 F1000.000
G1 X3.906 Y534.131 F1000.000
G1 X3.556 Y533.712 F1000.000
G1 X3.112 Y533.013 F1000.000
G1 X2.812 Y532.356 F1000.000
G1 X2.631 Y531.656 F1000.000
G1 X2.650 Y527.456 F1000.000
G1 X2.800 Y526.656 F1000.000
G1 X2.944 Y526.275 F1000.000
G1 X3.456 Y525.406 F1000.000
G1 X3.844 Y524.919 F1000.000
G1 X4.275 Y524.469 F1000.000
G1 X4.731 Y524.044 F1000.000
G1 X5.206 Y523.638 F1000.000
G1 X5.706 Y523.269 F1000.000
G1 X6.688 Y522.756 F1000.000
G1 X7.269 Y522.525 F1000.000
G1 X7.869 Y522.356 F1000.000
G1 X8.444 Y522.225 F1000.000
G1 X9.062 Y522.144 F1000.000
G1 X9.681 Y522.112 F1000.000
G1 X10.294 Y522.131 F1000.000
G1 X10.912 Y522.200 F1000.000
G1 X11.525 Y522.319 F1000.000
G1 X12.113 Y522.513 F1000.000
G1 X12.556 Y522.688 F1000.000
G1 X13.069 Y522.919 F1000.000
G1 X13.600 Y523.244 F1000.000
G1 X14.575 Y523.944 F1000.000
G1 X15.169 Y524.500 F1000.000
G1 X15.275 Y524.656 F1000.000
G1 X15.381 Y524.919 F1000.000
G1 X15.381 Y528.106 F1000.000
G1 X15.381 Y528.106 F1000.000
G1 X15.319 Y528.431 F1000.000
G1 X15.144 Y528.850 F1000.000
G0 X15.113 Y528.956
G0 X15.062 Y530.031
G1 X15.069 Y530.144 F1000.000
G1 X15.075 Y530.487 F1000.000
G1 X15.125 Y530.700 F1000.000
G1 X15.300 Y531.125 F1000.000
G1 X15.381 Y531.575 F1000.000
G1 X15.381 Y531.575 F1000.000
G1 X15.356 Y533.825 F1000.000
G1 X15.219 Y534.481 F1000.000
G1 X15.106 Y534.756 F1000.000
G1 X14.588 Y535.481 F1000.000
G1 X14.131 Y536.044 F1000.000
G1 X13.681 Y536.475 F1000.000
G1 X13.188 Y536.856 F1000.000
G1 X12.744 Y537.138 F1000.000
G1 X11.819 Y537.600 F1000.000
G1 X11.225 Y537.806 F1000.000
G1 X10.656 Y537.962 F1000.000
G1 X10.044 Y538.087 F1000.000
G1 X9.419 Y538.156 F1000.000
G1 X8.794 Y538.181 F1000.000
G1 X8.169 Y538.156 F1000.000
G1 X7.544 Y538.081 F1000.000
G1 X6.925 Y537.962 F1000.000
G1 X6.319 Y537.800 F1000.000
G1 X5.725 Y537.587 F1000.000
G1 X5.150 Y537.331 F1000.000
G1 X4.594 Y537.031 F1000.000
G1 X4.062 Y536.688 F1000.000
G1 X3.562 Y536.306 F1000.000
G1 X2.875 Y535.663 F1000.000
G1 X2.706 Y535.400 F1000.000
G1 X2.619 Y535.212 F1000.000
G1 X2.619 Y533.312 F1000.000
G1 X2.619 Y533.312 F1000.000
G1 X2.663 Y532.969 F1000.000
G1 X2.737 Y532.756 F1000.000
G1 X2.794 Y532.663 F1000.000
G1 X2.862 Y532.587 F1000.000
G0 X2.950 Y532.538
G0 X3.044 Y532.506
G0 X3.362 Y532.494
G0 X14.344 Y533.350
G1 X14.488 Y533.362 F1000.000
G1 X14.844 Y533.406 F1000.000
G1 X14.944 Y533.431 F1000.000
G1 X15.037 Y533.481 F1000.000
G1 X15.119 Y533.550 F1000.000
G1 X15.250 Y533.725 F1000.000
G1 X15.325 Y533.938 F1000.000
G1 X15.381 Y534.275 F1000.000
G1 X15.381 Y534.275 F1000.000
G1 X15.369 Y535.775 F1000.000
G1 X15.231 Y536.525 F1000.000
G1 X15.125 Y536.800 F1000.000
G1 X14.650 Y537.438 F1000.000
G1 X14.169 Y537.981 F1000.000
G1 X13.700 Y538.394 F1000.000
G1 X13.188 Y538.756 F1000.000
G1 X12.738 Y539.019 F1000.000
G1 X11.600 Y539.438 F1000.000
G1 X10.100 Y539.700 F1000.000
G1 X6.800 Y539.663 F1000.000
G1 X5.900 Y539.538 F1000.000
G1 X4.713 Y539.150 F1000.000
G1 X4.150 Y538.881 F1000.000
G1 X3.594 Y538.594 F1000.000
G1 X2.888 Y538.138 F1000.000
G1 X2.744 Y537.987 F1000.000
G1 X2.638 Y537.812 F1000.000
G1 X2.619 Y537.712 F1000.000
G1 X2.619 Y536.612 F1000.000
G1 X2.619 Y536.612 F1000.000
G1 X2.663 Y536.269 F1000.000
G1 X2.737 Y536.056 F1000.000
G1 X2.794 Y535.962 F1000.000
G1 X2.862 Y535.881 F1000.000
G0 X2.950 Y535.825
G0 X3.144 Y535.769
G0 X3.594 Y535.737
G0 X14.344 Y535.456
G1 X14.488 Y535.456 F1000.000
G1 X14.844 Y535.456 F1000.000
G1 X14.944 Y535.475 F1000.000
G1 X15.037 Y535.513 F1000.000
G1 X15.119 Y535.581 F1000.000
G1 X15.250 Y535.750 F1000.000
G1 X15.325 Y535.962 F1000.000
G1 X15.381 Y536.300 F1000.000
G1 X15.381 Y536.300 F1000.000
G1 X15.363 Y537.800 F1000.000
G1 X15.250 Y538.362 F1000.000
G1 X15.150 Y538.644 F1000.000
G1 X14.812 Y539.131 F1000.000
G1 X14.463 Y539.494 F1000.000
G1 X14.200 Y539.644 F1000.000
G1 X14.106 Y539.681 F1000.000
G1 X14.006 Y539.700 F1000.000
G1 X11.006 Y539.700 F1000.000
G1 X11.006 Y539.700 F1000.000
G1 X10.775 Y539.669 F1000.000
G1 X10.569 Y539.606 F1000.000
G1 X10.506 Y539.556 F1000.000
G0 X10.488 Y539.494
G0 X10.500 Y539.425
G0 X10.681 Y539.194
G0 X11.169 Y538.719
G0 X11.262 Y538.650
G0 X11.463 Y538.575
G0 X12.613 Y538.487
G0 X14.556 Y537.875
G1 X14.662 Y537.837 F1000.000
G1 X14.981 Y537.744 F1000.000
G1 X15.081 Y537.737 F1000.000
G1 X15.162 Y537.769 F1000.000
G1 X15.231 Y537.825 F1000.000
G1 X15.281 Y537.900 F1000.000
G1 X15.350 Y538.100 F1000.000
G1 X15.381 Y538.325 F1000.000
G1 X15.381 Y538.325 F1000.000
G1 X15.363 Y539.450 F1000.000
G1 X15.325 Y539.638 F1000.000
G1 X15.250 Y539.700 F1000.000
G1 X15.050 Y539.700 F1000.000
G1 X15.050 Y539.700 F1000.000
G1 X14.819 Y539.669 F1000.000
G1 X14.600 Y539.612 F1000.000
G1 X14.287 Y539.450 F1000.000
G0 X14.188 Y539.394
G0 X12.675 Y538.644
G0 X12.456 Y538.575
G0 X8.881 Y538.538
G0 X8.662 Y538.575
G0 X7.531 Y539.087
G1 X7.425 Y539.144 F1000.000
G1 X7.306 Y539.200 F1000.000
G1 X6.650 Y539.569 F1000.000
G1 X6.438 Y539.644 F1000.000
G1 X6.106 Y539.700 F1000.000
G1 X6.106 Y539.700 F1000.000
G1 X3.406 Y539.688 F1000.000
G1 X2.806 Y539.575 F1000.000
G1 X2.706 Y539.544 F1000.000
G1 X2.625 Y539.475 F1000.000
G1 X2.619 Y539.375 F1000.000
G1 X2.619 Y539.375 F1000.000
G1 X2.631 Y539.312 F1000.000
G1 X2.656 Y539.294 F1000.000
G1 X2.688 Y539.312 F1000.000
G1 X2.825 Y539.506 F1000.000
G1 X2.844 Y539.575 F1000.000
G1 X2.825 Y539.625 F1000.000
G1 X2.731 Y539.688 F1000.000
G1 X2.731 Y539.688 F1000.000
G1 X2.650 Y539.619 F1000.000
G1 X2.650 Y539.619 F1000.000
G1 X2.625 Y539.156 F1000.000
G1 X2.650 Y538.925 F1000.000
G1 X2.681 Y538.819 F1000.000
G0 X2.725 Y538.719
G0 X2.938 Y538.450
G0 X3.606 Y537.781
G0 X3.675 Y537.694
G0 X3.719 Y537.594
G0 X3.769 Y537.375
G0 X3.800 Y533.231
G0 X3.888 Y532.525
G0 X3.750 Y530.194
G0 X3.781 Y529.163
G0 X3.737 Y528.950
G0 X3.581 Y528.663
G0 X3.306 Y528.281
G1 X3.231 Y528.181 F1000.000
G1 X2.794 Y527.562 F1000.000
G1 X2.694 Y527.350 F1000.000
G1 X2.619 Y526.913 F1000.000
G1 X2.619 Y526.913 F1000.000
G1 X2.644 Y524.612 F1000.000
G1 X2.763 Y523.913 F1000.000
G1 X2.919 Y523.538 F1000.000
G1 X3.456 Y522.800 F1000.000
G1 X3.900 Y522.362 F1000.000
G1 X4.381 Y521.962 F1000.000
G1 X4.894 Y521.606 F1000.000
G1 X5.419 Y521.269 F1000.000
G1 X5.969 Y520.975 F1000.000
G1 X7.375 Y520.431 F1000.000
G1 X8.594 Y520.163 F1000.000
G1 X10.375 Y520.044 F1000.000
G1 X11.406 Y520.131 F1000.000
G1 X12.887 Y520.587 F1000.000
G1 X13.238 Y520.737 F1000.000
G1 X13.787 Y521.025 F1000.000
G1 X15.175 Y521.881 F1000.000
G1 X15.344 Y522.112 F1000.000
G1 X15.381 Y522.200 F1000.000
G1 X15.381 Y523.700 F1000.000
G1 X15.381 Y523.700 F1000.000
G1 X15.319 Y524.025 F1000.000
G1 X15.238 Y524.237 F1000.000
G1 X15.181 Y524.325 F1000.000
G1 X15.106 Y524.406 F1000.000
G0 X15.025 Y524.456
G0 X14.825 Y524.513
G0 X14.375 Y524.544
G0 X3.625 Y524.800
G1 X3.469 Y524.806 F1000.000
G1 X3.194 Y524.806 F1000.000
G1 X3.069 Y524.788 F1000.000
G1 X2.962 Y524.750 F1000.000
G1 X2.875 Y524.688 F1000.000
G1 X2.800 Y524.612 F1000.000
G1 X2.700 Y524.425 F1000.000
G1 X2.644 Y524.206 F1000.000
G1 X2.619 Y523.987 F1000.000
G1 X2.619 Y523.987 F1000.000
G1 X2.631 Y522.288 F1000.000
G1 X2.737 Y521.688 F1000.000
G1 X2.881 Y521.306 F1000.000
G1 X3.356 Y520.663 F1000.000
G1 X3.850 Y520.163 F1000.000
G1 X4.194 Y519.969 F1000.000
G1 X4.287 Y519.938 F1000.000
G1 X7.475 Y519.938 F1000.000
G1 X7.475 Y519.938 F1000.000
G1 X7.800 Y519.987 F1000.000
G1 X7.888 Y520.025 F1000.000
G1 X7.944 Y520.069 F1000.000
G0 X7.956 Y520.112
G0 X7.925 Y520.163
G0 X7.575 Y520.362
G0 X4.787 Y521.600
G0 X3.394 Y522.138
G1 X3.275 Y522.188 F1000.000
G1 X3.031 Y522.263 F1000.000
G1 X2.919 Y522.263 F1000.000
G1 X2.819 Y522.219 F1000.000
G1 X2.744 Y522.150 F1000.000
G1 X2.688 Y522.056 F1000.000
G1 X2.619 Y521.737 F1000.000
G1 X2.619 Y521.737 F1000.000
G1 X2.631 Y520.237 F1000.000
G1 X2.656 Y520.038 F1000.000
G1 X2.719 Y519.962 F1000.000
G1 X2.812 Y519.938 F1000.000
G1 X2.812 Y519.938 F1000.000
G1 X3.138 Y519.987 F1000.000
G1 X3.444 Y520.125 F1000.000
G1 X3.544 Y520.181 F1000.000
G0 X3.644 Y520.244
G0 X4.881 Y520.956
G0 X5.100 Y521.038
G0 X8.275 Y521.256
G0 X8.494 Y521.219
G0 X8.700 Y521.125
G0 X9.375 Y520.663
G1 X9.469 Y520.594 F1000.000
G1 X10.125 Y520.138 F1000.000
G1 X10.331 Y520.038 F1000.000
G1 X10.781 Y519.931 F1000.000
G1 X10.781 Y519.931 F1000.000
G1 X14.719 Y519.956 F1000.000
G1 X15.281 Y520.062 F1000.000
G1 X15.356 Y520.119 F1000.000
G1 X15.381 Y520.212 F1000.000
G1 X15.381 Y520.962 F1000.000
G1 X15.381 Y520.962 F1000.000
G1 X15.363 Y520.994 F1000.000
G0 X15.344 Y520.987
G1 X15.319 Y520.931 F1000.000
G1 X15.150 Y520.350 F1000.000
G1 X15.131 Y520.225 F1000.000
G1 X15.131 Y520.119 F1000.000
