(Exported by FreeCAD)
(Post Processor: grbl_post)
(Output Time:2020-12-04 19:40:45.271726)
(Begin preamble)
G17 G90
G21
(Begin operation: Fixture)
(Path: Fixture)
G54
(Finish operation: Fixture)
(Begin operation: TC: Default Tool001)
(Path: TC: Default Tool001)
(TC: Default Tool001)
(Begin toolchange)
( M6 T1.0 )
M3 S24000.0
(Finish operation: TC: Default Tool001)
(Begin operation: Helix)
(Path: Helix)
(Helix)
(helix cut operation)
G0 Z5.000
G0 X20.050 Y20.000
G0 Z3.000
G1 Z0.000 F100.000
G2 X19.950 Y20.000 Z-0.500 I-0.050 J0.000 F1000.000
G2 X20.050 Y20.000 Z-1.000 I0.050 J0.000 F1000.000
G2 X19.950 Y20.000 Z-1.500 I-0.050 J0.000 F1000.000
G2 X20.050 Y20.000 Z-2.000 I0.050 J0.000 F1000.000
G2 X19.950 Y20.000 Z-2.000 I-0.050 J0.000 F1000.000
G2 X20.050 Y20.000 Z-2.000 I0.050 J0.000 F1000.000
G0 Z3.000
G0 X293.250 Y57.500
G0 Z3.000
G1 Z0.000 F100.000
G2 X293.150 Y57.500 Z-0.500 I-0.050 J0.000 F1000.000
G2 X293.250 Y57.500 Z-1.000 I0.050 J0.000 F1000.000
G2 X293.150 Y57.500 Z-1.500 I-0.050 J0.000 F1000.000
G2 X293.250 Y57.500 Z-2.000 I0.050 J0.000 F1000.000
G2 X293.150 Y57.500 Z-2.000 I-0.050 J0.000 F1000.000
G2 X293.250 Y57.500 Z-2.000 I0.050 J0.000 F1000.000
G0 Z3.000
G0 X337.250 Y57.500
G0 Z3.000
G1 Z0.000 F100.000
G2 X337.150 Y57.500 Z-0.500 I-0.050 J0.000 F1000.000
G2 X337.250 Y57.500 Z-1.000 I0.050 J0.000 F1000.000
G2 X337.150 Y57.500 Z-1.500 I-0.050 J0.000 F1000.000
G2 X337.250 Y57.500 Z-2.000 I0.050 J0.000 F1000.000
G2 X337.150 Y57.500 Z-2.000 I-0.050 J0.000 F1000.000
G2 X337.250 Y57.500 Z-2.000 I0.050 J0.000 F1000.000
G0 Z3.000
G0 X330.050 Y20.000
G0 Z3.000
G1 Z0.000 F100.000
G2 X329.950 Y20.000 Z-0.500 I-0.050 J0.000 F1000.000
G2 X330.050 Y20.000 Z-1.000 I0.050 J0.000 F1000.000
G2 X329.950 Y20.000 Z-1.500 I-0.050 J0.000 F1000.000
G2 X330.050 Y20.000 Z-2.000 I0.050 J0.000 F1000.000
G2 X329.950 Y20.000 Z-2.000 I-0.050 J0.000 F1000.000
G2 X330.050 Y20.000 Z-2.000 I0.050 J0.000 F1000.000
G0 Z3.000
G0 X330.050 Y490.000
G0 Z3.000
G1 Z0.000 F100.000
G2 X329.950 Y490.000 Z-0.500 I-0.050 J0.000 F1000.000
G2 X330.050 Y490.000 Z-1.000 I0.050 J0.000 F1000.000
G2 X329.950 Y490.000 Z-1.500 I-0.050 J0.000 F1000.000
G2 X330.050 Y490.000 Z-2.000 I0.050 J0.000 F1000.000
G2 X329.950 Y490.000 Z-2.000 I-0.050 J0.000 F1000.000
G2 X330.050 Y490.000 Z-2.000 I0.050 J0.000 F1000.000
G0 Z3.000
G0 X330.050 Y530.000
G0 Z3.000
G1 Z0.000 F100.000
G2 X329.950 Y530.000 Z-0.500 I-0.050 J0.000 F1000.000
G2 X330.050 Y530.000 Z-1.000 I0.050 J0.000 F1000.000
G2 X329.950 Y530.000 Z-1.500 I-0.050 J0.000 F1000.000
G2 X330.050 Y530.000 Z-2.000 I0.050 J0.000 F1000.000
G2 X329.950 Y530.000 Z-2.000 I-0.050 J0.000 F1000.000
G2 X330.050 Y530.000 Z-2.000 I0.050 J0.000 F1000.000
G0 Z3.000
(Finish operation: Helix)
(Begin postamble)
M5
G17 G90
M2
