(Exported by FreeCAD)
(Post Processor: grbl_post)
(Output Time:2020-12-04 19:53:33.247921)
(Begin preamble)
G17 G90
G21
(Begin operation: Fixture)
(Path: Fixture)
G54
(Finish operation: Fixture)
(Begin operation: TC: Default Tool)
(Path: TC: Default Tool)
(TC: Default Tool)
(Begin toolchange)
( M6 T1.0 )
M3 S24000.0
(Finish operation: TC: Default Tool)
(Begin operation: DressupTag)
(Path: DressupTag)
G0 Z5.000
G0 X175.408 Y345.909 Z5.000
G0 X175.408 Y345.909 Z3.000
G1 X175.408 Y345.909 Z-5.000 F100.000
G2 X181.998 Y330.079 Z-5.000 I-15.911 J-15.910 K0.000 F1000.000
G1 X181.999 Y20.000 Z-5.000 F1000.000
G2 X159.577 Y-2.499 Z-5.000 I-22.501 J0.002 K0.000 F1000.000
G1 X75.000 Y-2.500 Z-5.000 F1000.000
G2 X72.500 Y0.000 Z-5.000 I0.000 J2.500 K0.000 F1000.000
G1 X72.500 Y7.197 Z-5.000 F1000.000
G2 X77.165 Y8.447 Z-5.000 I2.500 J-0.000 K0.000 F1000.000
G1 X78.031 Y6.947 Z-5.000 F1000.000
G3 X111.555 Y26.961 Z-5.000 I-52.780 J126.489 K0.000 F1000.000
G2 X113.105 Y27.500 Z-5.000 I1.551 J-1.961 K0.000 F1000.000
G1 X163.499 Y27.500 Z-5.000 F1000.000
G1 X163.499 Y42.500 Z-5.000 F1000.000
G1 X133.234 Y42.500 Z-5.000 F1000.000
G2 X131.282 Y46.563 Z-5.000 I0.000 J2.500 K0.000 F1000.000
G3 X78.031 Y260.652 Z-5.000 I-106.271 J87.234 K0.000 F1000.000
G1 X53.719 Y218.543 Z-5.000 F1000.000
G2 X50.851 Y217.394 Z-5.000 I-2.165 J1.250 K0.000 F1000.000
G3 X0.659 Y217.847 Z-5.000 I-25.852 J-83.607 K0.000 F1000.000
G2 X-2.500 Y220.258 Z-5.000 I-0.659 J2.411 K0.000 F1000.000
G1 X-2.500 Y350.000 Z-5.000 F1000.000
G2 X0.000 Y352.500 Z-5.000 I2.500 J-0.000 K0.000 F1000.000
G1 X159.499 Y352.500 Z-5.000 F1000.000
G2 X175.408 Y345.909 Z-5.000 I-0.002 J-22.501 K0.000 F1000.000
G1 X175.408 Y345.909 Z-10.000 F100.000
G2 X181.998 Y330.079 Z-10.000 I-15.911 J-15.910 K0.000 F1000.000
G1 X181.999 Y20.000 Z-10.000 F1000.000
G2 X159.577 Y-2.499 Z-10.000 I-22.501 J0.002 K0.000 F1000.000
G1 X75.000 Y-2.500 Z-10.000 F1000.000
G2 X72.500 Y0.000 Z-10.000 I0.000 J2.500 K0.000 F1000.000
G1 X72.500 Y7.197 Z-10.000 F1000.000
G2 X77.165 Y8.447 Z-10.000 I2.500 J-0.000 K0.000 F1000.000
G1 X78.031 Y6.947 Z-10.000 F1000.000
G3 X111.555 Y26.961 Z-10.000 I-52.780 J126.489 K0.000 F1000.000
G2 X113.105 Y27.500 Z-10.000 I1.551 J-1.961 K0.000 F1000.000
G1 X163.499 Y27.500 Z-10.000 F1000.000
G1 X163.499 Y42.500 Z-10.000 F1000.000
G1 X133.234 Y42.500 Z-10.000 F1000.000
G2 X131.282 Y46.563 Z-10.000 I0.000 J2.500 K0.000 F1000.000
G3 X78.031 Y260.652 Z-10.000 I-106.271 J87.234 K0.000 F1000.000
G1 X53.719 Y218.543 Z-10.000 F1000.000
G2 X50.851 Y217.394 Z-10.000 I-2.165 J1.250 K0.000 F1000.000
G3 X0.659 Y217.847 Z-10.000 I-25.852 J-83.607 K0.000 F1000.000
G2 X-2.500 Y220.258 Z-10.000 I-0.659 J2.411 K0.000 F1000.000
G1 X-2.500 Y350.000 Z-10.000 F1000.000
G2 X0.000 Y352.500 Z-10.000 I2.500 J-0.000 K0.000 F1000.000
G1 X159.499 Y352.500 Z-10.000 F1000.000
G2 X175.408 Y345.909 Z-10.000 I-0.002 J-22.501 K0.000 F1000.000
G1 X175.408 Y345.909 Z-15.000 F100.000
G2 X181.998 Y330.079 Z-15.000 I-15.911 J-15.910 K0.000 F1000.000
G1 X181.998 Y188.494 Z-15.000 F1000.000
G1 X181.998 Y187.994 Z-14.500 F550.000
G1 X181.998 Y162.084 Z-14.500 F1000.000
G1 X181.998 Y161.584 Z-15.000 F550.000
G1 X181.999 Y20.000 Z-15.000 F1000.000
G2 X159.577 Y-2.499 Z-15.000 I-22.501 J0.002 K0.000 F1000.000
G1 X136.615 Y-2.499 Z-15.000 F1000.000
G1 X136.115 Y-2.499 Z-14.500 F550.000
G1 X110.205 Y-2.499 Z-14.500 F1000.000
G1 X109.705 Y-2.499 Z-15.000 F550.000
G1 X75.000 Y-2.500 Z-15.000 F1000.000
G2 X72.500 Y0.000 Z-15.000 I0.000 J2.500 K0.000 F1000.000
G1 X72.500 Y7.197 Z-15.000 F1000.000
G2 X77.165 Y8.447 Z-15.000 I2.500 J-0.000 K0.000 F1000.000
G1 X78.031 Y6.947 Z-15.000 F1000.000
G3 X111.555 Y26.961 Z-15.000 I-52.780 J126.489 K0.000 F1000.000
G2 X113.105 Y27.500 Z-15.000 I1.551 J-1.961 K0.000 F1000.000
G1 X163.499 Y27.500 Z-15.000 F1000.000
G1 X163.499 Y42.500 Z-15.000 F1000.000
G1 X133.234 Y42.500 Z-15.000 F1000.000
G2 X131.282 Y46.563 Z-15.000 I0.000 J2.500 K0.000 F1000.000
G3 X161.442 Y150.827 Z-15.000 I-106.271 J87.234 K0.000 F1000.000
G1 X161.379 Y151.324 Z-14.500
G3 X155.678 Y176.569 Z-14.500 I-136.368 J-17.526 K0.000 F1000.000
G1 X155.522 Y177.045 Z-15.000
G3 X78.031 Y260.652 Z-15.000 I-130.510 J-43.248 K0.000 F1000.000
G1 X53.719 Y218.543 Z-15.000 F1000.000
G2 X50.851 Y217.394 Z-15.000 I-2.165 J1.250 K0.000 F1000.000
G3 X0.659 Y217.847 Z-15.000 I-25.852 J-83.607 K0.000 F1000.000
G2 X-2.500 Y220.258 Z-15.000 I-0.659 J2.411 K0.000 F1000.000
G1 X-2.500 Y273.905 Z-15.000 F1000.000
G1 X-2.500 Y274.405 Z-14.500 F550.000
G1 X-2.500 Y300.315 Z-14.500 F1000.000
G1 X-2.500 Y300.815 Z-15.000 F550.000
G1 X-2.500 Y350.000 Z-15.000 F1000.000
G2 X0.000 Y352.500 Z-15.000 I2.500 J-0.000 K0.000 F1000.000
G1 X66.294 Y352.500 Z-15.000 F1000.000
G1 X66.794 Y352.500 Z-14.500 F550.000
G1 X92.704 Y352.500 Z-14.500 F1000.000
G1 X93.204 Y352.500 Z-15.000 F550.000
G1 X159.499 Y352.500 Z-15.000 F1000.000
G2 X175.408 Y345.909 Z-15.000 I-0.002 J-22.501 K0.000 F1000.000
G1 X175.408 Y345.909 Z-19.500 F100.000
G2 X181.998 Y330.079 Z-19.500 I-15.911 J-15.910 K0.000 F1000.000
G1 X181.998 Y192.994 Z-19.500 F1000.000
G1 X181.998 Y187.994 Z-14.500 F550.000
G1 X181.998 Y162.084 Z-14.500 F1000.000
G1 X181.998 Y157.084 Z-19.500 F550.000
G1 X181.999 Y20.000 Z-19.500 F1000.000
G2 X159.577 Y-2.499 Z-19.500 I-22.501 J0.002 K0.000 F1000.000
G1 X141.115 Y-2.499 Z-19.500 F1000.000
G1 X136.115 Y-2.499 Z-14.500 F550.000
G1 X110.205 Y-2.499 Z-14.500 F1000.000
G1 X105.205 Y-2.500 Z-19.500 F550.000
G1 X75.000 Y-2.500 Z-19.500 F1000.000
G2 X72.500 Y0.000 Z-19.500 I0.000 J2.500 K0.000 F1000.000
G1 X72.500 Y7.197 Z-19.500 F1000.000
G2 X77.165 Y8.447 Z-19.500 I2.500 J-0.000 K0.000 F1000.000
G1 X78.031 Y6.947 Z-19.500 F1000.000
G3 X111.555 Y26.961 Z-19.500 I-52.780 J126.489 K0.000 F1000.000
G2 X113.105 Y27.500 Z-19.500 I1.551 J-1.961 K0.000 F1000.000
G1 X163.499 Y27.500 Z-19.500 F1000.000
G1 X163.499 Y42.500 Z-19.500 F1000.000
G1 X133.234 Y42.500 Z-19.500 F1000.000
G2 X131.282 Y46.563 Z-19.500 I0.000 J2.500 K0.000 F1000.000
G3 X161.927 Y146.346 Z-19.500 I-106.271 J87.234 K0.000 F1000.000
G1 X161.379 Y151.324 Z-14.500
G3 X155.678 Y176.569 Z-14.500 I-136.368 J-17.526 K0.000 F1000.000
G1 X154.034 Y181.300 Z-19.500
G3 X78.031 Y260.652 Z-19.500 I-129.023 J-47.503 K0.000 F1000.000
G1 X53.719 Y218.543 Z-19.500 F1000.000
G2 X50.851 Y217.394 Z-19.500 I-2.165 J1.250 K0.000 F1000.000
G3 X0.659 Y217.847 Z-19.500 I-25.852 J-83.607 K0.000 F1000.000
G2 X-2.500 Y220.258 Z-19.500 I-0.659 J2.411 K0.000 F1000.000
G1 X-2.500 Y269.405 Z-19.500 F1000.000
G1 X-2.500 Y274.405 Z-14.500 F550.000
G1 X-2.500 Y300.315 Z-14.500 F1000.000
G1 X-2.500 Y305.315 Z-19.500 F550.000
G1 X-2.500 Y350.000 Z-19.500 F1000.000
G2 X0.000 Y352.500 Z-19.500 I2.500 J-0.000 K0.000 F1000.000
G1 X61.794 Y352.500 Z-19.500 F1000.000
G1 X66.794 Y352.500 Z-14.500 F550.000
G1 X92.704 Y352.500 Z-14.500 F1000.000
G1 X97.704 Y352.500 Z-19.500 F550.000
G1 X159.499 Y352.500 Z-19.500 F1000.000
G2 X175.408 Y345.909 Z-19.500 I-0.002 J-22.501 K0.000 F1000.000
G0 X175.408 Y345.909 Z5.000
(Finish operation: DressupTag)
(Begin postamble)
M5
G17 G90
M2
