(Exported by FreeCAD)
(Post Processor: grbl_post)
(Output Time:2020-12-04 19:39:37.135354)
(Begin preamble)
G17 G90
G21
(Begin operation: Fixture)
(Path: Fixture)
G54
(Finish operation: Fixture)
(Begin operation: TC: Default Tool)
(Path: TC: Default Tool)
(TC: Default Tool)
(Begin toolchange)
( M6 T1.0 )
M3 S24000.0
(Finish operation: TC: Default Tool)
(Begin operation: DressupTag)
(Path: DressupTag)
G0 Z5.000
G0 X351.768 Y551.768 Z5.000
G0 X351.768 Y551.768 Z3.000
G1 X351.768 Y551.768 Z-5.000 F100.000
G2 X352.500 Y550.000 Z-5.000 I-1.768 J-1.768 K0.000 F1000.000
G1 X352.500 Y20.000 Z-5.000 F1000.000
G2 X330.079 Y-2.499 Z-5.000 I-22.501 J0.002 K0.000 F1000.000
G1 X20.000 Y-2.500 Z-5.000 F1000.000
G2 X-2.499 Y19.921 Z-5.000 I0.002 J22.501 K0.000 F1000.000
G1 X-2.500 Y37.000 Z-5.000 F1000.000
G2 X0.000 Y39.500 Z-5.000 I2.500 J-0.000 K0.000 F1000.000
G1 X191.200 Y39.500 Z-5.000 F1000.000
G2 X193.699 Y37.070 Z-5.000 I-0.000 J-2.500 K0.000 F1000.000
G3 X216.200 Y14.501 Z-5.000 I22.501 J-0.068 K0.000 F1000.000
G3 X238.701 Y37.070 Z-5.000 I-0.000 J22.501 K0.000 F1000.000
G2 X241.200 Y39.500 Z-5.000 I2.499 J-0.070 K0.000 F1000.000
G1 X250.164 Y39.500 Z-5.000 F1000.000
G1 X335.500 Y124.836 Z-5.000 F1000.000
G1 X335.500 Y232.764 Z-5.000 F1000.000
G1 X276.232 Y292.032 Z-5.000 F1000.000
G2 X275.500 Y293.800 Z-5.000 I1.768 J1.768 K0.000 F1000.000
G1 X275.500 Y434.572 Z-5.000 F1000.000
G2 X276.257 Y436.365 Z-5.000 I2.500 J0.000 K0.000 F1000.000
G3 X299.794 Y525.852 Z-5.000 I-60.060 J63.636 K0.000 F1000.000
G2 X300.943 Y528.719 Z-5.000 I2.399 J0.703 K0.000 F1000.000
G1 X341.553 Y552.165 Z-5.000 F1000.000
G2 X342.803 Y552.500 Z-5.000 I1.250 J-2.165 K0.000 F1000.000
G1 X350.000 Y552.500 Z-5.000 F1000.000
G2 X351.768 Y551.768 Z-5.000 I-0.000 J-2.500 K0.000 F1000.000
G1 X351.768 Y551.768 Z-10.000 F100.000
G2 X352.500 Y550.000 Z-10.000 I-1.768 J-1.768 K0.000 F1000.000
G1 X352.500 Y20.000 Z-10.000 F1000.000
G2 X330.079 Y-2.499 Z-10.000 I-22.501 J0.002 K0.000 F1000.000
G1 X20.000 Y-2.500 Z-10.000 F1000.000
G2 X-2.499 Y19.921 Z-10.000 I0.002 J22.501 K0.000 F1000.000
G1 X-2.500 Y37.000 Z-10.000 F1000.000
G2 X0.000 Y39.500 Z-10.000 I2.500 J-0.000 K0.000 F1000.000
G1 X191.200 Y39.500 Z-10.000 F1000.000
G2 X193.699 Y37.070 Z-10.000 I-0.000 J-2.500 K0.000 F1000.000
G3 X216.200 Y14.501 Z-10.000 I22.501 J-0.068 K0.000 F1000.000
G3 X238.701 Y37.070 Z-10.000 I-0.000 J22.501 K0.000 F1000.000
G2 X241.200 Y39.500 Z-10.000 I2.499 J-0.070 K0.000 F1000.000
G1 X250.164 Y39.500 Z-10.000 F1000.000
G1 X335.500 Y124.836 Z-10.000 F1000.000
G1 X335.500 Y232.764 Z-10.000 F1000.000
G1 X276.232 Y292.032 Z-10.000 F1000.000
G2 X275.500 Y293.800 Z-10.000 I1.768 J1.768 K0.000 F1000.000
G1 X275.500 Y434.572 Z-10.000 F1000.000
G2 X276.257 Y436.365 Z-10.000 I2.500 J0.000 K0.000 F1000.000
G3 X299.794 Y525.852 Z-10.000 I-60.060 J63.636 K0.000 F1000.000
G2 X300.943 Y528.719 Z-10.000 I2.399 J0.703 K0.000 F1000.000
G1 X341.553 Y552.165 Z-10.000 F1000.000
G2 X342.803 Y552.500 Z-10.000 I1.250 J-2.165 K0.000 F1000.000
G1 X350.000 Y552.500 Z-10.000 F1000.000
G2 X351.768 Y551.768 Z-10.000 I-0.000 J-2.500 K0.000 F1000.000
G1 X351.768 Y551.768 Z-15.000 F100.000
G2 X352.500 Y550.000 Z-15.000 I-1.768 J-1.768 K0.000 F1000.000
G1 X352.500 Y441.950 Z-15.000 F1000.000
G1 X352.500 Y441.450 Z-14.500 F550.000
G1 X352.500 Y393.550 Z-14.500 F1000.000
G1 X352.500 Y393.050 Z-15.000 F550.000
G1 X352.500 Y176.950 Z-15.000 F1000.000
G1 X352.500 Y176.450 Z-14.500 F550.000
G1 X352.500 Y128.550 Z-14.500 F1000.000
G1 X352.500 Y128.050 Z-15.000 F550.000
G1 X352.500 Y20.000 Z-15.000 F1000.000
G2 X330.079 Y-2.499 Z-15.000 I-22.501 J0.002 K0.000 F1000.000
G1 X247.470 Y-2.499 Z-15.000 F1000.000
G1 X246.970 Y-2.499 Z-14.500 F550.000
G1 X199.070 Y-2.499 Z-14.500 F1000.000
G1 X198.570 Y-2.499 Z-15.000 F550.000
G1 X20.000 Y-2.500 Z-15.000 F1000.000
G2 X-2.499 Y19.921 Z-15.000 I0.002 J22.501 K0.000 F1000.000
G1 X-2.500 Y37.000 Z-15.000 F1000.000
G2 X0.000 Y39.500 Z-15.000 I2.500 J-0.000 K0.000 F1000.000
G1 X71.150 Y39.500 Z-15.000 F1000.000
G1 X71.650 Y39.500 Z-14.500 F550.000
G1 X119.550 Y39.500 Z-14.500 F1000.000
G1 X120.050 Y39.500 Z-15.000 F550.000
G1 X191.200 Y39.500 Z-15.000 F1000.000
G2 X193.699 Y37.070 Z-15.000 I-0.000 J-2.500 K0.000 F1000.000
G3 X207.387 Y16.299 Z-15.000 I22.501 J-0.068 K0.000 F1000.000
G1 X207.911 Y16.083 Z-14.500
G3 X216.200 Y14.501 Z-14.500 I8.289 J20.919 K0.000 F1000.000
G3 X231.023 Y20.073 Z-14.500 I-0.000 J22.501 K0.000 F1000.000
G1 X231.445 Y20.453 Z-15.000
G3 X238.701 Y37.070 Z-15.000 I-15.245 J16.550 K0.000 F1000.000
G2 X241.200 Y39.500 Z-15.000 I2.499 J-0.070 K0.000 F1000.000
G1 X250.164 Y39.500 Z-15.000 F1000.000
G1 X335.500 Y124.836 Z-15.000 F1000.000
G1 X335.500 Y134.927 Z-15.000 F1000.000
G1 X335.500 Y135.630 Z-14.500 F645.632
G1 X335.500 Y169.370 Z-14.500 F1000.000
G1 X335.500 Y170.073 Z-15.000 F645.632
G1 X335.500 Y232.764 Z-15.000 F1000.000
G1 X276.232 Y292.032 Z-15.000 F1000.000
G2 X275.500 Y293.800 Z-15.000 I1.768 J1.768 K0.000 F1000.000
G1 X275.500 Y346.260 Z-15.000 F1000.000
G1 X275.500 Y346.760 Z-14.500 F550.000
G1 X275.500 Y394.660 Z-14.500 F1000.000
G1 X275.500 Y395.160 Z-15.000 F550.000
G1 X275.500 Y434.572 Z-15.000 F1000.000
G2 X276.257 Y436.365 Z-15.000 I2.500 J0.000 K0.000 F1000.000
G3 X299.794 Y525.852 Z-15.000 I-60.060 J63.636 K0.000 F1000.000
G2 X300.943 Y528.719 Z-15.000 I2.399 J0.703 K0.000 F1000.000
G1 X341.553 Y552.165 Z-15.000 F1000.000
G2 X342.803 Y552.500 Z-15.000 I1.250 J-2.165 K0.000 F1000.000
G1 X350.000 Y552.500 Z-15.000 F1000.000
G2 X351.768 Y551.768 Z-15.000 I-0.000 J-2.500 K0.000 F1000.000
G1 X351.768 Y551.768 Z-19.500 F100.000
G2 X352.500 Y550.000 Z-19.500 I-1.768 J-1.768 K0.000 F1000.000
G1 X352.500 Y446.450 Z-19.500 F1000.000
G1 X352.500 Y441.450 Z-14.500 F550.000
G1 X352.500 Y393.550 Z-14.500 F1000.000
G1 X352.500 Y388.550 Z-19.500 F550.000
G1 X352.500 Y181.450 Z-19.500 F1000.000
G1 X352.500 Y176.450 Z-14.500 F550.000
G1 X352.500 Y128.550 Z-14.500 F1000.000
G1 X352.500 Y123.550 Z-19.500 F550.000
G1 X352.500 Y20.000 Z-19.500 F1000.000
G2 X330.079 Y-2.499 Z-19.500 I-22.501 J0.002 K0.000 F1000.000
G1 X251.970 Y-2.499 Z-19.500 F1000.000
G1 X246.970 Y-2.499 Z-14.500 F550.000
G1 X199.070 Y-2.499 Z-14.500 F1000.000
G1 X194.070 Y-2.499 Z-19.500 F550.000
G1 X20.000 Y-2.500 Z-19.500 F1000.000
G2 X-2.499 Y19.921 Z-19.500 I0.002 J22.501 K0.000 F1000.000
G1 X-2.500 Y37.000 Z-19.500 F1000.000
G2 X0.000 Y39.500 Z-19.500 I2.500 J-0.000 K0.000 F1000.000
G1 X66.650 Y39.500 Z-19.500 F1000.000
G1 X71.650 Y39.500 Z-14.500 F550.000
G1 X119.550 Y39.500 Z-14.500 F1000.000
G1 X124.550 Y39.500 Z-19.500 F550.000
G1 X191.200 Y39.500 Z-19.500 F1000.000
G2 X193.699 Y37.070 Z-19.500 I-0.000 J-2.500 K0.000 F1000.000
G3 X203.221 Y18.621 Z-19.500 I22.501 J-0.068 K0.000 F1000.000
G1 X205.440 Y17.241 Z-16.984
G1 X207.911 Y16.083 Z-14.500
G3 X216.200 Y14.501 Z-14.500 I8.289 J20.919 K0.000 F1000.000
G3 X231.023 Y20.073 Z-14.500 I-0.000 J22.501 K0.000 F1000.000
G1 X232.964 Y21.993 Z-16.984
G1 X234.591 Y24.037 Z-19.500
G3 X238.701 Y37.070 Z-19.500 I-18.391 J12.965 K0.000 F1000.000
G2 X241.200 Y39.500 Z-19.500 I2.499 J-0.070 K0.000 F1000.000
G1 X250.164 Y39.500 Z-19.500 F1000.000
G1 X335.500 Y124.836 Z-19.500 F1000.000
G1 X335.500 Y129.067 Z-19.500 F1000.000
G1 X335.500 Y130.124 Z-18.651 F612.375
G1 X335.500 Y131.150 Z-17.841 F617.131
G1 X335.500 Y133.509 Z-16.039 F626.083
G1 X335.500 Y135.630 Z-14.500 F640.439
G1 X335.500 Y169.370 Z-14.500 F1000.000
G1 X335.500 Y170.099 Z-15.019 F645.530
G1 X335.500 Y170.844 Z-15.560 F640.040
G1 X335.500 Y173.236 Z-17.364 F629.803
G1 X335.500 Y175.933 Z-19.500 F616.183
G1 X335.500 Y232.764 Z-19.500 F1000.000
G1 X276.232 Y292.032 Z-19.500 F1000.000
G2 X275.500 Y293.800 Z-19.500 I1.768 J1.768 K0.000 F1000.000
G1 X275.500 Y341.760 Z-19.500 F1000.000
G1 X275.500 Y346.760 Z-14.500 F550.000
G1 X275.500 Y394.660 Z-14.500 F1000.000
G1 X275.500 Y399.660 Z-19.500 F550.000
G1 X275.500 Y434.572 Z-19.500 F1000.000
G2 X276.257 Y436.365 Z-19.500 I2.500 J0.000 K0.000 F1000.000
G3 X299.794 Y525.852 Z-19.500 I-60.060 J63.636 K0.000 F1000.000
G2 X300.943 Y528.719 Z-19.500 I2.399 J0.703 K0.000 F1000.000
G1 X341.553 Y552.165 Z-19.500 F1000.000
G2 X342.803 Y552.500 Z-19.500 I1.250 J-2.165 K0.000 F1000.000
G1 X350.000 Y552.500 Z-19.500 F1000.000
G2 X351.768 Y551.768 Z-19.500 I-0.000 J-2.500 K0.000 F1000.000
G0 X351.768 Y551.768 Z5.000
(Finish operation: DressupTag)
(Begin postamble)
M5
G17 G90
M2
