(Exported by FreeCAD)
(Post Processor: grbl_post)
(Output Time:2020-12-04 19:26:57.239894)
(Begin preamble)
G17 G90
G21
(Begin operation: Fixture)
(Path: Fixture)
G54
(Finish operation: Fixture)
(Begin operation: TC: Default Tool)
(Path: TC: Default Tool)
(TC: Default Tool)
(Begin toolchange)
( M6 T1.0 )
M3 S24000.0
(Finish operation: TC: Default Tool)
(Begin operation: DressupTag)
(Path: DressupTag)
G0 Z5.000
G0 X65.494 Y248.719 Z5.000
G0 X65.494 Y248.719 Z3.000
G1 X65.494 Y248.719 Z-5.000 F100.000
G2 X73.342 Y243.152 Z-5.000 I-74.956 J-113.986 K0.000 F1000.000
G1 X55.941 Y213.014 Z-5.000 F1000.000
G3 X25.631 Y230.515 Z-5.000 I-65.820 J-78.999 K0.000 F1000.000
G1 X43.031 Y260.652 Z-5.000 F1000.000
G2 X65.494 Y248.719 Z-5.000 I-52.492 J-125.919 K0.000 F1000.000
G1 X65.494 Y248.719 Z-10.000 F100.000
G2 X73.342 Y243.152 Z-10.000 I-74.956 J-113.986 K0.000 F1000.000
G1 X55.941 Y213.014 Z-10.000 F1000.000
G3 X25.631 Y230.515 Z-10.000 I-65.820 J-78.999 K0.000 F1000.000
G1 X43.031 Y260.652 Z-10.000 F1000.000
G2 X65.494 Y248.719 Z-10.000 I-52.492 J-125.919 K0.000 F1000.000
G1 X65.494 Y248.719 Z-15.000 F100.000
G2 X73.342 Y243.152 Z-15.000 I-74.956 J-113.986 K0.000 F1000.000
G1 X55.941 Y213.014 Z-15.000 F1000.000
G3 X25.631 Y230.515 Z-15.000 I-65.820 J-78.999 K0.000 F1000.000
G1 X43.031 Y260.652 Z-15.000 F1000.000
G2 X65.494 Y248.719 Z-15.000 I-52.492 J-125.919 K0.000 F1000.000
G1 X65.494 Y248.719 Z-19.500 F100.000
G2 X73.342 Y243.152 Z-19.500 I-74.956 J-113.986 K0.000 F1000.000
G1 X55.941 Y213.014 Z-19.500 F1000.000
G3 X45.145 Y220.880 Z-19.500 I-65.820 J-78.999 K0.000 F1000.000
G1 X41.536 Y223.063 Z-15.240
G1 X37.841 Y225.097 Z-19.500
G3 X25.631 Y230.515 Z-19.500 I-47.720 J-91.082 K0.000 F1000.000
G1 X43.031 Y260.652 Z-19.500 F1000.000
G2 X50.787 Y257.131 Z-19.500 I-52.492 J-125.919 K0.000 F1000.000
G1 X54.541 Y255.210 Z-15.240
G1 X58.235 Y253.174 Z-19.500
G2 X65.494 Y248.719 Z-19.500 I-67.696 J-118.441 K0.000 F1000.000
G0 X65.494 Y248.719 Z5.000
(Finish operation: DressupTag)
(Begin operation: DressupTag001)
(Path: DressupTag001)
G0 Z5.000
G0 X140.409 Y345.909 Z5.000
G0 X140.409 Y345.909 Z3.000
G1 X140.409 Y345.909 Z-5.000 F100.000
G2 X146.999 Y330.079 Z-5.000 I-15.911 J-15.910 K0.000 F1000.000
G1 X147.000 Y20.000 Z-5.000 F1000.000
G2 X124.579 Y-2.499 Z-5.000 I-22.501 J0.002 K0.000 F1000.000
G1 X0.000 Y-2.500 Z-5.000 F1000.000
G2 X-2.500 Y0.000 Z-5.000 I0.000 J2.500 K0.000 F1000.000
G1 X-2.500 Y350.000 Z-5.000 F1000.000
G2 X-0.000 Y352.500 Z-5.000 I2.500 J-0.000 K0.000 F1000.000
G1 X124.500 Y352.500 Z-5.000 F1000.000
G2 X140.409 Y345.909 Z-5.000 I-0.002 J-22.501 K0.000 F1000.000
G1 X140.409 Y345.909 Z-10.000 F100.000
G2 X146.999 Y330.079 Z-10.000 I-15.911 J-15.910 K0.000 F1000.000
G1 X147.000 Y20.000 Z-10.000 F1000.000
G2 X124.579 Y-2.499 Z-10.000 I-22.501 J0.002 K0.000 F1000.000
G1 X0.000 Y-2.500 Z-10.000 F1000.000
G2 X-2.500 Y0.000 Z-10.000 I0.000 J2.500 K0.000 F1000.000
G1 X-2.500 Y350.000 Z-10.000 F1000.000
G2 X-0.000 Y352.500 Z-10.000 I2.500 J-0.000 K0.000 F1000.000
G1 X124.500 Y352.500 Z-10.000 F1000.000
G2 X140.409 Y345.909 Z-10.000 I-0.002 J-22.501 K0.000 F1000.000
G1 X140.409 Y345.909 Z-15.000 F100.000
G2 X146.999 Y330.079 Z-15.000 I-15.911 J-15.910 K0.000 F1000.000
G1 X146.999 Y268.009 Z-15.000 F1000.000
G1 X146.999 Y267.509 Z-14.500 F550.000
G1 X146.999 Y237.609 Z-14.500 F1000.000
G1 X146.999 Y237.109 Z-15.000 F550.000
G1 X147.000 Y112.970 Z-15.000 F1000.000
G1 X147.000 Y112.470 Z-14.500 F550.000
G1 X147.000 Y82.570 Z-14.500 F1000.000
G1 X147.000 Y82.070 Z-15.000 F550.000
G1 X147.000 Y20.000 Z-15.000 F1000.000
G2 X124.579 Y-2.499 Z-15.000 I-22.501 J0.002 K0.000 F1000.000
G1 X0.000 Y-2.500 Z-15.000 F1000.000
G2 X-2.500 Y0.000 Z-15.000 I0.000 J2.500 K0.000 F1000.000
G1 X-2.500 Y72.050 Z-15.000 F1000.000
G1 X-2.500 Y72.550 Z-14.500 F550.000
G1 X-2.500 Y102.450 Z-14.500 F1000.000
G1 X-2.500 Y102.950 Z-15.000 F550.000
G1 X-2.500 Y247.050 Z-15.000 F1000.000
G1 X-2.500 Y247.550 Z-14.500 F550.000
G1 X-2.500 Y277.450 Z-14.500 F1000.000
G1 X-2.500 Y277.950 Z-15.000 F550.000
G1 X-2.500 Y350.000 Z-15.000 F1000.000
G2 X-0.000 Y352.500 Z-15.000 I2.500 J-0.000 K0.000 F1000.000
G1 X124.500 Y352.500 Z-15.000 F1000.000
G2 X140.409 Y345.909 Z-15.000 I-0.002 J-22.501 K0.000 F1000.000
G1 X140.409 Y345.909 Z-19.500 F100.000
G2 X146.999 Y330.079 Z-19.500 I-15.911 J-15.910 K0.000 F1000.000
G1 X146.999 Y272.509 Z-19.500 F1000.000
G1 X146.999 Y267.509 Z-14.500 F550.000
G1 X146.999 Y237.609 Z-14.500 F1000.000
G1 X146.999 Y232.609 Z-19.500 F550.000
G1 X147.000 Y117.470 Z-19.500 F1000.000
G1 X147.000 Y112.470 Z-14.500 F550.000
G1 X147.000 Y82.570 Z-14.500 F1000.000
G1 X147.000 Y77.570 Z-19.500 F550.000
G1 X147.000 Y20.000 Z-19.500 F1000.000
G2 X124.579 Y-2.499 Z-19.500 I-22.501 J0.002 K0.000 F1000.000
G1 X0.000 Y-2.500 Z-19.500 F1000.000
G2 X-2.500 Y0.000 Z-19.500 I0.000 J2.500 K0.000 F1000.000
G1 X-2.500 Y67.550 Z-19.500 F1000.000
G1 X-2.500 Y72.550 Z-14.500 F550.000
G1 X-2.500 Y102.450 Z-14.500 F1000.000
G1 X-2.500 Y107.450 Z-19.500 F550.000
G1 X-2.500 Y242.550 Z-19.500 F1000.000
G1 X-2.500 Y247.550 Z-14.500 F550.000
G1 X-2.500 Y277.450 Z-14.500 F1000.000
G1 X-2.500 Y282.450 Z-19.500 F550.000
G1 X-2.500 Y350.000 Z-19.500 F1000.000
G2 X-0.000 Y352.500 Z-19.500 I2.500 J-0.000 K0.000 F1000.000
G1 X124.500 Y352.500 Z-19.500 F1000.000
G2 X140.409 Y345.909 Z-19.500 I-0.002 J-22.501 K0.000 F1000.000
G0 X140.409 Y345.909 Z5.000
(Finish operation: DressupTag001)
(Begin postamble)
M5
G17 G90
M2
