(Exported by FreeCAD)
(Post Processor: grbl_post)
(Output Time:2020-12-04 19:33:55.034944)
(Begin preamble)
G17 G90
G21
(Begin operation: Fixture)
(Path: Fixture)
G54
(Finish operation: Fixture)
(Begin operation: TC: Default Tool)
(Path: TC: Default Tool)
(TC: Default Tool)
(Begin toolchange)
( M6 T1.0 )
M3 S24000.0
(Finish operation: TC: Default Tool)
(Begin operation: Adaptive)
(Path: Adaptive)
(Adaptive)
(Helix to depth: -5.000000)
G0 X80.632 Y33.616 Z5.000
G0 X80.632 Y33.616 Z3.000
G1 X80.632 Y33.616 Z0.000 F100.000
G1 X80.632 Y33.616 Z0.000 F100.000
G1 X80.876 Y33.887 Z-0.032 F100.000
G1 X81.063 Y34.202 Z-0.064 F100.000
G1 X81.186 Y34.546 Z-0.097 F100.000
G1 X81.238 Y34.908 Z-0.129 F100.000
G1 X81.219 Y35.273 Z-0.161 F100.000
G1 X81.129 Y35.628 Z-0.193 F100.000
G1 X80.972 Y35.958 Z-0.225 F100.000
G1 X80.753 Y36.251 Z-0.258 F100.000
G1 X80.481 Y36.495 Z-0.290 F100.000
G1 X80.167 Y36.682 Z-0.322 F100.000
G1 X79.822 Y36.804 Z-0.354 F100.000
G1 X79.461 Y36.857 Z-0.387 F100.000
G1 X79.096 Y36.838 Z-0.419 F100.000
G1 X78.741 Y36.748 Z-0.451 F100.000
G1 X78.411 Y36.590 Z-0.483 F100.000
G1 X78.118 Y36.372 Z-0.515 F100.000
G1 X77.874 Y36.100 Z-0.548 F100.000
G1 X77.687 Y35.786 Z-0.580 F100.000
G1 X77.564 Y35.441 Z-0.612 F100.000
G1 X77.512 Y35.079 Z-0.644 F100.000
G1 X77.531 Y34.714 Z-0.676 F100.000
G1 X77.621 Y34.360 Z-0.709 F100.000
G1 X77.778 Y34.030 Z-0.741 F100.000
G1 X77.997 Y33.737 Z-0.773 F100.000
G1 X78.269 Y33.492 Z-0.805 F100.000
G1 X78.583 Y33.305 Z-0.837 F100.000
G1 X78.928 Y33.183 Z-0.870 F100.000
G1 X79.289 Y33.131 Z-0.902 F100.000
G1 X79.654 Y33.150 Z-0.934 F100.000
G1 X80.009 Y33.240 Z-0.966 F100.000
G1 X80.339 Y33.397 Z-0.998 F100.000
G1 X80.632 Y33.616 Z-1.031 F100.000
G1 X80.876 Y33.887 Z-1.063 F100.000
G1 X81.063 Y34.202 Z-1.095 F100.000
G1 X81.186 Y34.546 Z-1.127 F100.000
G1 X81.238 Y34.908 Z-1.160 F100.000
G1 X81.219 Y35.273 Z-1.192 F100.000
G1 X81.129 Y35.628 Z-1.224 F100.000
G1 X80.972 Y35.958 Z-1.256 F100.000
G1 X80.753 Y36.251 Z-1.288 F100.000
G1 X80.481 Y36.495 Z-1.321 F100.000
G1 X80.167 Y36.682 Z-1.353 F100.000
G1 X79.822 Y36.804 Z-1.385 F100.000
G1 X79.461 Y36.857 Z-1.417 F100.000
G1 X79.096 Y36.838 Z-1.449 F100.000
G1 X78.741 Y36.748 Z-1.482 F100.000
G1 X78.411 Y36.590 Z-1.514 F100.000
G1 X78.118 Y36.372 Z-1.546 F100.000
G1 X77.874 Y36.100 Z-1.578 F100.000
G1 X77.687 Y35.786 Z-1.610 F100.000
G1 X77.564 Y35.441 Z-1.643 F100.000
G1 X77.512 Y35.079 Z-1.675 F100.000
G1 X77.531 Y34.714 Z-1.707 F100.000
G1 X77.621 Y34.360 Z-1.739 F100.000
G1 X77.778 Y34.030 Z-1.772 F100.000
G1 X77.997 Y33.737 Z-1.804 F100.000
G1 X78.269 Y33.492 Z-1.836 F100.000
G1 X78.583 Y33.305 Z-1.868 F100.000
G1 X78.928 Y33.183 Z-1.900 F100.000
G1 X79.289 Y33.131 Z-1.933 F100.000
G1 X79.654 Y33.150 Z-1.965 F100.000
G1 X80.009 Y33.240 Z-1.997 F100.000
G1 X80.339 Y33.397 Z-2.029 F100.000
G1 X80.632 Y33.616 Z-2.061 F100.000
G1 X80.876 Y33.887 Z-2.094 F100.000
G1 X81.063 Y34.202 Z-2.126 F100.000
G1 X81.186 Y34.546 Z-2.158 F100.000
G1 X81.238 Y34.908 Z-2.190 F100.000
G1 X81.219 Y35.273 Z-2.222 F100.000
G1 X81.129 Y35.628 Z-2.255 F100.000
G1 X80.972 Y35.958 Z-2.287 F100.000
G1 X80.753 Y36.251 Z-2.319 F100.000
G1 X80.481 Y36.495 Z-2.351 F100.000
G1 X80.167 Y36.682 Z-2.383 F100.000
G1 X79.822 Y36.804 Z-2.416 F100.000
G1 X79.461 Y36.857 Z-2.448 F100.000
G1 X79.096 Y36.838 Z-2.480 F100.000
G1 X78.741 Y36.748 Z-2.512 F100.000
G1 X78.411 Y36.590 Z-2.545 F100.000
G1 X78.118 Y36.372 Z-2.577 F100.000
G1 X77.874 Y36.100 Z-2.609 F100.000
G1 X77.687 Y35.786 Z-2.641 F100.000
G1 X77.564 Y35.441 Z-2.673 F100.000
G1 X77.512 Y35.079 Z-2.706 F100.000
G1 X77.531 Y34.714 Z-2.738 F100.000
G1 X77.621 Y34.360 Z-2.770 F100.000
G1 X77.778 Y34.030 Z-2.802 F100.000
G1 X77.997 Y33.737 Z-2.834 F100.000
G1 X78.269 Y33.492 Z-2.867 F100.000
G1 X78.583 Y33.305 Z-2.899 F100.000
G1 X78.928 Y33.183 Z-2.931 F100.000
G1 X79.289 Y33.131 Z-2.963 F100.000
G1 X79.654 Y33.150 Z-2.995 F100.000
G1 X80.009 Y33.240 Z-3.028 F100.000
G1 X80.339 Y33.397 Z-3.060 F100.000
G1 X80.632 Y33.616 Z-3.092 F100.000
G1 X80.876 Y33.887 Z-3.124 F100.000
G1 X81.063 Y34.202 Z-3.157 F100.000
G1 X81.186 Y34.546 Z-3.189 F100.000
G1 X81.238 Y34.908 Z-3.221 F100.000
G1 X81.219 Y35.273 Z-3.253 F100.000
G1 X81.129 Y35.628 Z-3.285 F100.000
G1 X80.972 Y35.958 Z-3.318 F100.000
G1 X80.753 Y36.251 Z-3.350 F100.000
G1 X80.481 Y36.495 Z-3.382 F100.000
G1 X80.167 Y36.682 Z-3.414 F100.000
G1 X79.822 Y36.804 Z-3.446 F100.000
G1 X79.461 Y36.857 Z-3.479 F100.000
G1 X79.096 Y36.838 Z-3.511 F100.000
G1 X78.741 Y36.748 Z-3.543 F100.000
G1 X78.411 Y36.590 Z-3.575 F100.000
G1 X78.118 Y36.372 Z-3.607 F100.000
G1 X77.874 Y36.100 Z-3.640 F100.000
G1 X77.687 Y35.786 Z-3.672 F100.000
G1 X77.564 Y35.441 Z-3.704 F100.000
G1 X77.512 Y35.079 Z-3.736 F100.000
G1 X77.531 Y34.714 Z-3.769 F100.000
G1 X77.621 Y34.360 Z-3.801 F100.000
G1 X77.778 Y34.030 Z-3.833 F100.000
G1 X77.997 Y33.737 Z-3.865 F100.000
G1 X78.269 Y33.492 Z-3.897 F100.000
G1 X78.583 Y33.305 Z-3.930 F100.000
G1 X78.928 Y33.183 Z-3.962 F100.000
G1 X79.289 Y33.131 Z-3.994 F100.000
G1 X79.654 Y33.150 Z-4.026 F100.000
G1 X80.009 Y33.240 Z-4.058 F100.000
G1 X80.339 Y33.397 Z-4.091 F100.000
G1 X80.632 Y33.616 Z-4.123 F100.000
G1 X80.876 Y33.887 Z-4.155 F100.000
G1 X81.063 Y34.202 Z-4.187 F100.000
G1 X81.186 Y34.546 Z-4.219 F100.000
G1 X81.238 Y34.908 Z-4.252 F100.000
G1 X81.219 Y35.273 Z-4.284 F100.000
G1 X81.129 Y35.628 Z-4.316 F100.000
G1 X80.972 Y35.958 Z-4.348 F100.000
G1 X80.753 Y36.251 Z-4.380 F100.000
G1 X80.481 Y36.495 Z-4.413 F100.000
G1 X80.167 Y36.682 Z-4.445 F100.000
G1 X79.822 Y36.804 Z-4.477 F100.000
G1 X79.461 Y36.857 Z-4.509 F100.000
G1 X79.096 Y36.838 Z-4.542 F100.000
G1 X78.741 Y36.748 Z-4.574 F100.000
G1 X78.411 Y36.590 Z-4.606 F100.000
G1 X78.118 Y36.372 Z-4.638 F100.000
G1 X77.874 Y36.100 Z-4.670 F100.000
G1 X77.687 Y35.786 Z-4.703 F100.000
G1 X77.564 Y35.441 Z-4.735 F100.000
G1 X77.512 Y35.079 Z-4.767 F100.000
G1 X77.531 Y34.714 Z-4.799 F100.000
G1 X77.621 Y34.360 Z-4.831 F100.000
G1 X77.778 Y34.030 Z-4.864 F100.000
G1 X77.997 Y33.737 Z-4.896 F100.000
G1 X78.269 Y33.492 Z-4.928 F100.000
G1 X78.583 Y33.305 Z-4.960 F100.000
G1 X78.928 Y33.183 Z-4.992 F100.000
G1 X79.289 Y33.131 Z-5.000 F1000.000
G1 X79.654 Y33.150 Z-5.000 F1000.000
G1 X80.009 Y33.240 Z-5.000 F1000.000
G1 X80.339 Y33.397 Z-5.000 F1000.000
G1 X80.632 Y33.616 Z-5.000 F1000.000
G1 X80.876 Y33.887 Z-5.000 F1000.000
G1 X81.063 Y34.202 Z-5.000 F1000.000
G1 X81.186 Y34.546 Z-5.000 F1000.000
G1 X81.238 Y34.908 Z-5.000 F1000.000
G1 X81.219 Y35.273 Z-5.000 F1000.000
G1 X81.129 Y35.628 Z-5.000 F1000.000
G1 X80.972 Y35.958 Z-5.000 F1000.000
G1 X80.753 Y36.251 Z-5.000 F1000.000
G1 X80.481 Y36.495 Z-5.000 F1000.000
G1 X80.167 Y36.682 Z-5.000 F1000.000
G1 X79.822 Y36.804 Z-5.000 F1000.000
G1 X79.461 Y36.857 Z-5.000 F1000.000
G1 X79.096 Y36.838 Z-5.000 F1000.000
G1 X78.741 Y36.748 Z-5.000 F1000.000
G1 X78.411 Y36.590 Z-5.000 F1000.000
G1 X78.118 Y36.372 Z-5.000 F1000.000
G1 X77.874 Y36.100 Z-5.000 F1000.000
G1 X77.687 Y35.786 Z-5.000 F1000.000
G1 X77.564 Y35.441 Z-5.000 F1000.000
G1 X77.512 Y35.079 Z-5.000 F1000.000
G1 X77.531 Y34.714 Z-5.000 F1000.000
G1 X77.621 Y34.360 Z-5.000 F1000.000
G1 X77.778 Y34.030 Z-5.000 F1000.000
G1 X77.997 Y33.737 Z-5.000 F1000.000
G1 X78.269 Y33.492 Z-5.000 F1000.000
G1 X78.583 Y33.305 Z-5.000 F1000.000
G1 X78.928 Y33.183 Z-5.000 F1000.000
(Adaptive - depth: -5.000000)
G1 X79.375 Y33.119 F1000.000
G1 X79.444 Y33.044 F1000.000
G1 X79.550 Y32.875 F1000.000
G1 X79.713 Y32.756 F1000.000
G1 X79.888 Y32.669 F1000.000
G1 X80.075 Y32.612 F1000.000
G1 X80.625 Y32.606 F1000.000
G1 X80.944 Y32.681 F1000.000
G1 X81.169 Y32.775 F1000.000
G1 X81.388 Y32.888 F1000.000
G1 X81.675 Y33.100 F1000.000
G1 X81.938 Y33.381 F1000.000
G1 X82.125 Y33.631 F1000.000
G1 X82.294 Y33.944 F1000.000
G1 X82.425 Y34.263 F1000.000
G1 X82.525 Y34.669 F1000.000
G1 X82.569 Y35.038 F1000.000
G1 X82.569 Y35.413 F1000.000
G1 X82.513 Y35.800 F1000.000
G1 X82.412 Y36.163 F1000.000
G1 X82.263 Y36.519 F1000.000
G1 X82.069 Y36.850 F1000.000
G1 X81.831 Y37.156 F1000.000
G1 X81.556 Y37.431 F1000.000
G1 X81.250 Y37.669 F1000.000
G1 X80.912 Y37.862 F1000.000
G1 X80.556 Y38.013 F1000.000
G1 X80.188 Y38.138 F1000.000
G1 X79.706 Y38.225 F1000.000
G1 X79.294 Y38.256 F1000.000
G1 X78.869 Y38.219 F1000.000
G1 X78.525 Y38.150 F1000.000
G1 X78.150 Y38.025 F1000.000
G1 X77.800 Y37.850 F1000.000
G1 X77.481 Y37.644 F1000.000
G1 X77.169 Y37.413 F1000.000
G1 X76.775 Y37.013 F1000.000
G1 X76.531 Y36.663 F1000.000
G1 X76.369 Y36.362 F1000.000
G1 X76.250 Y36.044 F1000.000
G1 X76.144 Y35.694 F1000.000
G1 X76.081 Y35.194 F1000.000
G1 X76.075 Y34.806 F1000.000
G1 X76.112 Y34.394 F1000.000
G1 X76.206 Y33.969 F1000.000
G1 X76.344 Y33.581 F1000.000
G1 X76.544 Y33.219 F1000.000
G1 X76.975 Y32.638 F1000.000
G1 X77.350 Y32.237 F1000.000
G1 X77.831 Y31.837 F1000.000
G1 X78.256 Y31.556 F1000.000
G1 X78.644 Y31.337 F1000.000
G1 X79.131 Y31.163 F1000.000
G1 X79.519 Y31.062 F1000.000
G1 X79.963 Y30.994 F1000.000
G1 X80.406 Y30.981 F1000.000
G1 X80.831 Y31.019 F1000.000
G1 X81.256 Y31.125 F1000.000
G1 X81.600 Y31.250 F1000.000
G1 X81.963 Y31.431 F1000.000
G1 X82.312 Y31.631 F1000.000
G1 X82.756 Y31.981 F1000.000
G1 X83.075 Y32.294 F1000.000
G1 X83.362 Y32.656 F1000.000
G1 X83.575 Y32.994 F1000.000
G1 X83.763 Y33.388 F1000.000
G1 X83.925 Y33.781 F1000.000
G1 X84.069 Y34.337 F1000.000
G1 X84.144 Y34.806 F1000.000
G1 X84.175 Y35.288 F1000.000
G1 X84.150 Y35.794 F1000.000
G1 X84.050 Y36.275 F1000.000
G1 X83.944 Y36.638 F1000.000
G1 X83.769 Y37.050 F1000.000
G1 X83.575 Y37.444 F1000.000
G1 X83.231 Y37.962 F1000.000
G1 X82.919 Y38.344 F1000.000
G1 X82.550 Y38.688 F1000.000
G1 X82.237 Y38.931 F1000.000
G1 X81.450 Y39.388 F1000.000
G1 X80.869 Y39.619 F1000.000
G1 X80.375 Y39.769 F1000.000
G1 X79.850 Y39.850 F1000.000
G1 X79.450 Y39.875 F1000.000
G1 X78.975 Y39.856 F1000.000
G1 X78.075 Y39.706 F1000.000
G1 X77.475 Y39.513 F1000.000
G1 X76.987 Y39.288 F1000.000
G1 X76.600 Y39.056 F1000.000
G1 X76.250 Y38.794 F1000.000
G1 X75.894 Y38.487 F1000.000
G1 X75.506 Y38.056 F1000.000
G1 X75.213 Y37.669 F1000.000
G1 X74.944 Y37.237 F1000.000
G1 X74.719 Y36.769 F1000.000
G1 X74.569 Y36.288 F1000.000
G1 X74.475 Y35.888 F1000.000
G1 X74.388 Y34.962 F1000.000
G1 X74.419 Y34.337 F1000.000
G1 X74.513 Y33.819 F1000.000
G1 X74.612 Y33.394 F1000.000
G1 X74.800 Y32.888 F1000.000
G1 X75.019 Y32.444 F1000.000
G1 X75.269 Y32.025 F1000.000
G1 X75.550 Y31.606 F1000.000
G1 X75.956 Y31.131 F1000.000
G1 X76.344 Y30.744 F1000.000
G1 X76.781 Y30.363 F1000.000
G1 X77.275 Y30.012 F1000.000
G1 X77.787 Y29.744 F1000.000
G1 X78.188 Y29.569 F1000.000
G1 X78.694 Y29.406 F1000.000
G1 X79.194 Y29.306 F1000.000
G1 X79.681 Y29.250 F1000.000
G1 X80.188 Y29.219 F1000.000
G1 X80.806 Y29.256 F1000.000
G1 X81.356 Y29.331 F1000.000
G1 X81.912 Y29.488 F1000.000
G1 X82.306 Y29.631 F1000.000
G1 X82.763 Y29.856 F1000.000
G1 X83.569 Y30.387 F1000.000
G1 X84.031 Y30.800 F1000.000
G1 X84.406 Y31.194 F1000.000
G1 X84.769 Y31.625 F1000.000
G1 X85.112 Y32.125 F1000.000
G1 X85.369 Y32.631 F1000.000
G1 X85.544 Y33.050 F1000.000
G1 X85.700 Y33.562 F1000.000
G1 X85.888 Y34.562 F1000.000
G1 X85.919 Y35.181 F1000.000
G1 X85.900 Y35.756 F1000.000
G1 X85.812 Y36.356 F1000.000
G1 X85.706 Y36.831 F1000.000
G1 X85.537 Y37.350 F1000.000
G1 X85.319 Y37.844 F1000.000
G1 X85.069 Y38.300 F1000.000
G1 X84.787 Y38.763 F1000.000
G1 X84.406 Y39.256 F1000.000
G1 X84.013 Y39.694 F1000.000
G1 X83.575 Y40.119 F1000.000
G1 X83.069 Y40.487 F1000.000
G1 X82.669 Y40.744 F1000.000
G1 X82.162 Y41.006 F1000.000
G1 X81.644 Y41.212 F1000.000
G1 X81.131 Y41.369 F1000.000
G1 X80.588 Y41.481 F1000.000
G1 X80.050 Y41.569 F1000.000
G1 X79.425 Y41.606 F1000.000
G1 X78.925 Y41.581 F1000.000
G1 X78.300 Y41.525 F1000.000
G1 X77.681 Y41.406 F1000.000
G1 X77.075 Y41.231 F1000.000
G1 X76.550 Y41.025 F1000.000
G1 X76.069 Y40.794 F1000.000
G1 X75.569 Y40.487 F1000.000
G1 X75.119 Y40.156 F1000.000
G1 X74.694 Y39.788 F1000.000
G1 X74.300 Y39.375 F1000.000
G1 X73.944 Y38.931 F1000.000
G1 X73.631 Y38.456 F1000.000
G1 X73.362 Y37.956 F1000.000
G1 X73.138 Y37.438 F1000.000
G1 X72.956 Y36.900 F1000.000
G1 X72.794 Y36.356 F1000.000
G1 X72.675 Y35.737 F1000.000
G1 X72.600 Y35.112 F1000.000
G1 X72.606 Y34.487 F1000.000
G1 X72.638 Y34.013 F1000.000
G1 X72.731 Y33.438 F1000.000
G1 X72.881 Y32.894 F1000.000
G1 X73.062 Y32.388 F1000.000
G1 X73.269 Y31.869 F1000.000
G1 X73.562 Y31.312 F1000.000
G1 X73.888 Y30.788 F1000.000
G1 X74.250 Y30.275 F1000.000
G1 X74.656 Y29.800 F1000.000
G1 X75.094 Y29.350 F1000.000
G1 X75.562 Y28.938 F1000.000
G1 X76.062 Y28.562 F1000.000
G1 X76.938 Y28.044 F1000.000
G1 X77.494 Y27.819 F1000.000
G1 X78.338 Y27.625 F1000.000
G1 X82.088 Y27.644 F1000.000
G1 X82.931 Y27.806 F1000.000
G1 X83.638 Y28.137 F1000.000
G1 X84.644 Y28.794 F1000.000
G1 X85.112 Y29.200 F1000.000
G1 X85.556 Y29.637 F1000.000
G1 X85.950 Y30.081 F1000.000
G1 X86.319 Y30.581 F1000.000
G1 X86.650 Y31.106 F1000.000
G1 X86.938 Y31.656 F1000.000
G1 X87.181 Y32.225 F1000.000
G1 X87.381 Y32.812 F1000.000
G1 X87.537 Y33.413 F1000.000
G1 X87.644 Y34.025 F1000.000
G1 X87.700 Y34.644 F1000.000
G1 X87.713 Y35.263 F1000.000
G1 X87.675 Y35.881 F1000.000
G1 X87.588 Y36.500 F1000.000
G1 X87.481 Y37.112 F1000.000
G1 X87.319 Y37.712 F1000.000
G1 X87.119 Y38.306 F1000.000
G1 X86.856 Y38.869 F1000.000
G1 X86.606 Y39.337 F1000.000
G1 X86.269 Y39.862 F1000.000
G1 X85.881 Y40.350 F1000.000
G1 X85.475 Y40.794 F1000.000
G1 X85.037 Y41.244 F1000.000
G1 X84.475 Y41.700 F1000.000
G1 X83.806 Y42.144 F1000.000
G1 X83.237 Y42.362 F1000.000
G1 X83.138 Y42.381 F1000.000
G1 X76.338 Y42.356 F1000.000
G1 X75.838 Y42.288 F1000.000
G1 X75.338 Y42.138 F1000.000
G1 X74.412 Y41.663 F1000.000
G1 X73.706 Y41.212 F1000.000
G1 X73.237 Y40.794 F1000.000
G1 X72.838 Y40.375 F1000.000
G1 X72.494 Y39.962 F1000.000
G1 X71.862 Y39.025 F1000.000
G1 X71.575 Y38.462 F1000.000
G1 X71.325 Y37.888 F1000.000
G1 X71.106 Y37.300 F1000.000
G1 X70.938 Y36.694 F1000.000
G1 X70.806 Y36.081 F1000.000
G1 X70.719 Y35.456 F1000.000
G1 X70.675 Y34.831 F1000.000
G1 X70.675 Y34.206 F1000.000
G1 X70.750 Y33.581 F1000.000
G1 X70.838 Y33.075 F1000.000
G1 X71.000 Y32.469 F1000.000
G1 X71.181 Y31.881 F1000.000
G1 X71.419 Y31.300 F1000.000
G1 X71.694 Y30.738 F1000.000
G1 X72.319 Y29.656 F1000.000
G1 X72.681 Y29.150 F1000.000
G1 X73.069 Y28.663 F1000.000
G1 X73.825 Y27.825 F1000.000
G1 X74.169 Y27.625 F1000.000
G1 X76.138 Y27.619 F1000.000
G1 X76.138 Y27.619 F1000.000
G1 X76.463 Y27.669 F1000.000
G1 X76.669 Y27.756 F1000.000
G1 X76.862 Y27.869 F1000.000
G0 X76.956 Y27.938
G0 X77.831 Y28.688
G0 X77.925 Y28.744
G0 X78.131 Y28.812
G0 X80.531 Y28.762
G0 X80.744 Y28.712
G0 X81.312 Y28.350
G1 X81.400 Y28.281 F1000.000
G1 X82.050 Y27.819 F1000.000
G1 X82.256 Y27.719 F1000.000
G1 X82.706 Y27.613 F1000.000
G1 X82.706 Y27.613 F1000.000
G1 X85.050 Y27.637 F1000.000
G1 X85.706 Y27.769 F1000.000
G1 X86.062 Y27.925 F1000.000
G1 X86.388 Y28.131 F1000.000
G1 X86.763 Y28.438 F1000.000
G1 X87.213 Y28.869 F1000.000
G1 X87.625 Y29.331 F1000.000
G1 X88.000 Y29.825 F1000.000
G1 X88.356 Y30.331 F1000.000
G1 X88.650 Y30.881 F1000.000
G1 X88.888 Y31.400 F1000.000
G1 X89.112 Y31.981 F1000.000
G1 X89.281 Y32.581 F1000.000
G1 X89.519 Y33.800 F1000.000
G1 X89.569 Y34.419 F1000.000
G1 X89.588 Y35.038 F1000.000
G1 X89.575 Y35.656 F1000.000
G1 X89.544 Y36.275 F1000.000
G1 X89.469 Y36.894 F1000.000
G1 X89.362 Y37.506 F1000.000
G1 X89.200 Y38.106 F1000.000
G1 X89.013 Y38.700 F1000.000
G1 X88.787 Y39.281 F1000.000
G1 X88.519 Y39.844 F1000.000
G1 X88.219 Y40.394 F1000.000
G1 X87.888 Y40.919 F1000.000
G1 X87.519 Y41.425 F1000.000
G1 X87.119 Y41.906 F1000.000
G1 X86.825 Y42.169 F1000.000
G1 X86.469 Y42.362 F1000.000
G1 X86.369 Y42.381 F1000.000
G1 X83.769 Y42.381 F1000.000
G1 X83.769 Y42.381 F1000.000
G1 X83.537 Y42.350 F1000.000
G1 X83.319 Y42.294 F1000.000
G1 X83.119 Y42.188 F1000.000
G1 X83.044 Y42.112 F1000.000
G0 X82.994 Y42.031
G0 X82.969 Y41.938
G0 X82.975 Y41.612
G0 X84.688 Y28.669
G1 X84.706 Y28.512 F1000.000
G1 X84.756 Y28.231 F1000.000
G1 X84.787 Y28.106 F1000.000
G1 X84.844 Y28.000 F1000.000
G1 X84.906 Y27.906 F1000.000
G1 X85.081 Y27.769 F1000.000
G1 X85.294 Y27.681 F1000.000
G1 X85.631 Y27.613 F1000.000
G1 X85.631 Y27.613 F1000.000
G1 X87.319 Y27.631 F1000.000
G1 X87.975 Y27.762 F1000.000
G1 X88.244 Y27.875 F1000.000
G1 X88.931 Y28.406 F1000.000
G1 X89.438 Y28.919 F1000.000
G1 X89.825 Y29.406 F1000.000
G1 X90.162 Y29.925 F1000.000
G1 X90.450 Y30.438 F1000.000
G1 X90.706 Y30.981 F1000.000
G1 X91.112 Y32.150 F1000.000
G1 X91.256 Y32.756 F1000.000
G1 X91.362 Y33.369 F1000.000
G1 X91.506 Y34.606 F1000.000
G1 X91.525 Y35.225 F1000.000
G1 X91.519 Y35.844 F1000.000
G1 X91.487 Y36.462 F1000.000
G1 X91.419 Y37.081 F1000.000
G1 X91.325 Y37.694 F1000.000
G1 X91.175 Y38.300 F1000.000
G1 X91.006 Y38.900 F1000.000
G1 X90.800 Y39.487 F1000.000
G1 X90.556 Y40.062 F1000.000
G1 X90.281 Y40.625 F1000.000
G1 X89.975 Y41.169 F1000.000
G1 X89.575 Y41.775 F1000.000
G1 X89.256 Y42.150 F1000.000
G1 X89.100 Y42.281 F1000.000
G1 X88.925 Y42.381 F1000.000
G1 X87.325 Y42.381 F1000.000
G1 X87.325 Y42.381 F1000.000
G1 X87.094 Y42.350 F1000.000
G1 X86.875 Y42.294 F1000.000
G1 X86.675 Y42.188 F1000.000
G1 X86.600 Y42.112 F1000.000
G0 X86.544 Y42.031
G0 X86.494 Y41.831
G0 X86.494 Y41.356
G0 X87.000 Y28.669
G1 X87.013 Y28.512 F1000.000
G1 X87.031 Y28.231 F1000.000
G1 X87.056 Y28.106 F1000.000
G1 X87.100 Y28.000 F1000.000
G1 X87.162 Y27.906 F1000.000
G1 X87.244 Y27.831 F1000.000
G1 X87.438 Y27.719 F1000.000
G1 X87.881 Y27.613 F1000.000
G1 X87.881 Y27.613 F1000.000
G1 X89.381 Y27.631 F1000.000
G1 X90.037 Y27.762 F1000.000
G1 X90.306 Y27.863 F1000.000
G1 X91.056 Y28.450 F1000.000
G1 X91.463 Y28.919 F1000.000
G1 X91.825 Y29.419 F1000.000
G1 X92.156 Y29.944 F1000.000
G1 X92.444 Y30.488 F1000.000
G1 X92.688 Y31.056 F1000.000
G1 X93.075 Y32.237 F1000.000
G1 X93.331 Y33.450 F1000.000
G1 X93.419 Y34.069 F1000.000
G1 X93.469 Y34.688 F1000.000
G1 X93.494 Y35.306 F1000.000
G1 X93.481 Y35.925 F1000.000
G1 X93.438 Y36.544 F1000.000
G1 X93.369 Y37.163 F1000.000
G1 X93.156 Y38.388 F1000.000
G1 X93.013 Y38.994 F1000.000
G1 X92.844 Y39.594 F1000.000
G1 X92.656 Y40.188 F1000.000
G1 X92.150 Y41.325 F1000.000
G1 X91.856 Y41.875 F1000.000
G1 X91.612 Y42.188 F1000.000
G1 X91.369 Y42.362 F1000.000
G1 X91.269 Y42.381 F1000.000
G1 X89.869 Y42.381 F1000.000
G1 X89.869 Y42.381 F1000.000
G1 X89.638 Y42.350 F1000.000
G1 X89.419 Y42.294 F1000.000
G1 X89.219 Y42.188 F1000.000
G1 X89.138 Y42.112 F1000.000
G0 X89.088 Y42.031
G0 X89.031 Y41.831
G0 X89.013 Y41.356
G0 X89.050 Y28.669
G1 X89.056 Y28.512 F1000.000
G1 X89.062 Y28.231 F1000.000
G1 X89.088 Y28.106 F1000.000
G1 X89.131 Y28.000 F1000.000
G1 X89.194 Y27.906 F1000.000
G1 X89.269 Y27.831 F1000.000
G1 X89.463 Y27.719 F1000.000
G1 X89.906 Y27.613 F1000.000
G1 X89.906 Y27.613 F1000.000
G1 X91.406 Y27.637 F1000.000
G1 X91.969 Y27.750 F1000.000
G1 X92.237 Y27.850 F1000.000
G1 X92.925 Y28.381 F1000.000
G1 X93.412 Y28.913 F1000.000
G1 X93.781 Y29.413 F1000.000
G1 X94.112 Y29.938 F1000.000
G1 X94.406 Y30.469 F1000.000
G1 X94.656 Y31.038 F1000.000
G1 X94.862 Y31.625 F1000.000
G1 X95.181 Y32.825 F1000.000
G1 X95.281 Y33.438 F1000.000
G1 X95.419 Y34.675 F1000.000
G1 X95.438 Y35.294 F1000.000
G1 X95.431 Y35.913 F1000.000
G1 X95.406 Y36.531 F1000.000
G1 X95.344 Y37.150 F1000.000
G1 X95.256 Y37.769 F1000.000
G1 X95.037 Y38.994 F1000.000
G1 X94.894 Y39.600 F1000.000
G1 X94.731 Y40.200 F1000.000
G1 X94.306 Y41.369 F1000.000
G1 X93.969 Y42.006 F1000.000
G1 X93.856 Y42.169 F1000.000
G1 X93.787 Y42.244 F1000.000
G1 X93.619 Y42.356 F1000.000
G1 X93.519 Y42.381 F1000.000
G1 X92.219 Y42.381 F1000.000
G1 X92.219 Y42.381 F1000.000
G1 X91.987 Y42.350 F1000.000
G1 X91.769 Y42.294 F1000.000
G1 X91.569 Y42.188 F1000.000
G1 X91.487 Y42.112 F1000.000
G0 X91.431 Y42.031
G0 X91.375 Y41.831
G0 X91.350 Y41.356
G0 X91.094 Y28.669
G1 X91.094 Y28.512 F1000.000
G1 X91.094 Y28.231 F1000.000
G1 X91.119 Y28.106 F1000.000
G1 X91.156 Y28.000 F1000.000
G1 X91.219 Y27.906 F1000.000
G1 X91.294 Y27.831 F1000.000
G1 X91.487 Y27.719 F1000.000
G1 X91.931 Y27.613 F1000.000
G1 X91.931 Y27.613 F1000.000
G1 X93.338 Y27.631 F1000.000
G1 X93.900 Y27.738 F1000.000
G1 X94.175 Y27.837 F1000.000
G1 X94.787 Y28.275 F1000.000
G1 X95.356 Y28.863 F1000.000
G1 X95.725 Y29.363 F1000.000
G1 X96.050 Y29.887 F1000.000
G1 X96.325 Y30.375 F1000.000
G1 X96.575 Y30.944 F1000.000
G1 X96.781 Y31.531 F1000.000
G1 X97.106 Y32.731 F1000.000
G1 X97.231 Y33.337 F1000.000
G1 X97.319 Y33.950 F1000.000
G1 X97.388 Y34.569 F1000.000
G1 X97.425 Y35.188 F1000.000
G1 X97.425 Y35.806 F1000.000
G1 X97.400 Y36.425 F1000.000
G1 X97.294 Y37.663 F1000.000
G1 X97.206 Y38.281 F1000.000
G1 X96.981 Y39.506 F1000.000
G1 X96.669 Y40.712 F1000.000
G1 X96.456 Y41.300 F1000.000
G1 X96.194 Y41.869 F1000.000
G1 X95.969 Y42.194 F1000.000
G1 X95.812 Y42.319 F1000.000
G1 X95.725 Y42.369 F1000.000
G1 X94.325 Y42.381 F1000.000
G1 X94.325 Y42.381 F1000.000
G1 X94.094 Y42.350 F1000.000
G1 X93.875 Y42.294 F1000.000
G1 X93.675 Y42.188 F1000.000
G1 X93.594 Y42.112 F1000.000
G0 X93.537 Y42.031
G0 X93.481 Y41.831
G0 X93.450 Y41.356
G0 X93.125 Y28.669
G1 X93.125 Y28.512 F1000.000
G1 X93.125 Y28.231 F1000.000
G1 X93.144 Y28.106 F1000.000
G1 X93.181 Y28.000 F1000.000
G1 X93.244 Y27.906 F1000.000
G1 X93.319 Y27.831 F1000.000
G1 X93.513 Y27.719 F1000.000
G1 X93.956 Y27.613 F1000.000
G1 X93.956 Y27.613 F1000.000
G1 X95.362 Y27.637 F1000.000
G1 X95.925 Y27.750 F1000.000
G1 X96.194 Y27.850 F1000.000
G1 X96.731 Y28.244 F1000.000
G1 X96.938 Y28.444 F1000.000
G1 X97.356 Y28.906 F1000.000
G1 X97.719 Y29.413 F1000.000
G1 X98.037 Y29.950 F1000.000
G1 X98.300 Y30.444 F1000.000
G1 X98.763 Y31.600 F1000.000
G1 X98.938 Y32.194 F1000.000
G1 X99.075 Y32.800 F1000.000
G1 X99.287 Y34.025 F1000.000
G1 X99.338 Y34.644 F1000.000
G1 X99.369 Y35.263 F1000.000
G1 X99.388 Y36.500 F1000.000
G1 X99.356 Y37.119 F1000.000
G1 X99.244 Y38.356 F1000.000
G1 X99.156 Y38.975 F1000.000
G1 X99.050 Y39.587 F1000.000
G1 X98.925 Y40.194 F1000.000
G1 X98.750 Y40.794 F1000.000
G1 X98.537 Y41.381 F1000.000
G1 X98.269 Y41.944 F1000.000
G1 X98.100 Y42.188 F1000.000
G1 X97.950 Y42.312 F1000.000
G1 X97.862 Y42.362 F1000.000
G1 X97.763 Y42.381 F1000.000
G1 X96.463 Y42.381 F1000.000
G1 X96.463 Y42.381 F1000.000
G1 X96.231 Y42.350 F1000.000
G1 X96.013 Y42.294 F1000.000
G1 X95.812 Y42.188 F1000.000
G1 X95.731 Y42.112 F1000.000
G0 X95.675 Y42.031
G0 X95.612 Y41.831
G0 X95.581 Y41.356
G0 X95.150 Y28.669
G1 X95.150 Y28.512 F1000.000
G1 X95.150 Y28.231 F1000.000
G1 X95.169 Y28.106 F1000.000
G1 X95.206 Y28.000 F1000.000
G1 X95.269 Y27.906 F1000.000
G1 X95.344 Y27.831 F1000.000
G1 X95.537 Y27.719 F1000.000
G1 X95.981 Y27.613 F1000.000
G1 X95.981 Y27.613 F1000.000
G1 X97.294 Y27.631 F1000.000
G1 X97.856 Y27.738 F1000.000
G1 X98.206 Y27.894 F1000.000
G1 X98.800 Y28.356 F1000.000
G1 X99.287 Y28.881 F1000.000
G1 X99.650 Y29.381 F1000.000
G1 X99.975 Y29.913 F1000.000
G1 X100.275 Y30.444 F1000.000
G1 X100.525 Y31.012 F1000.000
G1 X100.737 Y31.594 F1000.000
G1 X100.912 Y32.188 F1000.000
G1 X101.169 Y33.400 F1000.000
G1 X101.237 Y34.019 F1000.000
G1 X101.325 Y34.631 F1000.000
G1 X101.375 Y35.250 F1000.000
G1 X101.419 Y36.487 F1000.000
G1 X101.406 Y37.106 F1000.000
G1 X101.375 Y37.725 F1000.000
G1 X101.325 Y38.344 F1000.000
G1 X101.250 Y38.962 F1000.000
G1 X101.156 Y39.575 F1000.000
G1 X100.856 Y40.781 F1000.000
G1 X100.669 Y41.375 F1000.000
G1 X100.406 Y41.944 F1000.000
G1 X100.237 Y42.194 F1000.000
G1 X100.088 Y42.325 F1000.000
G1 X100.000 Y42.375 F1000.000
G1 X98.600 Y42.381 F1000.000
G1 X98.600 Y42.381 F1000.000
G1 X98.369 Y42.350 F1000.000
G1 X98.150 Y42.294 F1000.000
G1 X97.950 Y42.188 F1000.000
G1 X97.869 Y42.112 F1000.000
G0 X97.812 Y42.031
G0 X97.744 Y41.831
G0 X97.700 Y41.356
G0 X96.975 Y28.669
G1 X96.969 Y28.512 F1000.000
G1 X96.956 Y28.231 F1000.000
G1 X96.975 Y28.106 F1000.000
G1 X97.013 Y28.000 F1000.000
G1 X97.069 Y27.906 F1000.000
G1 X97.144 Y27.831 F1000.000
G1 X97.338 Y27.719 F1000.000
G1 X97.781 Y27.613 F1000.000
G1 X97.781 Y27.613 F1000.000
G1 X99.188 Y27.631 F1000.000
G1 X99.844 Y27.750 F1000.000
G1 X100.194 Y27.906 F1000.000
G1 X100.644 Y28.250 F1000.000
G1 X100.850 Y28.456 F1000.000
G1 X101.263 Y28.919 F1000.000
G1 X101.631 Y29.419 F1000.000
G1 X101.963 Y29.944 F1000.000
G1 X102.244 Y30.494 F1000.000
G1 X102.475 Y31.031 F1000.000
G1 X102.869 Y32.206 F1000.000
G1 X103.150 Y33.419 F1000.000
G1 X103.250 Y34.031 F1000.000
G1 X103.425 Y35.888 F1000.000
G1 X103.438 Y37.125 F1000.000
G1 X103.425 Y37.744 F1000.000
G1 X103.388 Y38.362 F1000.000
G1 X103.331 Y38.981 F1000.000
G1 X103.100 Y40.206 F1000.000
G1 X102.950 Y40.812 F1000.000
G1 X102.769 Y41.406 F1000.000
G1 X102.506 Y41.969 F1000.000
G1 X102.338 Y42.212 F1000.000
G1 X102.088 Y42.381 F1000.000
G1 X100.787 Y42.381 F1000.000
G1 X100.787 Y42.381 F1000.000
G1 X100.556 Y42.350 F1000.000
G1 X100.338 Y42.294 F1000.000
G1 X100.138 Y42.188 F1000.000
G1 X100.056 Y42.112 F1000.000
G0 X100.000 Y42.031
G0 X99.931 Y41.831
G0 X99.881 Y41.356
G0 X99.006 Y28.669
G1 X99.000 Y28.512 F1000.000
G1 X98.987 Y28.231 F1000.000
G1 X99.000 Y28.106 F1000.000
G1 X99.037 Y28.000 F1000.000
G1 X99.094 Y27.906 F1000.000
G1 X99.175 Y27.831 F1000.000
G1 X99.362 Y27.719 F1000.000
G1 X99.806 Y27.613 F1000.000
G1 X99.806 Y27.613 F1000.000
G1 X101.213 Y27.631 F1000.000
G1 X101.869 Y27.756 F1000.000
G1 X102.131 Y27.869 F1000.000
G1 X102.650 Y28.275 F1000.000
G1 X102.856 Y28.475 F1000.000
G1 X103.263 Y28.944 F1000.000
G1 X103.619 Y29.450 F1000.000
G1 X103.919 Y29.944 F1000.000
G1 X104.194 Y30.475 F1000.000
G1 X104.456 Y31.038 F1000.000
G1 X104.662 Y31.625 F1000.000
G1 X104.838 Y32.219 F1000.000
G1 X105.125 Y33.431 F1000.000
G1 X105.244 Y34.044 F1000.000
G1 X105.412 Y35.275 F1000.000
G1 X105.469 Y35.894 F1000.000
G1 X105.506 Y36.513 F1000.000
G1 X105.525 Y37.131 F1000.000
G1 X105.525 Y37.750 F1000.000
G1 X105.400 Y38.987 F1000.000
G1 X105.300 Y39.600 F1000.000
G1 X105.162 Y40.206 F1000.000
G1 X105.006 Y40.806 F1000.000
G1 X104.819 Y41.400 F1000.000
G1 X104.562 Y41.969 F1000.000
G1 X104.463 Y42.131 F1000.000
G1 X104.325 Y42.275 F1000.000
G1 X104.156 Y42.381 F1000.000
G1 X102.656 Y42.381 F1000.000
G1 X102.656 Y42.381 F1000.000
G1 X102.425 Y42.350 F1000.000
G1 X102.206 Y42.294 F1000.000
G1 X102.006 Y42.188 F1000.000
G1 X101.925 Y42.112 F1000.000
G0 X101.869 Y42.031
G0 X101.800 Y41.831
G0 X101.756 Y41.356
G0 X101.025 Y28.669
G1 X101.019 Y28.512 F1000.000
G1 X101.006 Y28.231 F1000.000
G1 X101.025 Y28.106 F1000.000
G1 X101.062 Y28.000 F1000.000
G1 X101.119 Y27.906 F1000.000
G1 X101.194 Y27.831 F1000.000
G1 X101.388 Y27.719 F1000.000
G1 X101.831 Y27.613 F1000.000
G1 X101.831 Y27.613 F1000.000
G1 X103.237 Y27.637 F1000.000
G1 X103.800 Y27.744 F1000.000
G1 X104.150 Y27.894 F1000.000
G1 X104.525 Y28.181 F1000.000
G1 X104.800 Y28.444 F1000.000
G1 X105.206 Y28.913 F1000.000
G1 X105.569 Y29.419 F1000.000
G1 X105.875 Y29.931 F1000.000
G1 X106.131 Y30.425 F1000.000
G1 X106.400 Y30.988 F1000.000
G1 X106.819 Y32.156 F1000.000
G1 X107.138 Y33.356 F1000.000
G1 X107.263 Y33.962 F1000.000
G1 X107.362 Y34.575 F1000.000
G1 X107.444 Y35.194 F1000.000
G1 X107.494 Y35.812 F1000.000
G1 X107.519 Y36.431 F1000.000
G1 X107.519 Y37.050 F1000.000
G1 X107.469 Y38.288 F1000.000
G1 X107.412 Y38.906 F1000.000
G1 X107.338 Y39.525 F1000.000
G1 X107.088 Y40.744 F1000.000
G1 X106.900 Y41.337 F1000.000
G1 X106.656 Y41.913 F1000.000
G1 X106.500 Y42.169 F1000.000
G1 X106.431 Y42.244 F1000.000
G1 X106.263 Y42.362 F1000.000
G1 X106.162 Y42.381 F1000.000
G1 X104.662 Y42.381 F1000.000
G1 X104.662 Y42.381 F1000.000
G1 X104.431 Y42.350 F1000.000
G1 X104.213 Y42.294 F1000.000
G1 X104.013 Y42.188 F1000.000
G1 X103.931 Y42.112 F1000.000
G0 X103.875 Y42.031
G0 X103.806 Y41.831
G0 X103.763 Y41.356
G0 X103.050 Y28.669
G1 X103.044 Y28.512 F1000.000
G1 X103.031 Y28.231 F1000.000
G1 X103.050 Y28.106 F1000.000
G1 X103.088 Y28.000 F1000.000
G1 X103.144 Y27.906 F1000.000
G1 X103.219 Y27.831 F1000.000
G1 X103.412 Y27.719 F1000.000
G1 X103.856 Y27.613 F1000.000
G1 X103.856 Y27.613 F1000.000
G1 X105.169 Y27.637 F1000.000
G1 X105.731 Y27.738 F1000.000
G1 X106.088 Y27.881 F1000.000
G1 X106.744 Y28.431 F1000.000
G1 X107.156 Y28.894 F1000.000
G1 X107.519 Y29.394 F1000.000
G1 X107.850 Y29.919 F1000.000
G1 X108.150 Y30.462 F1000.000
G1 X108.650 Y31.606 F1000.000
G1 X108.844 Y32.194 F1000.000
G1 X109.000 Y32.794 F1000.000
G1 X109.275 Y34.006 F1000.000
G1 X109.362 Y34.619 F1000.000
G1 X109.487 Y35.856 F1000.000
G1 X109.513 Y36.475 F1000.000
G1 X109.519 Y37.094 F1000.000
G1 X109.500 Y37.712 F1000.000
G1 X109.456 Y38.331 F1000.000
G1 X109.394 Y38.950 F1000.000
G1 X109.306 Y39.569 F1000.000
G1 X109.194 Y40.181 F1000.000
G1 X109.062 Y40.788 F1000.000
G1 X108.906 Y41.388 F1000.000
G1 X108.662 Y41.962 F1000.000
G1 X108.494 Y42.212 F1000.000
G1 X108.338 Y42.337 F1000.000
G1 X108.250 Y42.381 F1000.000
G1 X107.150 Y42.381 F1000.000
G1 X107.150 Y42.381 F1000.000
G1 X106.919 Y42.350 F1000.000
G1 X106.700 Y42.294 F1000.000
G1 X106.494 Y42.188 F1000.000
G1 X106.419 Y42.112 F1000.000
G0 X106.356 Y42.031
G0 X106.287 Y41.831
G0 X106.219 Y41.356
G0 X104.881 Y28.669
G1 X104.869 Y28.512 F1000.000
G1 X104.850 Y28.231 F1000.000
G1 X104.856 Y28.106 F1000.000
G1 X104.894 Y28.000 F1000.000
G1 X104.950 Y27.906 F1000.000
G1 X105.025 Y27.831 F1000.000
G1 X105.213 Y27.719 F1000.000
G1 X105.656 Y27.613 F1000.000
G1 X105.656 Y27.613 F1000.000
G1 X107.062 Y27.631 F1000.000
G1 X107.719 Y27.762 F1000.000
G1 X108.069 Y27.919 F1000.000
G1 X108.594 Y28.331 F1000.000
G1 X109.162 Y28.913 F1000.000
G1 X109.537 Y29.406 F1000.000
G1 X110.156 Y30.413 F1000.000
G1 X110.419 Y30.975 F1000.000
G1 X110.638 Y31.556 F1000.000
G1 X111.006 Y32.744 F1000.000
G1 X111.162 Y33.344 F1000.000
G1 X111.388 Y34.569 F1000.000
G1 X111.469 Y35.188 F1000.000
G1 X111.519 Y35.806 F1000.000
G1 X111.550 Y36.425 F1000.000
G1 X111.550 Y37.044 F1000.000
G1 X111.525 Y37.663 F1000.000
G1 X111.431 Y38.900 F1000.000
G1 X111.256 Y40.131 F1000.000
G1 X111.150 Y40.744 F1000.000
G1 X110.969 Y41.337 F1000.000
G1 X110.688 Y42.000 F1000.000
G1 X110.581 Y42.169 F1000.000
G1 X110.431 Y42.300 F1000.000
G1 X110.344 Y42.356 F1000.000
G1 X110.244 Y42.381 F1000.000
G1 X108.444 Y42.381 F1000.000
G1 X108.444 Y42.381 F1000.000
G1 X108.213 Y42.350 F1000.000
G1 X107.994 Y42.294 F1000.000
G1 X107.794 Y42.188 F1000.000
G1 X107.713 Y42.112 F1000.000
G0 X107.656 Y42.031
G0 X107.594 Y41.831
G0 X107.550 Y41.356
G0 X106.869 Y28.669
G1 X106.862 Y28.512 F1000.000
G1 X106.856 Y28.231 F1000.000
G1 X106.875 Y28.106 F1000.000
G1 X106.912 Y28.000 F1000.000
G1 X106.969 Y27.906 F1000.000
G1 X107.044 Y27.831 F1000.000
G1 X107.237 Y27.719 F1000.000
G1 X107.681 Y27.613 F1000.000
G1 X107.681 Y27.613 F1000.000
G1 X109.088 Y27.631 F1000.000
G1 X109.744 Y27.750 F1000.000
G1 X110.100 Y27.894 F1000.000
G1 X110.756 Y28.444 F1000.000
G1 X111.188 Y28.887 F1000.000
G1 X111.556 Y29.387 F1000.000
G1 X112.131 Y30.356 F1000.000
G1 X112.406 Y30.913 F1000.000
G1 X112.625 Y31.494 F1000.000
G1 X113.006 Y32.675 F1000.000
G1 X113.169 Y33.275 F1000.000
G1 X113.300 Y33.881 F1000.000
G1 X113.412 Y34.494 F1000.000
G1 X113.500 Y35.106 F1000.000
G1 X113.562 Y35.725 F1000.000
G1 X113.606 Y36.344 F1000.000
G1 X113.625 Y36.962 F1000.000
G1 X113.619 Y37.581 F1000.000
G1 X113.588 Y38.200 F1000.000
G1 X113.531 Y38.819 F1000.000
G1 X113.450 Y39.438 F1000.000
G1 X113.344 Y40.050 F1000.000
G1 X113.219 Y40.663 F1000.000
G1 X113.044 Y41.263 F1000.000
G1 X112.769 Y41.925 F1000.000
G1 X112.612 Y42.181 F1000.000
G1 X112.369 Y42.369 F1000.000
G1 X110.469 Y42.381 F1000.000
G1 X110.469 Y42.381 F1000.000
G1 X110.237 Y42.350 F1000.000
G1 X110.019 Y42.294 F1000.000
G1 X109.819 Y42.188 F1000.000
G1 X109.737 Y42.112 F1000.000
G0 X109.681 Y42.031
G0 X109.619 Y41.831
G0 X109.575 Y41.356
G0 X108.894 Y28.669
G1 X108.888 Y28.512 F1000.000
G1 X108.881 Y28.231 F1000.000
G1 X108.900 Y28.106 F1000.000
G1 X108.938 Y28.000 F1000.000
G1 X108.994 Y27.906 F1000.000
G1 X109.069 Y27.831 F1000.000
G1 X109.263 Y27.719 F1000.000
G1 X109.706 Y27.613 F1000.000
G1 X109.706 Y27.613 F1000.000
G1 X111.206 Y27.637 F1000.000
G1 X111.769 Y27.744 F1000.000
G1 X112.119 Y27.894 F1000.000
G1 X112.569 Y28.244 F1000.000
G1 X112.775 Y28.450 F1000.000
G1 X113.188 Y28.913 F1000.000
G1 X113.556 Y29.413 F1000.000
G1 X113.888 Y29.938 F1000.000
G1 X114.200 Y30.475 F1000.000
G1 X114.463 Y31.038 F1000.000
G1 X114.688 Y31.619 F1000.000
G1 X115.069 Y32.800 F1000.000
G1 X115.206 Y33.406 F1000.000
G1 X115.319 Y34.019 F1000.000
G1 X115.513 Y35.244 F1000.000
G1 X115.650 Y37.100 F1000.000
G1 X115.662 Y37.719 F1000.000
G1 X115.581 Y38.956 F1000.000
G1 X115.506 Y39.575 F1000.000
G1 X115.400 Y40.188 F1000.000
G1 X115.244 Y40.788 F1000.000
G1 X115.069 Y41.388 F1000.000
G1 X114.819 Y41.956 F1000.000
G1 X114.656 Y42.200 F1000.000
G1 X114.500 Y42.325 F1000.000
G1 X114.412 Y42.375 F1000.000
G1 X112.513 Y42.381 F1000.000
G1 X112.513 Y42.381 F1000.000
G1 X112.281 Y42.350 F1000.000
G1 X112.062 Y42.294 F1000.000
G1 X111.862 Y42.188 F1000.000
G1 X111.781 Y42.112 F1000.000
G0 X111.725 Y42.031
G0 X111.662 Y41.831
G0 X111.619 Y41.356
G0 X110.919 Y28.669
G1 X110.912 Y28.512 F1000.000
G1 X110.906 Y28.231 F1000.000
G1 X110.925 Y28.106 F1000.000
G1 X110.963 Y28.000 F1000.000
G1 X111.019 Y27.906 F1000.000
G1 X111.094 Y27.831 F1000.000
G1 X111.287 Y27.719 F1000.000
G1 X111.731 Y27.613 F1000.000
G1 X111.731 Y27.613 F1000.000
G1 X113.231 Y27.644 F1000.000
G1 X113.794 Y27.762 F1000.000
G1 X114.056 Y27.875 F1000.000
G1 X114.588 Y28.275 F1000.000
G1 X115.219 Y28.925 F1000.000
G1 X115.588 Y29.425 F1000.000
G1 X115.919 Y29.950 F1000.000
G1 X116.219 Y30.469 F1000.000
G1 X116.475 Y31.031 F1000.000
G1 X116.694 Y31.613 F1000.000
G1 X117.062 Y32.800 F1000.000
G1 X117.219 Y33.400 F1000.000
G1 X117.456 Y34.619 F1000.000
G1 X117.544 Y35.231 F1000.000
G1 X117.606 Y35.850 F1000.000
G1 X117.650 Y36.469 F1000.000
G1 X117.669 Y37.087 F1000.000
G1 X117.662 Y37.706 F1000.000
G1 X117.631 Y38.325 F1000.000
G1 X117.581 Y38.944 F1000.000
G1 X117.506 Y39.562 F1000.000
G1 X117.406 Y40.175 F1000.000
G1 X117.287 Y40.788 F1000.000
G1 X117.100 Y41.381 F1000.000
G1 X116.850 Y41.956 F1000.000
G1 X116.750 Y42.131 F1000.000
G1 X116.612 Y42.275 F1000.000
G1 X116.444 Y42.381 F1000.000
G1 X114.644 Y42.381 F1000.000
G1 X114.644 Y42.381 F1000.000
G1 X114.412 Y42.350 F1000.000
G1 X114.194 Y42.294 F1000.000
G1 X113.994 Y42.188 F1000.000
G1 X113.912 Y42.112 F1000.000
G0 X113.856 Y42.031
G0 X113.787 Y41.831
G0 X113.744 Y41.356
G0 X112.950 Y28.669
G1 X112.944 Y28.512 F1000.000
G1 X112.931 Y28.231 F1000.000
G1 X112.950 Y28.106 F1000.000
G1 X112.987 Y28.000 F1000.000
G1 X113.044 Y27.906 F1000.000
G1 X113.119 Y27.831 F1000.000
G1 X113.312 Y27.719 F1000.000
G1 X113.756 Y27.613 F1000.000
G1 X113.756 Y27.613 F1000.000
G1 X115.256 Y27.644 F1000.000
G1 X115.725 Y27.731 F1000.000
G1 X116.081 Y27.875 F1000.000
G1 X116.606 Y28.281 F1000.000
G1 X117.156 Y28.881 F1000.000
G1 X117.556 Y29.356 F1000.000
G1 X117.888 Y29.881 F1000.000
G1 X118.181 Y30.419 F1000.000
G1 X118.450 Y30.962 F1000.000
G1 X118.888 Y32.125 F1000.000
G1 X119.081 Y32.712 F1000.000
G1 X119.369 Y33.925 F1000.000
G1 X119.475 Y34.538 F1000.000
G1 X119.550 Y35.156 F1000.000
G1 X119.662 Y36.394 F1000.000
G1 X119.688 Y37.631 F1000.000
G1 X119.681 Y38.250 F1000.000
G1 X119.650 Y38.869 F1000.000
G1 X119.600 Y39.487 F1000.000
G1 X119.369 Y40.712 F1000.000
G1 X119.188 Y41.306 F1000.000
G1 X118.975 Y41.894 F1000.000
G1 X118.819 Y42.144 F1000.000
G1 X118.750 Y42.219 F1000.000
G1 X118.588 Y42.337 F1000.000
G1 X118.494 Y42.381 F1000.000
G1 X116.594 Y42.381 F1000.000
G1 X116.594 Y42.381 F1000.000
G1 X116.362 Y42.350 F1000.000
G1 X116.144 Y42.294 F1000.000
G1 X115.944 Y42.188 F1000.000
G1 X115.862 Y42.112 F1000.000
G0 X115.806 Y42.031
G0 X115.737 Y41.831
G0 X115.694 Y41.356
G0 X114.975 Y28.669
G1 X114.969 Y28.512 F1000.000
G1 X114.956 Y28.231 F1000.000
G1 X114.975 Y28.106 F1000.000
G1 X115.013 Y28.000 F1000.000
G1 X115.069 Y27.906 F1000.000
G1 X115.144 Y27.831 F1000.000
G1 X115.338 Y27.719 F1000.000
G1 X115.781 Y27.613 F1000.000
G1 X115.781 Y27.613 F1000.000
G1 X117.188 Y27.637 F1000.000
G1 X117.750 Y27.731 F1000.000
G1 X118.106 Y27.875 F1000.000
G1 X118.763 Y28.419 F1000.000
G1 X119.181 Y28.875 F1000.000
G1 X119.556 Y29.369 F1000.000
G1 X119.900 Y29.887 F1000.000
G1 X120.206 Y30.425 F1000.000
G1 X120.469 Y30.988 F1000.000
G1 X120.912 Y32.150 F1000.000
G1 X121.100 Y32.744 F1000.000
G1 X121.388 Y33.950 F1000.000
G1 X121.494 Y34.562 F1000.000
G1 X121.569 Y35.181 F1000.000
G1 X121.688 Y36.419 F1000.000
G1 X121.713 Y38.275 F1000.000
G1 X121.638 Y39.513 F1000.000
G1 X121.431 Y40.737 F1000.000
G1 X121.250 Y41.331 F1000.000
G1 X121.019 Y41.900 F1000.000
G1 X120.862 Y42.156 F1000.000
G1 X120.719 Y42.294 F1000.000
G1 X120.631 Y42.350 F1000.000
G1 X120.537 Y42.381 F1000.000
G1 X118.737 Y42.381 F1000.000
G1 X118.737 Y42.381 F1000.000
G1 X118.506 Y42.350 F1000.000
G1 X118.287 Y42.294 F1000.000
G1 X118.088 Y42.188 F1000.000
G1 X118.006 Y42.112 F1000.000
G0 X117.950 Y42.031
G0 X117.881 Y41.831
G0 X117.831 Y41.356
G0 X117.000 Y28.669
G1 X116.994 Y28.512 F1000.000
G1 X116.981 Y28.231 F1000.000
G1 X117.000 Y28.106 F1000.000
G1 X117.037 Y28.000 F1000.000
G1 X117.094 Y27.906 F1000.000
G1 X117.169 Y27.831 F1000.000
G1 X117.362 Y27.719 F1000.000
G1 X117.806 Y27.613 F1000.000
G1 X117.806 Y27.613 F1000.000
G1 X119.213 Y27.637 F1000.000
G1 X119.775 Y27.744 F1000.000
G1 X120.131 Y27.887 F1000.000
G1 X120.725 Y28.369 F1000.000
G1 X121.231 Y28.875 F1000.000
G1 X121.594 Y29.375 F1000.000
G1 X121.881 Y29.825 F1000.000
G1 X122.175 Y30.325 F1000.000
G1 X122.450 Y30.881 F1000.000
G1 X122.681 Y31.456 F1000.000
G1 X123.075 Y32.631 F1000.000
G1 X123.244 Y33.231 F1000.000
G1 X123.494 Y34.450 F1000.000
G1 X123.588 Y35.062 F1000.000
G1 X123.650 Y35.681 F1000.000
G1 X123.744 Y36.919 F1000.000
G1 X123.750 Y38.775 F1000.000
G1 X123.719 Y39.394 F1000.000
G1 X123.619 Y40.006 F1000.000
G1 X123.494 Y40.612 F1000.000
G1 X123.344 Y41.219 F1000.000
G1 X123.144 Y41.806 F1000.000
G1 X122.938 Y42.144 F1000.000
G1 X122.713 Y42.331 F1000.000
G1 X122.625 Y42.381 F1000.000
G1 X120.825 Y42.381 F1000.000
G1 X120.825 Y42.381 F1000.000
G1 X120.594 Y42.350 F1000.000
G1 X120.375 Y42.294 F1000.000
G1 X120.175 Y42.188 F1000.000
G1 X120.094 Y42.112 F1000.000
G0 X120.037 Y42.031
G0 X119.969 Y41.831
G0 X119.919 Y41.356
G0 X119.031 Y28.669
G1 X119.025 Y28.512 F1000.000
G1 X119.013 Y28.231 F1000.000
G1 X119.025 Y28.106 F1000.000
G1 X119.062 Y28.000 F1000.000
G1 X119.119 Y27.906 F1000.000
G1 X119.200 Y27.831 F1000.000
G1 X119.388 Y27.719 F1000.000
G1 X119.831 Y27.613 F1000.000
G1 X119.831 Y27.613 F1000.000
G1 X121.237 Y27.637 F1000.000
G1 X121.800 Y27.744 F1000.000
G1 X122.069 Y27.844 F1000.000
G1 X122.606 Y28.231 F1000.000
G1 X123.237 Y28.881 F1000.000
G1 X123.612 Y29.375 F1000.000
G1 X124.256 Y30.425 F1000.000
G1 X124.525 Y30.988 F1000.000
G1 X124.750 Y31.562 F1000.000
G1 X125.138 Y32.737 F1000.000
G1 X125.525 Y34.562 F1000.000
G1 X125.662 Y35.800 F1000.000
G1 X125.769 Y37.038 F1000.000
G1 X125.812 Y38.275 F1000.000
G1 X125.737 Y39.513 F1000.000
G1 X125.638 Y40.125 F1000.000
G1 X125.513 Y40.737 F1000.000
G1 X125.362 Y41.344 F1000.000
G1 X125.119 Y41.919 F1000.000
G1 X124.963 Y42.169 F1000.000
G1 X124.812 Y42.300 F1000.000
G1 X124.725 Y42.350 F1000.000
G1 X124.631 Y42.381 F1000.000
G1 X122.831 Y42.381 F1000.000
G1 X122.831 Y42.381 F1000.000
G1 X122.600 Y42.350 F1000.000
G1 X122.381 Y42.294 F1000.000
G1 X122.181 Y42.188 F1000.000
G1 X122.100 Y42.112 F1000.000
G0 X122.044 Y42.031
G0 X121.975 Y41.831
G0 X121.925 Y41.356
G0 X121.056 Y28.669
G1 X121.050 Y28.512 F1000.000
G1 X121.037 Y28.231 F1000.000
G1 X121.050 Y28.106 F1000.000
G1 X121.088 Y28.000 F1000.000
G1 X121.144 Y27.906 F1000.000
G1 X121.225 Y27.831 F1000.000
G1 X121.412 Y27.719 F1000.000
G1 X121.856 Y27.613 F1000.000
G1 X121.856 Y27.613 F1000.000
G1 X123.263 Y27.637 F1000.000
G1 X123.825 Y27.750 F1000.000
G1 X124.094 Y27.850 F1000.000
G1 X124.631 Y28.238 F1000.000
G1 X124.838 Y28.431 F1000.000
G1 X125.263 Y28.881 F1000.000
G1 X125.638 Y29.375 F1000.000
G1 X125.969 Y29.900 F1000.000
G1 X126.269 Y30.413 F1000.000
G1 X126.531 Y30.975 F1000.000
G1 X126.969 Y32.138 F1000.000
G1 X127.156 Y32.731 F1000.000
G1 X127.306 Y33.337 F1000.000
G1 X127.438 Y33.944 F1000.000
G1 X127.644 Y35.169 F1000.000
G1 X127.713 Y35.788 F1000.000
G1 X127.800 Y37.025 F1000.000
G1 X127.812 Y37.644 F1000.000
G1 X127.787 Y38.881 F1000.000
G1 X127.744 Y39.500 F1000.000
G1 X127.681 Y40.119 F1000.000
G1 X127.550 Y40.725 F1000.000
G1 X127.381 Y41.325 F1000.000
G1 X127.100 Y41.987 F1000.000
G1 X126.994 Y42.156 F1000.000
G1 X126.925 Y42.231 F1000.000
G1 X126.756 Y42.350 F1000.000
G1 X126.662 Y42.381 F1000.000
G1 X124.862 Y42.381 F1000.000
G1 X124.862 Y42.381 F1000.000
G1 X124.631 Y42.350 F1000.000
G1 X124.412 Y42.294 F1000.000
G1 X124.213 Y42.188 F1000.000
G1 X124.131 Y42.112 F1000.000
G0 X124.075 Y42.031
G0 X124.006 Y41.831
G0 X123.956 Y41.356
G0 X123.081 Y28.669
G1 X123.075 Y28.512 F1000.000
G1 X123.062 Y28.231 F1000.000
G1 X123.075 Y28.106 F1000.000
G1 X123.112 Y28.000 F1000.000
G1 X123.169 Y27.906 F1000.000
G1 X123.250 Y27.831 F1000.000
G1 X123.438 Y27.719 F1000.000
G1 X123.881 Y27.613 F1000.000
G1 X123.881 Y27.613 F1000.000
G1 X125.287 Y27.637 F1000.000
G1 X125.944 Y27.781 F1000.000
G1 X126.206 Y27.906 F1000.000
G1 X126.588 Y28.200 F1000.000
G1 X127.300 Y28.913 F1000.000
G1 X127.669 Y29.413 F1000.000
G1 X128.000 Y29.938 F1000.000
G1 X128.287 Y30.425 F1000.000
G1 X128.794 Y31.562 F1000.000
G1 X129.188 Y32.737 F1000.000
G1 X129.344 Y33.337 F1000.000
G1 X129.469 Y33.944 F1000.000
G1 X129.681 Y35.169 F1000.000
G1 X129.794 Y36.406 F1000.000
G1 X129.831 Y37.025 F1000.000
G1 X129.838 Y37.644 F1000.000
G1 X129.825 Y38.263 F1000.000
G1 X129.794 Y38.881 F1000.000
G1 X129.744 Y39.500 F1000.000
G1 X129.669 Y40.119 F1000.000
G1 X129.575 Y40.731 F1000.000
G1 X129.394 Y41.325 F1000.000
G1 X129.144 Y41.938 F1000.000
G1 X128.988 Y42.194 F1000.000
G1 X128.744 Y42.362 F1000.000
G1 X128.644 Y42.381 F1000.000
G1 X126.944 Y42.381 F1000.000
G1 X126.944 Y42.381 F1000.000
G1 X126.713 Y42.350 F1000.000
G1 X126.494 Y42.294 F1000.000
G1 X126.294 Y42.188 F1000.000
G1 X126.213 Y42.112 F1000.000
G0 X126.150 Y42.031
G0 X126.088 Y41.831
G0 X126.037 Y41.356
G0 X125.106 Y28.669
G1 X125.100 Y28.512 F1000.000
G1 X125.088 Y28.231 F1000.000
G1 X125.100 Y28.106 F1000.000
G1 X125.138 Y28.000 F1000.000
G1 X125.194 Y27.906 F1000.000
G1 X125.275 Y27.831 F1000.000
G1 X125.463 Y27.719 F1000.000
G1 X125.906 Y27.613 F1000.000
G1 X125.906 Y27.613 F1000.000
G1 X127.312 Y27.637 F1000.000
G1 X127.875 Y27.744 F1000.000
G1 X128.225 Y27.894 F1000.000
G1 X128.681 Y28.238 F1000.000
G1 X128.887 Y28.444 F1000.000
G1 X129.306 Y28.906 F1000.000
G1 X129.681 Y29.400 F1000.000
G1 X130.331 Y30.456 F1000.000
G1 X130.600 Y31.012 F1000.000
G1 X130.831 Y31.587 F1000.000
G1 X131.225 Y32.763 F1000.000
G1 X131.512 Y33.975 F1000.000
G1 X131.625 Y34.587 F1000.000
G1 X131.775 Y35.825 F1000.000
G1 X131.856 Y37.062 F1000.000
G1 X131.869 Y38.300 F1000.000
G1 X131.856 Y38.919 F1000.000
G1 X131.725 Y40.156 F1000.000
G1 X131.594 Y40.763 F1000.000
G1 X131.412 Y41.356 F1000.000
G1 X131.181 Y41.938 F1000.000
G1 X131.025 Y42.188 F1000.000
G1 X130.869 Y42.312 F1000.000
G1 X130.781 Y42.362 F1000.000
G1 X130.681 Y42.381 F1000.000
G1 X128.881 Y42.381 F1000.000
G1 X128.881 Y42.381 F1000.000
G1 X128.650 Y42.350 F1000.000
G1 X128.431 Y42.294 F1000.000
G1 X128.231 Y42.188 F1000.000
G1 X128.150 Y42.112 F1000.000
G0 X128.094 Y42.031
G0 X128.025 Y41.831
G0 X127.975 Y41.356
G0 X127.125 Y28.669
G1 X127.119 Y28.512 F1000.000
G1 X127.106 Y28.231 F1000.000
G1 X127.125 Y28.106 F1000.000
G1 X127.162 Y28.000 F1000.000
G1 X127.219 Y27.906 F1000.000
G1 X127.294 Y27.831 F1000.000
G1 X127.487 Y27.719 F1000.000
G1 X127.931 Y27.613 F1000.000
G1 X127.931 Y27.613 F1000.000
G1 X129.338 Y27.637 F1000.000
G1 X129.900 Y27.750 F1000.000
G1 X130.169 Y27.863 F1000.000
G1 X130.775 Y28.325 F1000.000
G1 X131.338 Y28.913 F1000.000
G1 X131.713 Y29.406 F1000.000
G1 X132.363 Y30.450 F1000.000
G1 X132.637 Y31.006 F1000.000
G1 X132.875 Y31.581 F1000.000
G1 X133.081 Y32.169 F1000.000
G1 X133.406 Y33.369 F1000.000
G1 X133.644 Y34.587 F1000.000
G1 X133.738 Y35.200 F1000.000
G1 X133.856 Y36.438 F1000.000
G1 X133.887 Y37.056 F1000.000
G1 X133.887 Y38.294 F1000.000
G1 X133.856 Y38.913 F1000.000
G1 X133.806 Y39.531 F1000.000
G1 X133.738 Y40.150 F1000.000
G1 X133.600 Y40.756 F1000.000
G1 X133.425 Y41.356 F1000.000
G1 X133.188 Y41.931 F1000.000
G1 X133.031 Y42.188 F1000.000
G1 X132.875 Y42.312 F1000.000
G1 X132.787 Y42.362 F1000.000
G1 X132.688 Y42.381 F1000.000
G1 X130.887 Y42.381 F1000.000
G1 X130.887 Y42.381 F1000.000
G1 X130.656 Y42.350 F1000.000
G1 X130.438 Y42.294 F1000.000
G1 X130.238 Y42.188 F1000.000
G1 X130.156 Y42.112 F1000.000
G0 X130.100 Y42.031
G0 X130.031 Y41.831
G0 X129.981 Y41.356
G0 X129.150 Y28.669
G1 X129.144 Y28.512 F1000.000
G1 X129.131 Y28.231 F1000.000
G1 X129.150 Y28.106 F1000.000
G1 X129.188 Y28.000 F1000.000
G1 X129.244 Y27.906 F1000.000
G1 X129.319 Y27.831 F1000.000
G1 X129.512 Y27.719 F1000.000
G1 X129.956 Y27.613 F1000.000
G1 X129.956 Y27.613 F1000.000
G1 X131.363 Y27.637 F1000.000
G1 X131.925 Y27.744 F1000.000
G1 X132.194 Y27.844 F1000.000
G1 X132.794 Y28.306 F1000.000
G1 X133.350 Y28.900 F1000.000
G1 X133.731 Y29.387 F1000.000
G1 X134.075 Y29.906 F1000.000
G1 X134.375 Y30.450 F1000.000
G1 X134.644 Y31.006 F1000.000
G1 X135.088 Y32.169 F1000.000
G1 X135.425 Y33.369 F1000.000
G1 X135.562 Y33.975 F1000.000
G1 X135.669 Y34.587 F1000.000
G1 X135.756 Y35.200 F1000.000
G1 X135.881 Y36.438 F1000.000
G1 X135.912 Y37.056 F1000.000
G1 X135.931 Y38.294 F1000.000
G1 X135.912 Y38.913 F1000.000
G1 X135.769 Y40.150 F1000.000
G1 X135.662 Y40.763 F1000.000
G1 X135.481 Y41.356 F1000.000
G1 X135.250 Y41.906 F1000.000
G1 X135.088 Y42.156 F1000.000
G1 X135.019 Y42.231 F1000.000
G1 X134.850 Y42.350 F1000.000
G1 X134.756 Y42.381 F1000.000
G1 X132.956 Y42.381 F1000.000
G1 X132.956 Y42.381 F1000.000
G1 X132.725 Y42.350 F1000.000
G1 X132.506 Y42.294 F1000.000
G1 X132.306 Y42.188 F1000.000
G1 X132.225 Y42.112 F1000.000
G0 X132.169 Y42.031
G0 X132.100 Y41.831
G0 X132.050 Y41.356
G0 X131.181 Y28.669
G1 X131.175 Y28.512 F1000.000
G1 X131.162 Y28.231 F1000.000
G1 X131.175 Y28.106 F1000.000
G1 X131.213 Y28.000 F1000.000
G1 X131.269 Y27.906 F1000.000
G1 X131.350 Y27.831 F1000.000
G1 X131.537 Y27.719 F1000.000
G1 X131.981 Y27.613 F1000.000
G1 X131.981 Y27.613 F1000.000
G1 X133.387 Y27.637 F1000.000
G1 X134.044 Y27.769 F1000.000
G1 X134.300 Y27.887 F1000.000
G1 X134.825 Y28.300 F1000.000
G1 X135.381 Y28.900 F1000.000
G1 X135.750 Y29.400 F1000.000
G1 X136.412 Y30.450 F1000.000
G1 X136.694 Y31.006 F1000.000
G1 X136.944 Y31.575 F1000.000
G1 X137.162 Y32.156 F1000.000
G1 X137.344 Y32.750 F1000.000
G1 X137.494 Y33.356 F1000.000
G1 X137.725 Y34.581 F1000.000
G1 X137.875 Y35.819 F1000.000
G1 X137.931 Y36.438 F1000.000
G1 X137.988 Y37.675 F1000.000
G1 X137.988 Y38.294 F1000.000
G1 X137.969 Y38.913 F1000.000
G1 X137.825 Y40.150 F1000.000
G1 X137.688 Y40.756 F1000.000
G1 X137.531 Y41.356 F1000.000
G1 X137.287 Y41.931 F1000.000
G1 X137.125 Y42.175 F1000.000
G1 X136.969 Y42.306 F1000.000
G1 X136.881 Y42.356 F1000.000
G1 X136.781 Y42.381 F1000.000
G1 X134.981 Y42.381 F1000.000
G1 X134.981 Y42.381 F1000.000
G1 X134.750 Y42.350 F1000.000
G1 X134.531 Y42.294 F1000.000
G1 X134.331 Y42.188 F1000.000
G1 X134.250 Y42.112 F1000.000
G0 X134.194 Y42.031
G0 X134.125 Y41.831
G0 X134.075 Y41.356
G0 X133.206 Y28.669
G1 X133.200 Y28.512 F1000.000
G1 X133.188 Y28.231 F1000.000
G1 X133.200 Y28.106 F1000.000
G1 X133.238 Y28.000 F1000.000
G1 X133.294 Y27.906 F1000.000
G1 X133.375 Y27.831 F1000.000
G1 X133.562 Y27.719 F1000.000
G1 X134.006 Y27.613 F1000.000
G1 X134.006 Y27.613 F1000.000
G1 X135.412 Y27.637 F1000.000
G1 X135.975 Y27.744 F1000.000
G1 X136.244 Y27.850 F1000.000
G1 X136.988 Y28.438 F1000.000
G1 X137.412 Y28.894 F1000.000
G1 X137.794 Y29.381 F1000.000
G1 X138.137 Y29.900 F1000.000
G1 X138.431 Y30.413 F1000.000
G1 X138.944 Y31.544 F1000.000
G1 X139.338 Y32.719 F1000.000
G1 X139.494 Y33.319 F1000.000
G1 X139.613 Y33.925 F1000.000
G1 X139.825 Y35.150 F1000.000
G1 X139.950 Y36.388 F1000.000
G1 X139.994 Y37.006 F1000.000
G1 X140.012 Y37.625 F1000.000
G1 X140.000 Y38.862 F1000.000
G1 X139.963 Y39.481 F1000.000
G1 X139.863 Y40.094 F1000.000
G1 X139.731 Y40.700 F1000.000
G1 X139.575 Y41.306 F1000.000
G1 X139.344 Y41.881 F1000.000
G1 X139.188 Y42.138 F1000.000
G1 X139.125 Y42.212 F1000.000
G1 X138.881 Y42.381 F1000.000
G1 X137.081 Y42.381 F1000.000
G1 X137.081 Y42.381 F1000.000
G1 X136.850 Y42.350 F1000.000
G1 X136.631 Y42.294 F1000.000
G1 X136.431 Y42.188 F1000.000
G1 X136.350 Y42.112 F1000.000
G0 X136.287 Y42.031
G0 X136.225 Y41.831
G0 X136.169 Y41.356
G0 X135.238 Y28.669
G1 X135.225 Y28.512 F1000.000
G1 X135.213 Y28.231 F1000.000
G1 X135.225 Y28.106 F1000.000
G1 X135.262 Y28.000 F1000.000
G1 X135.319 Y27.906 F1000.000
G1 X135.400 Y27.831 F1000.000
G1 X135.588 Y27.719 F1000.000
G1 X136.031 Y27.613 F1000.000
G1 X136.031 Y27.613 F1000.000
G1 X137.438 Y27.637 F1000.000
G1 X138.000 Y27.744 F1000.000
G1 X138.269 Y27.844 F1000.000
G1 X138.875 Y28.300 F1000.000
G1 X139.444 Y28.881 F1000.000
G1 X139.819 Y29.375 F1000.000
G1 X140.475 Y30.413 F1000.000
G1 X140.750 Y30.969 F1000.000
G1 X140.988 Y31.544 F1000.000
G1 X141.675 Y34.288 F1000.000
G1 X141.881 Y38.881 F1000.000
G1 X141.713 Y40.663 F1000.000
G1 X141.581 Y41.131 F1000.000
G1 X141.188 Y42.038 F1000.000
G1 X141.075 Y42.206 F1000.000
G1 X140.831 Y42.375 F1000.000
G1 X139.031 Y42.381 F1000.000
G1 X139.031 Y42.381 F1000.000
G1 X138.800 Y42.350 F1000.000
G1 X138.581 Y42.294 F1000.000
G1 X138.381 Y42.188 F1000.000
G1 X138.300 Y42.112 F1000.000
G0 X138.244 Y42.031
G0 X138.175 Y41.831
G0 X138.125 Y41.356
G0 X137.256 Y28.669
G1 X137.250 Y28.512 F1000.000
G1 X137.238 Y28.231 F1000.000
G1 X137.250 Y28.106 F1000.000
G1 X137.287 Y28.000 F1000.000
G1 X137.344 Y27.906 F1000.000
G1 X137.425 Y27.831 F1000.000
G1 X137.613 Y27.719 F1000.000
G1 X138.056 Y27.613 F1000.000
G1 X138.056 Y27.613 F1000.000
G1 X139.463 Y27.637 F1000.000
G1 X140.025 Y27.744 F1000.000
G1 X140.294 Y27.844 F1000.000
G1 X140.906 Y28.294 F1000.000
G1 X141.662 Y29.094 F1000.000
G1 X141.863 Y29.525 F1000.000
G1 X141.881 Y29.619 F1000.000
G1 X141.881 Y35.056 F1000.000
G1 X141.881 Y35.056 F1000.000
G1 X141.819 Y35.381 F1000.000
G1 X141.738 Y35.594 F1000.000
G1 X141.688 Y35.675 F1000.000
G1 X141.631 Y35.725 F1000.000
G0 X141.575 Y35.731
G0 X141.519 Y35.694
G0 X140.787 Y34.069
G0 X139.988 Y30.775
G0 X139.406 Y28.600
G1 X139.375 Y28.469 F1000.000
G1 X139.319 Y28.219 F1000.000
G1 X139.312 Y28.100 F1000.000
G1 X139.331 Y27.994 F1000.000
G1 X139.381 Y27.906 F1000.000
G1 X139.450 Y27.831 F1000.000
G1 X139.637 Y27.719 F1000.000
G1 X140.081 Y27.613 F1000.000
G1 X140.081 Y27.613 F1000.000
G1 X141.394 Y27.631 F1000.000
G1 X141.769 Y27.688 F1000.000
G1 X141.850 Y27.738 F1000.000
G1 X141.881 Y27.825 F1000.000
G1 X141.881 Y28.387 F1000.000
G1 X141.881 Y28.387 F1000.000
G1 X141.819 Y28.712 F1000.000
G1 X141.738 Y28.925 F1000.000
G1 X141.625 Y29.119 F1000.000
G0 X141.556 Y29.212
G0 X140.894 Y30.137
G0 X140.800 Y30.337
G0 X140.600 Y35.631
G0 X140.700 Y37.181
G0 X140.675 Y38.119
G0 X140.688 Y38.225
G0 X140.769 Y38.438
G0 X141.125 Y38.906
G1 X141.200 Y39.000 F1000.000
G1 X141.631 Y39.538 F1000.000
G1 X141.750 Y39.737 F1000.000
G1 X141.825 Y39.950 F1000.000
G1 X141.881 Y40.294 F1000.000
G1 X141.881 Y40.294 F1000.000
G1 X141.881 Y40.669 F1000.000
G1 X141.869 Y42.169 F1000.000
G1 X141.856 Y42.263 F1000.000
G1 X141.806 Y42.344 F1000.000
G1 X141.713 Y42.381 F1000.000
G1 X141.713 Y42.381 F1000.000
G1 X141.481 Y42.350 F1000.000
G1 X141.262 Y42.294 F1000.000
G1 X140.950 Y42.138 F1000.000
G0 X140.850 Y42.081
G0 X139.169 Y41.312
G0 X138.950 Y41.250
G0 X136.300 Y41.169
G0 X132.188 Y41.237
G0 X106.912 Y41.169
G0 X91.750 Y41.194
G0 X87.975 Y41.144
G0 X78.544 Y41.188
G0 X78.325 Y41.237
G0 X77.162 Y41.769
G1 X77.062 Y41.819 F1000.000
G1 X76.856 Y41.919 F1000.000
G1 X76.263 Y42.250 F1000.000
G1 X76.050 Y42.325 F1000.000
G1 X75.719 Y42.381 F1000.000
G1 X75.719 Y42.381 F1000.000
G1 X73.819 Y42.369 F1000.000
G1 X73.219 Y42.281 F1000.000
G1 X72.819 Y42.163 F1000.000
G1 X72.200 Y41.781 F1000.000
G1 X71.388 Y41.125 F1000.000
G1 X70.950 Y40.675 F1000.000
G1 X70.556 Y40.181 F1000.000
G1 X70.256 Y39.750 F1000.000
G1 X69.950 Y39.225 F1000.000
G1 X69.650 Y38.675 F1000.000
G1 X69.406 Y38.094 F1000.000
G1 X69.194 Y37.500 F1000.000
G1 X69.013 Y36.900 F1000.000
G1 X68.881 Y36.288 F1000.000
G1 X68.787 Y35.669 F1000.000
G1 X68.731 Y35.044 F1000.000
G1 X68.719 Y34.419 F1000.000
G1 X68.750 Y33.794 F1000.000
G1 X68.819 Y33.169 F1000.000
G1 X68.931 Y32.550 F1000.000
G1 X69.081 Y31.944 F1000.000
G1 X69.275 Y31.350 F1000.000
G1 X69.506 Y30.769 F1000.000
G1 X70.037 Y29.631 F1000.000
G1 X70.350 Y29.087 F1000.000
G1 X70.681 Y28.556 F1000.000
G1 X71.206 Y27.800 F1000.000
G1 X71.444 Y27.625 F1000.000
G1 X71.819 Y27.619 F1000.000
G1 X71.819 Y27.619 F1000.000
G1 X72.144 Y27.669 F1000.000
G1 X72.350 Y27.756 F1000.000
G1 X72.444 Y27.812 F1000.000
G1 X72.519 Y27.881 F1000.000
G0 X72.575 Y27.969
G0 X72.644 Y28.163
G0 X72.700 Y28.637
G0 X73.787 Y41.331
G1 X73.800 Y41.475 F1000.000
G1 X73.825 Y41.837 F1000.000
G1 X73.812 Y41.938 F1000.000
G1 X73.775 Y42.031 F1000.000
G1 X73.719 Y42.112 F1000.000
G1 X73.550 Y42.244 F1000.000
G1 X73.350 Y42.325 F1000.000
G1 X73.019 Y42.381 F1000.000
G1 X73.019 Y42.381 F1000.000
G1 X71.519 Y42.356 F1000.000
G1 X70.919 Y42.250 F1000.000
G1 X70.625 Y42.138 F1000.000
G1 X70.019 Y41.731 F1000.000
G1 X69.294 Y41.125 F1000.000
G1 X68.869 Y40.656 F1000.000
G1 X68.487 Y40.156 F1000.000
G1 X68.181 Y39.675 F1000.000
G1 X67.675 Y38.688 F1000.000
G1 X67.425 Y38.112 F1000.000
G1 X67.219 Y37.519 F1000.000
G1 X67.037 Y36.919 F1000.000
G1 X66.919 Y36.300 F1000.000
G1 X66.825 Y35.675 F1000.000
G1 X66.775 Y35.050 F1000.000
G1 X66.775 Y34.425 F1000.000
G1 X66.850 Y33.175 F1000.000
G1 X66.944 Y32.556 F1000.000
G1 X67.069 Y31.944 F1000.000
G1 X67.213 Y31.331 F1000.000
G1 X67.400 Y30.731 F1000.000
G1 X67.612 Y30.144 F1000.000
G1 X67.856 Y29.569 F1000.000
G1 X68.406 Y28.444 F1000.000
G1 X68.769 Y27.812 F1000.000
G1 X68.912 Y27.675 F1000.000
G1 X68.994 Y27.619 F1000.000
G1 X69.181 Y27.619 F1000.000
G1 X69.181 Y27.619 F1000.000
G1 X69.506 Y27.669 F1000.000
G1 X69.713 Y27.756 F1000.000
G1 X69.806 Y27.812 F1000.000
G1 X69.881 Y27.881 F1000.000
G0 X69.944 Y27.969
G0 X70.013 Y28.163
G0 X70.094 Y28.637
G0 X71.731 Y41.331
G1 X71.750 Y41.475 F1000.000
G1 X71.787 Y41.837 F1000.000
G1 X71.781 Y41.938 F1000.000
G1 X71.744 Y42.031 F1000.000
G1 X71.688 Y42.112 F1000.000
G1 X71.525 Y42.244 F1000.000
G1 X71.325 Y42.325 F1000.000
G1 X70.994 Y42.381 F1000.000
G1 X70.994 Y42.381 F1000.000
G1 X69.494 Y42.362 F1000.000
G1 X68.894 Y42.256 F1000.000
G1 X68.506 Y42.112 F1000.000
G1 X68.075 Y41.819 F1000.000
G1 X67.275 Y41.138 F1000.000
G1 X66.862 Y40.663 F1000.000
G1 X66.500 Y40.169 F1000.000
G1 X66.188 Y39.681 F1000.000
G1 X65.662 Y38.631 F1000.000
G1 X65.244 Y37.444 F1000.000
G1 X65.081 Y36.837 F1000.000
G1 X64.956 Y36.219 F1000.000
G1 X64.856 Y35.600 F1000.000
G1 X64.800 Y34.975 F1000.000
G1 X64.781 Y34.350 F1000.000
G1 X64.794 Y33.725 F1000.000
G1 X64.844 Y33.100 F1000.000
G1 X64.925 Y32.475 F1000.000
G1 X65.169 Y31.244 F1000.000
G1 X65.338 Y30.637 F1000.000
G1 X65.531 Y30.038 F1000.000
G1 X65.956 Y28.863 F1000.000
G1 X66.294 Y28.100 F1000.000
G1 X66.450 Y27.837 F1000.000
G1 X66.513 Y27.756 F1000.000
G1 X66.669 Y27.625 F1000.000
G1 X66.763 Y27.619 F1000.000
G1 X66.763 Y27.619 F1000.000
G1 X67.088 Y27.669 F1000.000
G1 X67.294 Y27.756 F1000.000
G1 X67.388 Y27.812 F1000.000
G1 X67.463 Y27.881 F1000.000
G0 X67.525 Y27.962
G0 X67.606 Y28.163
G0 X67.694 Y28.631
G0 X69.688 Y41.337
G1 X69.713 Y41.481 F1000.000
G1 X69.756 Y41.837 F1000.000
G1 X69.750 Y41.938 F1000.000
G1 X69.719 Y42.031 F1000.000
G1 X69.662 Y42.112 F1000.000
G1 X69.500 Y42.244 F1000.000
G1 X69.300 Y42.325 F1000.000
G1 X68.969 Y42.381 F1000.000
G1 X68.969 Y42.381 F1000.000
G1 X67.469 Y42.362 F1000.000
G1 X67.169 Y42.325 F1000.000
G1 X66.575 Y42.144 F1000.000
G1 X66.050 Y41.800 F1000.000
G1 X65.725 Y41.531 F1000.000
G1 X65.256 Y41.112 F1000.000
G1 X64.850 Y40.631 F1000.000
G1 X64.487 Y40.119 F1000.000
G1 X64.206 Y39.656 F1000.000
G1 X63.925 Y39.144 F1000.000
G1 X63.444 Y37.981 F1000.000
G1 X63.256 Y37.381 F1000.000
G1 X63.112 Y36.769 F1000.000
G1 X62.994 Y36.150 F1000.000
G1 X62.837 Y34.900 F1000.000
G1 X62.806 Y34.275 F1000.000
G1 X62.800 Y33.650 F1000.000
G1 X62.812 Y33.025 F1000.000
G1 X62.862 Y32.400 F1000.000
G1 X62.938 Y31.775 F1000.000
G1 X63.038 Y31.156 F1000.000
G1 X63.169 Y30.544 F1000.000
G1 X63.325 Y29.938 F1000.000
G1 X63.506 Y29.337 F1000.000
G1 X63.712 Y28.744 F1000.000
G1 X64.156 Y27.819 F1000.000
G1 X64.300 Y27.681 F1000.000
G1 X64.381 Y27.625 F1000.000
G1 X64.475 Y27.619 F1000.000
G1 X64.475 Y27.619 F1000.000
G1 X64.800 Y27.669 F1000.000
G1 X65.006 Y27.756 F1000.000
G1 X65.100 Y27.812 F1000.000
G1 X65.181 Y27.881 F1000.000
G0 X65.237 Y27.962
G0 X65.319 Y28.163
G0 X65.419 Y28.631
G0 X67.650 Y41.337
G1 X67.675 Y41.481 F1000.000
G1 X67.725 Y41.837 F1000.000
G1 X67.725 Y41.938 F1000.000
G1 X67.694 Y42.031 F1000.000
G1 X67.638 Y42.112 F1000.000
G1 X67.562 Y42.188 F1000.000
G1 X67.375 Y42.288 F1000.000
G1 X67.162 Y42.350 F1000.000
G1 X66.944 Y42.381 F1000.000
G1 X66.944 Y42.381 F1000.000
G1 X65.644 Y42.375 F1000.000
G1 X65.044 Y42.300 F1000.000
G1 X64.644 Y42.175 F1000.000
G1 X64.287 Y41.975 F1000.000
G1 X63.719 Y41.519 F1000.000
G1 X63.256 Y41.087 F1000.000
G1 X62.850 Y40.606 F1000.000
G1 X62.487 Y40.094 F1000.000
G1 X62.163 Y39.562 F1000.000
G1 X61.900 Y39.031 F1000.000
G1 X61.450 Y37.875 F1000.000
G1 X61.125 Y36.663 F1000.000
G1 X61.006 Y36.044 F1000.000
G1 X60.925 Y35.419 F1000.000
G1 X60.806 Y34.169 F1000.000
G1 X60.794 Y33.544 F1000.000
G1 X60.800 Y32.919 F1000.000
G1 X60.825 Y32.294 F1000.000
G1 X60.875 Y31.669 F1000.000
G1 X60.950 Y31.044 F1000.000
G1 X61.044 Y30.425 F1000.000
G1 X61.369 Y29.212 F1000.000
G1 X61.569 Y28.619 F1000.000
G1 X61.856 Y27.950 F1000.000
G1 X61.969 Y27.781 F1000.000
G1 X62.112 Y27.650 F1000.000
G1 X62.206 Y27.619 F1000.000
G1 X62.206 Y27.619 F1000.000
G1 X62.531 Y27.669 F1000.000
G1 X62.737 Y27.756 F1000.000
G1 X62.831 Y27.812 F1000.000
G1 X62.913 Y27.881 F1000.000
G0 X62.975 Y27.962
G0 X63.056 Y28.163
G0 X63.163 Y28.631
G0 X65.606 Y41.337
G1 X65.638 Y41.481 F1000.000
G1 X65.700 Y41.837 F1000.000
G1 X65.694 Y41.938 F1000.000
G1 X65.662 Y42.031 F1000.000
G1 X65.612 Y42.112 F1000.000
G1 X65.537 Y42.188 F1000.000
G1 X65.350 Y42.288 F1000.000
G1 X65.138 Y42.350 F1000.000
G1 X64.919 Y42.381 F1000.000
G1 X64.919 Y42.381 F1000.000
G1 X63.519 Y42.362 F1000.000
G1 X62.919 Y42.250 F1000.000
G1 X62.531 Y42.106 F1000.000
G1 X62.100 Y41.812 F1000.000
G1 X61.300 Y41.125 F1000.000
G1 X60.900 Y40.638 F1000.000
G1 X60.575 Y40.181 F1000.000
G1 X60.294 Y39.712 F1000.000
G1 X60.025 Y39.219 F1000.000
G1 X59.550 Y38.056 F1000.000
G1 X59.362 Y37.456 F1000.000
G1 X59.069 Y36.231 F1000.000
G1 X58.975 Y35.612 F1000.000
G1 X58.831 Y34.362 F1000.000
G1 X58.794 Y33.112 F1000.000
G1 X58.794 Y32.487 F1000.000
G1 X58.831 Y31.863 F1000.000
G1 X58.888 Y31.238 F1000.000
G1 X58.962 Y30.613 F1000.000
G1 X59.062 Y29.994 F1000.000
G1 X59.375 Y28.775 F1000.000
G1 X59.769 Y27.819 F1000.000
G1 X59.913 Y27.675 F1000.000
G1 X59.994 Y27.619 F1000.000
G1 X59.994 Y27.619 F1000.000
G1 X60.319 Y27.669 F1000.000
G1 X60.525 Y27.756 F1000.000
G1 X60.619 Y27.812 F1000.000
G1 X60.700 Y27.881 F1000.000
G0 X60.763 Y27.962
G0 X60.844 Y28.156
G0 X60.956 Y28.625
G0 X63.575 Y41.337
G1 X63.606 Y41.481 F1000.000
G1 X63.669 Y41.837 F1000.000
G1 X63.669 Y41.944 F1000.000
G1 X63.638 Y42.031 F1000.000
G1 X63.587 Y42.112 F1000.000
G1 X63.513 Y42.188 F1000.000
G1 X63.325 Y42.288 F1000.000
G1 X63.112 Y42.350 F1000.000
G1 X62.894 Y42.381 F1000.000
G1 X62.894 Y42.381 F1000.000
G1 X61.594 Y42.369 F1000.000
G1 X60.894 Y42.237 F1000.000
G1 X60.600 Y42.125 F1000.000
G1 X60.169 Y41.837 F1000.000
G1 X59.844 Y41.569 F1000.000
G1 X59.381 Y41.144 F1000.000
G1 X58.975 Y40.663 F1000.000
G1 X58.606 Y40.150 F1000.000
G1 X58.312 Y39.700 F1000.000
G1 X58.025 Y39.144 F1000.000
G1 X57.781 Y38.562 F1000.000
G1 X57.369 Y37.375 F1000.000
G1 X57.075 Y36.150 F1000.000
G1 X56.962 Y35.531 F1000.000
G1 X56.812 Y34.281 F1000.000
G1 X56.775 Y33.656 F1000.000
G1 X56.769 Y33.031 F1000.000
G1 X56.794 Y31.781 F1000.000
G1 X56.906 Y30.531 F1000.000
G1 X57.131 Y29.294 F1000.000
G1 X57.306 Y28.694 F1000.000
G1 X57.656 Y27.825 F1000.000
G1 X57.719 Y27.744 F1000.000
G1 X57.875 Y27.619 F1000.000
G1 X57.875 Y27.619 F1000.000
G1 X58.200 Y27.669 F1000.000
G1 X58.406 Y27.756 F1000.000
G1 X58.500 Y27.812 F1000.000
G1 X58.581 Y27.881 F1000.000
G0 X58.644 Y27.962
G0 X58.731 Y28.156
G0 X58.844 Y28.625
G0 X61.550 Y41.337
G1 X61.581 Y41.481 F1000.000
G1 X61.644 Y41.837 F1000.000
G1 X61.644 Y41.944 F1000.000
G1 X61.612 Y42.031 F1000.000
G1 X61.562 Y42.112 F1000.000
G1 X61.487 Y42.188 F1000.000
G1 X61.300 Y42.288 F1000.000
G1 X61.087 Y42.350 F1000.000
G1 X60.869 Y42.381 F1000.000
G1 X60.869 Y42.381 F1000.000
G1 X59.569 Y42.362 F1000.000
G1 X58.969 Y42.250 F1000.000
G1 X58.581 Y42.106 F1000.000
G1 X57.831 Y41.544 F1000.000
G1 X57.375 Y41.112 F1000.000
G1 X56.975 Y40.625 F1000.000
G1 X56.650 Y40.163 F1000.000
G1 X56.362 Y39.706 F1000.000
G1 X55.831 Y38.606 F1000.000
G1 X55.400 Y37.425 F1000.000
G1 X55.225 Y36.819 F1000.000
G1 X55.087 Y36.206 F1000.000
G1 X54.969 Y35.587 F1000.000
G1 X54.881 Y34.962 F1000.000
G1 X54.756 Y33.712 F1000.000
G1 X54.731 Y32.462 F1000.000
G1 X54.737 Y31.837 F1000.000
G1 X54.775 Y31.212 F1000.000
G1 X54.831 Y30.587 F1000.000
G1 X54.906 Y29.962 F1000.000
G1 X55.175 Y28.738 F1000.000
G1 X55.525 Y27.869 F1000.000
G1 X55.575 Y27.781 F1000.000
G1 X55.719 Y27.650 F1000.000
G1 X55.812 Y27.619 F1000.000
G1 X55.812 Y27.619 F1000.000
G1 X56.138 Y27.669 F1000.000
G1 X56.344 Y27.756 F1000.000
G1 X56.438 Y27.812 F1000.000
G1 X56.519 Y27.881 F1000.000
G0 X56.581 Y27.962
G0 X56.669 Y28.156
G0 X56.794 Y28.625
G0 X59.731 Y41.344
G1 X59.769 Y41.487 F1000.000
G1 X59.837 Y41.837 F1000.000
G1 X59.837 Y41.944 F1000.000
G1 X59.812 Y42.031 F1000.000
G1 X59.763 Y42.112 F1000.000
G1 X59.688 Y42.188 F1000.000
G1 X59.500 Y42.288 F1000.000
G1 X59.288 Y42.350 F1000.000
G1 X59.069 Y42.381 F1000.000
G1 X59.069 Y42.381 F1000.000
G1 X57.669 Y42.369 F1000.000
G1 X56.969 Y42.231 F1000.000
G1 X56.675 Y42.119 F1000.000
G1 X56.244 Y41.825 F1000.000
G1 X55.444 Y41.138 F1000.000
G1 X55.038 Y40.656 F1000.000
G1 X54.400 Y39.744 F1000.000
G1 X53.831 Y38.631 F1000.000
G1 X53.600 Y38.050 F1000.000
G1 X53.225 Y36.850 F1000.000
G1 X52.956 Y35.625 F1000.000
G1 X52.856 Y35.006 F1000.000
G1 X52.731 Y33.756 F1000.000
G1 X52.706 Y33.131 F1000.000
G1 X52.706 Y32.506 F1000.000
G1 X52.737 Y31.256 F1000.000
G1 X52.844 Y30.006 F1000.000
G1 X53.087 Y28.775 F1000.000
G1 X53.450 Y27.812 F1000.000
G1 X53.513 Y27.738 F1000.000
G1 X53.669 Y27.619 F1000.000
G1 X53.669 Y27.619 F1000.000
G1 X53.994 Y27.669 F1000.000
G1 X54.200 Y27.756 F1000.000
G1 X54.375 Y27.881 F1000.000
G0 X54.438 Y27.962
G0 X54.531 Y28.156
G0 X54.656 Y28.625
G0 X57.706 Y41.344
G1 X57.737 Y41.487 F1000.000
G1 X57.812 Y41.837 F1000.000
G1 X57.812 Y41.944 F1000.000
G1 X57.788 Y42.038 F1000.000
G1 X57.737 Y42.112 F1000.000
G1 X57.663 Y42.188 F1000.000
G1 X57.475 Y42.288 F1000.000
G1 X57.263 Y42.350 F1000.000
G1 X57.044 Y42.381 F1000.000
G1 X57.044 Y42.381 F1000.000
G1 X55.744 Y42.369 F1000.000
G1 X55.044 Y42.244 F1000.000
G1 X54.656 Y42.094 F1000.000
G1 X53.906 Y41.525 F1000.000
G1 X53.438 Y41.100 F1000.000
G1 X53.025 Y40.625 F1000.000
G1 X52.656 Y40.119 F1000.000
G1 X52.350 Y39.631 F1000.000
G1 X51.819 Y38.562 F1000.000
G1 X51.575 Y37.981 F1000.000
G1 X51.375 Y37.381 F1000.000
G1 X51.200 Y36.775 F1000.000
G1 X51.056 Y36.163 F1000.000
G1 X50.837 Y34.925 F1000.000
G1 X50.769 Y34.300 F1000.000
G1 X50.656 Y32.425 F1000.000
G1 X50.663 Y31.175 F1000.000
G1 X50.775 Y29.925 F1000.000
G1 X51.038 Y28.700 F1000.000
G1 X51.381 Y27.831 F1000.000
G1 X51.444 Y27.750 F1000.000
G1 X51.600 Y27.619 F1000.000
G1 X51.600 Y27.619 F1000.000
G1 X51.925 Y27.669 F1000.000
G1 X52.131 Y27.756 F1000.000
G1 X52.306 Y27.881 F1000.000
G0 X52.369 Y27.962
G0 X52.462 Y28.156
G0 X52.587 Y28.625
G0 X55.675 Y41.344
G1 X55.712 Y41.487 F1000.000
G1 X55.788 Y41.837 F1000.000
G1 X55.788 Y41.944 F1000.000
G1 X55.763 Y42.038 F1000.000
G1 X55.712 Y42.112 F1000.000
G1 X55.638 Y42.188 F1000.000
G1 X55.450 Y42.288 F1000.000
G1 X55.237 Y42.350 F1000.000
G1 X55.019 Y42.381 F1000.000
G1 X55.019 Y42.381 F1000.000
G1 X53.619 Y42.362 F1000.000
G1 X53.019 Y42.250 F1000.000
G1 X52.725 Y42.138 F1000.000
G1 X52.288 Y41.850 F1000.000
G1 X51.487 Y41.163 F1000.000
G1 X51.075 Y40.688 F1000.000
G1 X50.694 Y40.188 F1000.000
G1 X50.356 Y39.663 F1000.000
G1 X50.081 Y39.144 F1000.000
G1 X49.600 Y38.013 F1000.000
G1 X49.381 Y37.425 F1000.000
G1 X49.044 Y36.212 F1000.000
G1 X48.913 Y35.600 F1000.000
G1 X48.812 Y34.981 F1000.000
G1 X48.663 Y33.731 F1000.000
G1 X48.625 Y33.106 F1000.000
G1 X48.600 Y31.856 F1000.000
G1 X48.619 Y31.231 F1000.000
G1 X48.656 Y30.606 F1000.000
G1 X48.712 Y29.981 F1000.000
G1 X48.950 Y28.750 F1000.000
G1 X49.312 Y27.788 F1000.000
G1 X49.456 Y27.650 F1000.000
G1 X49.550 Y27.619 F1000.000
G1 X49.550 Y27.619 F1000.000
G1 X49.875 Y27.669 F1000.000
G1 X50.081 Y27.756 F1000.000
G1 X50.256 Y27.881 F1000.000
G0 X50.319 Y27.962
G0 X50.413 Y28.156
G0 X50.538 Y28.625
G0 X53.650 Y41.344
G1 X53.688 Y41.487 F1000.000
G1 X53.763 Y41.837 F1000.000
G1 X53.763 Y41.944 F1000.000
G1 X53.737 Y42.038 F1000.000
G1 X53.688 Y42.112 F1000.000
G1 X53.612 Y42.188 F1000.000
G1 X53.425 Y42.288 F1000.000
G1 X53.212 Y42.350 F1000.000
G1 X52.994 Y42.381 F1000.000
G1 X52.994 Y42.381 F1000.000
G1 X51.594 Y42.356 F1000.000
G1 X50.994 Y42.237 F1000.000
G1 X50.706 Y42.125 F1000.000
G1 X50.275 Y41.831 F1000.000
G1 X49.475 Y41.144 F1000.000
G1 X49.062 Y40.669 F1000.000
G1 X48.375 Y39.725 F1000.000
G1 X48.069 Y39.175 F1000.000
G1 X47.800 Y38.606 F1000.000
G1 X47.350 Y37.431 F1000.000
G1 X47.019 Y36.219 F1000.000
G1 X46.888 Y35.606 F1000.000
G1 X46.788 Y34.987 F1000.000
G1 X46.625 Y33.737 F1000.000
G1 X46.550 Y32.487 F1000.000
G1 X46.531 Y31.863 F1000.000
G1 X46.569 Y30.613 F1000.000
G1 X46.731 Y29.369 F1000.000
G1 X46.881 Y28.762 F1000.000
G1 X47.094 Y28.069 F1000.000
G1 X47.225 Y27.794 F1000.000
G1 X47.369 Y27.656 F1000.000
G1 X47.456 Y27.619 F1000.000
G1 X47.456 Y27.619 F1000.000
G1 X47.781 Y27.669 F1000.000
G1 X47.987 Y27.756 F1000.000
G1 X48.163 Y27.881 F1000.000
G0 X48.225 Y27.962
G0 X48.319 Y28.156
G0 X48.450 Y28.625
G0 X51.625 Y41.344
G1 X51.656 Y41.487 F1000.000
G1 X51.737 Y41.837 F1000.000
G1 X51.737 Y41.944 F1000.000
G1 X51.712 Y42.038 F1000.000
G1 X51.663 Y42.112 F1000.000
G1 X51.587 Y42.188 F1000.000
G1 X51.400 Y42.288 F1000.000
G1 X51.188 Y42.350 F1000.000
G1 X50.969 Y42.381 F1000.000
G1 X50.969 Y42.381 F1000.000
G1 X49.669 Y42.362 F1000.000
G1 X48.969 Y42.225 F1000.000
G1 X48.675 Y42.112 F1000.000
G1 X48.244 Y41.819 F1000.000
G1 X47.444 Y41.138 F1000.000
G1 X47.025 Y40.669 F1000.000
G1 X46.650 Y40.163 F1000.000
G1 X46.344 Y39.675 F1000.000
G1 X45.819 Y38.644 F1000.000
G1 X45.562 Y38.069 F1000.000
G1 X45.150 Y36.875 F1000.000
G1 X44.981 Y36.269 F1000.000
G1 X44.850 Y35.656 F1000.000
G1 X44.744 Y35.038 F1000.000
G1 X44.581 Y33.788 F1000.000
G1 X44.506 Y32.538 F1000.000
G1 X44.487 Y31.913 F1000.000
G1 X44.494 Y31.288 F1000.000
G1 X44.519 Y30.663 F1000.000
G1 X44.562 Y30.038 F1000.000
G1 X44.669 Y29.419 F1000.000
G1 X44.806 Y28.806 F1000.000
G1 X45.069 Y28.025 F1000.000
G1 X45.156 Y27.837 F1000.000
G1 X45.212 Y27.756 F1000.000
G1 X45.369 Y27.625 F1000.000
G1 X45.369 Y27.625 F1000.000
G1 X45.631 Y27.656 F1000.000
G1 X45.881 Y27.731 F1000.000
G1 X45.987 Y27.788 F1000.000
G1 X46.075 Y27.856 F1000.000
G0 X46.144 Y27.938
G0 X46.244 Y28.131
G0 X46.381 Y28.594
G0 X49.806 Y41.350
G1 X49.844 Y41.494 F1000.000
G1 X49.931 Y41.844 F1000.000
G1 X49.931 Y41.944 F1000.000
G1 X49.913 Y42.038 F1000.000
G1 X49.856 Y42.119 F1000.000
G1 X49.788 Y42.188 F1000.000
G1 X49.600 Y42.288 F1000.000
G1 X49.388 Y42.350 F1000.000
G1 X49.169 Y42.381 F1000.000
G1 X49.169 Y42.381 F1000.000
G1 X47.569 Y42.356 F1000.000
G1 X46.969 Y42.237 F1000.000
G1 X46.681 Y42.125 F1000.000
G1 X46.250 Y41.831 F1000.000
G1 X45.450 Y41.150 F1000.000
G1 X45.031 Y40.681 F1000.000
G1 X44.656 Y40.175 F1000.000
G1 X44.344 Y39.688 F1000.000
G1 X43.769 Y38.606 F1000.000
G1 X43.312 Y37.438 F1000.000
G1 X43.125 Y36.837 F1000.000
G1 X42.975 Y36.225 F1000.000
G1 X42.712 Y35.000 F1000.000
G1 X42.625 Y34.375 F1000.000
G1 X42.500 Y33.125 F1000.000
G1 X42.475 Y32.500 F1000.000
G1 X42.469 Y31.875 F1000.000
G1 X42.481 Y31.250 F1000.000
G1 X42.519 Y30.625 F1000.000
G1 X42.581 Y30.000 F1000.000
G1 X42.663 Y29.375 F1000.000
G1 X42.794 Y28.762 F1000.000
G1 X43.106 Y27.887 F1000.000
G1 X43.150 Y27.800 F1000.000
G1 X43.212 Y27.719 F1000.000
G1 X43.288 Y27.656 F1000.000
G1 X43.375 Y27.619 F1000.000
G1 X43.375 Y27.619 F1000.000
G1 X43.700 Y27.669 F1000.000
G1 X43.906 Y27.756 F1000.000
G1 X44.081 Y27.881 F1000.000
G0 X44.150 Y27.962
G0 X44.244 Y28.156
G0 X44.381 Y28.619
G0 X47.781 Y41.350
G1 X47.819 Y41.494 F1000.000
G1 X47.906 Y41.844 F1000.000
G1 X47.906 Y41.944 F1000.000
G1 X47.888 Y42.038 F1000.000
G1 X47.831 Y42.119 F1000.000
G1 X47.763 Y42.188 F1000.000
G1 X47.575 Y42.288 F1000.000
G1 X47.362 Y42.350 F1000.000
G1 X47.144 Y42.381 F1000.000
G1 X47.144 Y42.381 F1000.000
G1 X45.744 Y42.369 F1000.000
G1 X45.144 Y42.281 F1000.000
G1 X44.844 Y42.200 F1000.000
G1 X44.656 Y42.119 F1000.000
G1 X44.225 Y41.825 F1000.000
G1 X43.425 Y41.144 F1000.000
G1 X43.013 Y40.669 F1000.000
G1 X42.306 Y39.700 F1000.000
G1 X42.000 Y39.150 F1000.000
G1 X41.731 Y38.581 F1000.000
G1 X41.269 Y37.413 F1000.000
G1 X40.931 Y36.200 F1000.000
G1 X40.794 Y35.587 F1000.000
G1 X40.519 Y33.719 F1000.000
G1 X40.469 Y33.094 F1000.000
G1 X40.419 Y31.844 F1000.000
G1 X40.425 Y31.219 F1000.000
G1 X40.450 Y30.594 F1000.000
G1 X40.494 Y29.969 F1000.000
G1 X40.606 Y29.350 F1000.000
G1 X40.750 Y28.738 F1000.000
G1 X41.075 Y27.863 F1000.000
G1 X41.125 Y27.775 F1000.000
G1 X41.194 Y27.700 F1000.000
G1 X41.275 Y27.637 F1000.000
G1 X41.369 Y27.619 F1000.000
G1 X41.369 Y27.619 F1000.000
G1 X41.694 Y27.669 F1000.000
G1 X41.900 Y27.756 F1000.000
G1 X42.075 Y27.881 F1000.000
G0 X42.144 Y27.962
G0 X42.237 Y28.156
G0 X42.375 Y28.619
G0 X45.756 Y41.350
G1 X45.794 Y41.494 F1000.000
G1 X45.881 Y41.844 F1000.000
G1 X45.881 Y41.944 F1000.000
G1 X45.862 Y42.038 F1000.000
G1 X45.806 Y42.119 F1000.000
G1 X45.737 Y42.188 F1000.000
G1 X45.550 Y42.288 F1000.000
G1 X45.337 Y42.350 F1000.000
G1 X45.119 Y42.381 F1000.000
G1 X45.119 Y42.381 F1000.000
G1 X43.719 Y42.369 F1000.000
G1 X43.219 Y42.300 F1000.000
G1 X42.819 Y42.181 F1000.000
G1 X42.369 Y41.931 F1000.000
G1 X41.869 Y41.544 F1000.000
G1 X41.394 Y41.131 F1000.000
G1 X40.981 Y40.656 F1000.000
G1 X40.606 Y40.150 F1000.000
G1 X40.306 Y39.712 F1000.000
G1 X39.719 Y38.594 F1000.000
G1 X39.475 Y38.013 F1000.000
G1 X39.075 Y36.825 F1000.000
G1 X38.781 Y35.600 F1000.000
G1 X38.663 Y34.981 F1000.000
G1 X38.425 Y33.106 F1000.000
G1 X38.350 Y31.856 F1000.000
G1 X38.331 Y31.231 F1000.000
G1 X38.425 Y29.981 F1000.000
G1 X38.544 Y29.363 F1000.000
G1 X38.688 Y28.750 F1000.000
G1 X39.013 Y27.875 F1000.000
G1 X39.056 Y27.788 F1000.000
G1 X39.200 Y27.650 F1000.000
G1 X39.294 Y27.619 F1000.000
G1 X39.294 Y27.619 F1000.000
G1 X39.619 Y27.669 F1000.000
G1 X39.825 Y27.756 F1000.000
G1 X40.000 Y27.881 F1000.000
G0 X40.069 Y27.962
G0 X40.163 Y28.156
G0 X40.300 Y28.619
G0 X43.731 Y41.350
G1 X43.769 Y41.494 F1000.000
G1 X43.856 Y41.844 F1000.000
G1 X43.856 Y41.944 F1000.000
G1 X43.837 Y42.038 F1000.000
G1 X43.781 Y42.119 F1000.000
G1 X43.712 Y42.188 F1000.000
G1 X43.525 Y42.288 F1000.000
G1 X43.312 Y42.350 F1000.000
G1 X43.094 Y42.381 F1000.000
G1 X43.094 Y42.381 F1000.000
G1 X41.694 Y42.369 F1000.000
G1 X40.994 Y42.244 F1000.000
G1 X40.606 Y42.100 F1000.000
G1 X40.175 Y41.806 F1000.000
G1 X39.369 Y41.131 F1000.000
G1 X38.956 Y40.656 F1000.000
G1 X38.600 Y40.188 F1000.000
G1 X38.281 Y39.688 F1000.000
G1 X37.994 Y39.194 F1000.000
G1 X37.475 Y38.050 F1000.000
G1 X37.062 Y36.862 F1000.000
G1 X36.894 Y36.256 F1000.000
G1 X36.756 Y35.644 F1000.000
G1 X36.519 Y34.406 F1000.000
G1 X36.438 Y33.781 F1000.000
G1 X36.325 Y32.531 F1000.000
G1 X36.288 Y31.281 F1000.000
G1 X36.375 Y30.031 F1000.000
G1 X36.481 Y29.413 F1000.000
G1 X36.612 Y28.800 F1000.000
G1 X36.956 Y27.831 F1000.000
G1 X37.013 Y27.750 F1000.000
G1 X37.169 Y27.619 F1000.000
G1 X37.169 Y27.619 F1000.000
G1 X37.494 Y27.669 F1000.000
G1 X37.700 Y27.756 F1000.000
G1 X37.875 Y27.881 F1000.000
G0 X37.944 Y27.962
G0 X38.038 Y28.156
G0 X41.700 Y41.350
G1 X41.737 Y41.494 F1000.000
G1 X41.831 Y41.844 F1000.000
G1 X41.831 Y41.944 F1000.000
G1 X41.806 Y42.038 F1000.000
G1 X41.756 Y42.119 F1000.000
G1 X41.688 Y42.188 F1000.000
G1 X41.500 Y42.288 F1000.000
G1 X41.288 Y42.350 F1000.000
G1 X41.069 Y42.381 F1000.000
G1 X41.069 Y42.381 F1000.000
G1 X39.669 Y42.369 F1000.000
G1 X39.169 Y42.300 F1000.000
G1 X38.675 Y42.150 F1000.000
G1 X38.231 Y41.881 F1000.000
G1 X37.825 Y41.562 F1000.000
G1 X37.344 Y41.156 F1000.000
G1 X36.938 Y40.675 F1000.000
G1 X36.606 Y40.231 F1000.000
G1 X36.300 Y39.788 F1000.000
G1 X35.981 Y39.244 F1000.000
G1 X35.706 Y38.675 F1000.000
G1 X35.231 Y37.513 F1000.000
G1 X35.050 Y36.913 F1000.000
G1 X34.725 Y35.694 F1000.000
G1 X34.581 Y35.081 F1000.000
G1 X34.462 Y34.462 F1000.000
G1 X34.306 Y33.212 F1000.000
G1 X34.263 Y32.587 F1000.000
G1 X34.244 Y31.962 F1000.000
G1 X34.244 Y31.337 F1000.000
G1 X34.269 Y30.712 F1000.000
G1 X34.319 Y30.087 F1000.000
G1 X34.394 Y29.462 F1000.000
G1 X34.531 Y28.850 F1000.000
G1 X34.800 Y28.069 F1000.000
G1 X34.925 Y27.788 F1000.000
G1 X34.994 Y27.712 F1000.000
G1 X35.075 Y27.650 F1000.000
G1 X35.169 Y27.619 F1000.000
G1 X35.169 Y27.619 F1000.000
G1 X35.494 Y27.669 F1000.000
G1 X35.700 Y27.756 F1000.000
G1 X35.875 Y27.881 F1000.000
G0 X35.944 Y27.962
G0 X36.038 Y28.156
G0 X39.681 Y41.350
G1 X39.719 Y41.494 F1000.000
G1 X39.806 Y41.844 F1000.000
G1 X39.806 Y41.944 F1000.000
G1 X39.788 Y42.038 F1000.000
G1 X39.731 Y42.119 F1000.000
G1 X39.663 Y42.188 F1000.000
G1 X39.475 Y42.288 F1000.000
G1 X39.263 Y42.350 F1000.000
G1 X39.044 Y42.381 F1000.000
G1 X39.044 Y42.381 F1000.000
G1 X37.644 Y42.369 F1000.000
G1 X37.144 Y42.300 F1000.000
G1 X36.650 Y42.150 F1000.000
G1 X36.125 Y41.806 F1000.000
G1 X35.325 Y41.125 F1000.000
G1 X34.913 Y40.650 F1000.000
G1 X34.531 Y40.150 F1000.000
G1 X34.181 Y39.625 F1000.000
G1 X33.881 Y39.069 F1000.000
G1 X33.369 Y37.919 F1000.000
G1 X33.138 Y37.337 F1000.000
G1 X32.763 Y36.138 F1000.000
G1 X32.612 Y35.525 F1000.000
G1 X32.494 Y34.906 F1000.000
G1 X32.394 Y34.288 F1000.000
G1 X32.244 Y33.038 F1000.000
G1 X32.206 Y32.413 F1000.000
G1 X32.181 Y31.163 F1000.000
G1 X32.200 Y30.538 F1000.000
G1 X32.275 Y29.913 F1000.000
G1 X32.388 Y29.294 F1000.000
G1 X32.525 Y28.681 F1000.000
G1 X32.781 Y27.894 F1000.000
G1 X32.825 Y27.800 F1000.000
G1 X32.969 Y27.663 F1000.000
G1 X33.056 Y27.619 F1000.000
G1 X33.056 Y27.619 F1000.000
G1 X33.381 Y27.669 F1000.000
G1 X33.587 Y27.756 F1000.000
G1 X33.763 Y27.881 F1000.000
G0 X33.831 Y27.962
G0 X33.925 Y28.156
G0 X37.650 Y41.350
G1 X37.688 Y41.494 F1000.000
G1 X37.781 Y41.844 F1000.000
G1 X37.781 Y41.944 F1000.000
G1 X37.756 Y42.038 F1000.000
G1 X37.706 Y42.119 F1000.000
G1 X37.638 Y42.188 F1000.000
G1 X37.450 Y42.288 F1000.000
G1 X37.237 Y42.350 F1000.000
G1 X37.019 Y42.381 F1000.000
G1 X37.019 Y42.381 F1000.000
G1 X35.619 Y42.369 F1000.000
G1 X35.019 Y42.269 F1000.000
G1 X34.625 Y42.131 F1000.000
G1 X34.019 Y41.725 F1000.000
G1 X33.300 Y41.112 F1000.000
G1 X32.888 Y40.638 F1000.000
G1 X32.506 Y40.138 F1000.000
G1 X32.175 Y39.669 F1000.000
G1 X31.863 Y39.119 F1000.000
G1 X31.587 Y38.550 F1000.000
G1 X31.106 Y37.388 F1000.000
G1 X30.925 Y36.788 F1000.000
G1 X30.762 Y36.181 F1000.000
G1 X30.481 Y34.956 F1000.000
G1 X30.375 Y34.337 F1000.000
G1 X30.206 Y33.087 F1000.000
G1 X30.119 Y31.837 F1000.000
G1 X30.100 Y31.212 F1000.000
G1 X30.188 Y29.962 F1000.000
G1 X30.269 Y29.337 F1000.000
G1 X30.413 Y28.725 F1000.000
G1 X30.650 Y28.038 F1000.000
G1 X30.738 Y27.850 F1000.000
G1 X30.794 Y27.762 F1000.000
G1 X30.938 Y27.631 F1000.000
G1 X31.031 Y27.619 F1000.000
G1 X31.031 Y27.619 F1000.000
G1 X31.356 Y27.669 F1000.000
G1 X31.562 Y27.756 F1000.000
G1 X31.738 Y27.881 F1000.000
G0 X31.806 Y27.962
G0 X31.900 Y28.156
G0 X35.625 Y41.350
G1 X35.663 Y41.494 F1000.000
G1 X35.756 Y41.844 F1000.000
G1 X35.756 Y41.944 F1000.000
G1 X35.731 Y42.038 F1000.000
G1 X35.681 Y42.119 F1000.000
G1 X35.612 Y42.188 F1000.000
G1 X35.425 Y42.288 F1000.000
G1 X35.212 Y42.350 F1000.000
G1 X34.994 Y42.381 F1000.000
G1 X34.994 Y42.381 F1000.000
G1 X33.594 Y42.369 F1000.000
G1 X32.994 Y42.269 F1000.000
G1 X32.694 Y42.169 F1000.000
G1 X32.156 Y41.850 F1000.000
G1 X31.750 Y41.525 F1000.000
G1 X31.275 Y41.112 F1000.000
G1 X30.850 Y40.650 F1000.000
G1 X30.137 Y39.700 F1000.000
G1 X29.812 Y39.163 F1000.000
G1 X29.531 Y38.600 F1000.000
G1 X29.275 Y38.025 F1000.000
G1 X28.869 Y36.837 F1000.000
G1 X28.556 Y35.619 F1000.000
G1 X28.306 Y34.381 F1000.000
G1 X28.200 Y33.763 F1000.000
G1 X28.113 Y33.138 F1000.000
G1 X28.044 Y31.887 F1000.000
G1 X28.038 Y31.262 F1000.000
G1 X28.062 Y30.637 F1000.000
G1 X28.106 Y30.012 F1000.000
G1 X28.331 Y28.775 F1000.000
G1 X28.637 Y27.900 F1000.000
G1 X28.681 Y27.806 F1000.000
G1 X28.819 Y27.663 F1000.000
G1 X28.906 Y27.619 F1000.000
G1 X28.906 Y27.619 F1000.000
G1 X29.231 Y27.669 F1000.000
G1 X29.438 Y27.756 F1000.000
G1 X29.613 Y27.881 F1000.000
G0 X29.681 Y27.962
G0 X29.775 Y28.156
G0 X33.600 Y41.350
G1 X33.638 Y41.494 F1000.000
G1 X33.731 Y41.844 F1000.000
G1 X33.731 Y41.944 F1000.000
G1 X33.706 Y42.038 F1000.000
G1 X33.656 Y42.119 F1000.000
G1 X33.587 Y42.188 F1000.000
G1 X33.400 Y42.288 F1000.000
G1 X33.188 Y42.350 F1000.000
G1 X32.969 Y42.381 F1000.000
G1 X32.969 Y42.381 F1000.000
G1 X31.569 Y42.369 F1000.000
G1 X31.069 Y42.300 F1000.000
G1 X30.575 Y42.150 F1000.000
G1 X29.719 Y41.569 F1000.000
G1 X29.231 Y41.169 F1000.000
G1 X28.806 Y40.700 F1000.000
G1 X28.438 Y40.212 F1000.000
G1 X28.137 Y39.769 F1000.000
G1 X27.837 Y39.269 F1000.000
G1 X27.306 Y38.131 F1000.000
G1 X26.869 Y36.950 F1000.000
G1 X26.688 Y36.350 F1000.000
G1 X26.531 Y35.737 F1000.000
G1 X26.394 Y35.125 F1000.000
G1 X26.175 Y33.888 F1000.000
G1 X26.094 Y33.263 F1000.000
G1 X25.981 Y32.013 F1000.000
G1 X25.956 Y31.387 F1000.000
G1 X26.019 Y30.137 F1000.000
G1 X26.119 Y29.519 F1000.000
G1 X26.244 Y28.906 F1000.000
G1 X26.431 Y28.206 F1000.000
G1 X26.594 Y27.831 F1000.000
G1 X26.656 Y27.750 F1000.000
G1 X26.812 Y27.619 F1000.000
G1 X26.812 Y27.619 F1000.000
G1 X27.137 Y27.669 F1000.000
G1 X27.344 Y27.756 F1000.000
G1 X27.519 Y27.881 F1000.000
G0 X27.587 Y27.962
G0 X27.725 Y28.256
G0 X31.562 Y41.350
G1 X31.606 Y41.494 F1000.000
G1 X31.700 Y41.844 F1000.000
G1 X31.706 Y41.944 F1000.000
G1 X31.681 Y42.038 F1000.000
G1 X31.631 Y42.119 F1000.000
G1 X31.562 Y42.188 F1000.000
G1 X31.375 Y42.288 F1000.000
G1 X31.163 Y42.350 F1000.000
G1 X30.944 Y42.381 F1000.000
G1 X30.944 Y42.381 F1000.000
G1 X29.444 Y42.369 F1000.000
G1 X28.844 Y42.256 F1000.000
G1 X28.456 Y42.112 F1000.000
G1 X27.938 Y41.769 F1000.000
G1 X27.212 Y41.163 F1000.000
G1 X26.788 Y40.700 F1000.000
G1 X26.400 Y40.200 F1000.000
G1 X26.062 Y39.700 F1000.000
G1 X25.475 Y38.625 F1000.000
G1 X25.000 Y37.462 F1000.000
G1 X24.606 Y36.269 F1000.000
G1 X24.444 Y35.663 F1000.000
G1 X24.306 Y35.050 F1000.000
G1 X24.188 Y34.431 F1000.000
G1 X24.094 Y33.812 F1000.000
G1 X24.025 Y33.188 F1000.000
G1 X23.975 Y32.562 F1000.000
G1 X23.950 Y31.938 F1000.000
G1 X23.950 Y31.312 F1000.000
G1 X23.975 Y30.688 F1000.000
G1 X24.025 Y30.062 F1000.000
G1 X24.094 Y29.438 F1000.000
G1 X24.219 Y28.825 F1000.000
G1 X24.519 Y27.950 F1000.000
G1 X24.613 Y27.769 F1000.000
G1 X24.756 Y27.631 F1000.000
G1 X24.850 Y27.619 F1000.000
G1 X24.850 Y27.619 F1000.000
G1 X25.175 Y27.669 F1000.000
G1 X25.381 Y27.756 F1000.000
G1 X25.556 Y27.881 F1000.000
G0 X25.625 Y27.962
G0 X25.762 Y28.256
G0 X29.550 Y41.350
G1 X29.587 Y41.494 F1000.000
G1 X29.681 Y41.844 F1000.000
G1 X29.681 Y41.944 F1000.000
G1 X29.656 Y42.038 F1000.000
G1 X29.606 Y42.119 F1000.000
G1 X29.538 Y42.188 F1000.000
G1 X29.350 Y42.288 F1000.000
G1 X29.137 Y42.350 F1000.000
G1 X28.919 Y42.381 F1000.000
G1 X28.919 Y42.381 F1000.000
G1 X27.319 Y42.356 F1000.000
G1 X26.719 Y42.237 F1000.000
G1 X26.425 Y42.125 F1000.000
G1 X25.988 Y41.837 F1000.000
G1 X25.663 Y41.575 F1000.000
G1 X25.188 Y41.163 F1000.000
G1 X24.762 Y40.700 F1000.000
G1 X24.019 Y39.725 F1000.000
G1 X23.700 Y39.181 F1000.000
G1 X23.419 Y38.619 F1000.000
G1 X22.925 Y37.456 F1000.000
G1 X22.544 Y36.256 F1000.000
G1 X22.387 Y35.650 F1000.000
G1 X22.150 Y34.419 F1000.000
G1 X22.069 Y33.794 F1000.000
G1 X21.925 Y31.919 F1000.000
G1 X21.913 Y30.669 F1000.000
G1 X22.044 Y29.419 F1000.000
G1 X22.181 Y28.806 F1000.000
G1 X22.444 Y28.025 F1000.000
G1 X22.525 Y27.837 F1000.000
G1 X22.581 Y27.750 F1000.000
G1 X22.731 Y27.619 F1000.000
G1 X22.731 Y27.619 F1000.000
G1 X23.056 Y27.669 F1000.000
G1 X23.262 Y27.756 F1000.000
G1 X23.438 Y27.881 F1000.000
G0 X23.506 Y27.962
G0 X23.644 Y28.256
G0 X27.512 Y41.350
G1 X27.556 Y41.494 F1000.000
G1 X27.650 Y41.844 F1000.000
G1 X27.656 Y41.944 F1000.000
G1 X27.631 Y42.038 F1000.000
G1 X27.581 Y42.119 F1000.000
G1 X27.512 Y42.188 F1000.000
G1 X27.325 Y42.288 F1000.000
G1 X27.113 Y42.350 F1000.000
G1 X26.894 Y42.381 F1000.000
G1 X26.894 Y42.381 F1000.000
G1 X25.294 Y42.356 F1000.000
G1 X24.694 Y42.237 F1000.000
G1 X24.400 Y42.131 F1000.000
G1 X23.544 Y41.544 F1000.000
G1 X23.062 Y41.144 F1000.000
G1 X22.644 Y40.675 F1000.000
G1 X21.950 Y39.744 F1000.000
G1 X21.637 Y39.194 F1000.000
G1 X21.106 Y38.056 F1000.000
G1 X20.869 Y37.475 F1000.000
G1 X20.494 Y36.275 F1000.000
G1 X20.344 Y35.663 F1000.000
G1 X20.225 Y35.044 F1000.000
G1 X20.025 Y33.806 F1000.000
G1 X19.887 Y31.931 F1000.000
G1 X19.887 Y30.681 F1000.000
G1 X19.913 Y30.056 F1000.000
G1 X20.006 Y29.438 F1000.000
G1 X20.144 Y28.825 F1000.000
G1 X20.400 Y28.038 F1000.000
G1 X20.531 Y27.762 F1000.000
G1 X20.681 Y27.631 F1000.000
G1 X20.775 Y27.619 F1000.000
G1 X20.775 Y27.619 F1000.000
G1 X21.100 Y27.669 F1000.000
G1 X21.306 Y27.756 F1000.000
G1 X21.481 Y27.881 F1000.000
G0 X21.550 Y27.962
G0 X21.688 Y28.256
G0 X25.494 Y41.350
G1 X25.531 Y41.494 F1000.000
G1 X25.625 Y41.844 F1000.000
G1 X25.631 Y41.944 F1000.000
G1 X25.606 Y42.038 F1000.000
G1 X25.556 Y42.119 F1000.000
G1 X25.488 Y42.188 F1000.000
G1 X25.300 Y42.288 F1000.000
G1 X25.087 Y42.350 F1000.000
G1 X24.869 Y42.381 F1000.000
G1 X24.869 Y42.381 F1000.000
G1 X23.269 Y42.362 F1000.000
G1 X22.669 Y42.256 F1000.000
G1 X22.281 Y42.112 F1000.000
G1 X21.681 Y41.712 F1000.000
G1 X21.031 Y41.181 F1000.000
G1 X20.613 Y40.712 F1000.000
G1 X19.944 Y39.819 F1000.000
G1 X19.350 Y38.731 F1000.000
G1 X18.856 Y37.575 F1000.000
G1 X18.650 Y36.981 F1000.000
G1 X18.481 Y36.375 F1000.000
G1 X18.331 Y35.763 F1000.000
G1 X18.094 Y34.525 F1000.000
G1 X18.012 Y33.900 F1000.000
G1 X17.894 Y32.650 F1000.000
G1 X17.869 Y32.025 F1000.000
G1 X17.863 Y31.400 F1000.000
G1 X17.875 Y30.775 F1000.000
G1 X17.913 Y30.150 F1000.000
G1 X17.969 Y29.525 F1000.000
G1 X18.094 Y28.913 F1000.000
G1 X18.406 Y27.938 F1000.000
G1 X18.506 Y27.762 F1000.000
G1 X18.650 Y27.631 F1000.000
G1 X18.744 Y27.619 F1000.000
G1 X18.744 Y27.619 F1000.000
G1 X19.069 Y27.669 F1000.000
G1 X19.275 Y27.756 F1000.000
G1 X19.450 Y27.881 F1000.000
G0 X19.519 Y27.962
G0 X19.613 Y28.156
G0 X23.256 Y41.350
G1 X23.294 Y41.494 F1000.000
G1 X23.381 Y41.844 F1000.000
G1 X23.381 Y41.944 F1000.000
G1 X23.363 Y42.038 F1000.000
G1 X23.306 Y42.119 F1000.000
G1 X23.238 Y42.188 F1000.000
G1 X23.050 Y42.288 F1000.000
G1 X22.837 Y42.350 F1000.000
G1 X22.619 Y42.381 F1000.000
G1 X22.619 Y42.381 F1000.000
G1 X21.219 Y42.362 F1000.000
G1 X20.619 Y42.256 F1000.000
G1 X20.231 Y42.112 F1000.000
G1 X19.631 Y41.706 F1000.000
G1 X19.006 Y41.144 F1000.000
G1 X18.581 Y40.681 F1000.000
G1 X18.194 Y40.188 F1000.000
G1 X17.837 Y39.669 F1000.000
G1 X17.519 Y39.125 F1000.000
G1 X17.244 Y38.562 F1000.000
G1 X16.462 Y36.400 F1000.000
G1 X16.125 Y34.500 F1000.000
G1 X16.137 Y28.900 F1000.000
G1 X16.250 Y28.100 F1000.000
G1 X16.331 Y27.800 F1000.000
G1 X16.475 Y27.663 F1000.000
G1 X16.562 Y27.619 F1000.000
G1 X16.562 Y27.619 F1000.000
G1 X16.887 Y27.669 F1000.000
G1 X17.094 Y27.756 F1000.000
G1 X17.269 Y27.881 F1000.000
G0 X17.337 Y27.962
G0 X17.431 Y28.156
G0 X21.225 Y41.350
G1 X21.262 Y41.494 F1000.000
G1 X21.356 Y41.844 F1000.000
G1 X21.356 Y41.944 F1000.000
G1 X21.331 Y42.038 F1000.000
G1 X21.281 Y42.119 F1000.000
G1 X21.212 Y42.188 F1000.000
G1 X21.025 Y42.288 F1000.000
G1 X20.812 Y42.350 F1000.000
G1 X20.594 Y42.381 F1000.000
G1 X20.594 Y42.381 F1000.000
G1 X19.194 Y42.362 F1000.000
G1 X18.594 Y42.250 F1000.000
G1 X18.294 Y42.150 F1000.000
G1 X17.762 Y41.825 F1000.000
G1 X17.438 Y41.562 F1000.000
G1 X16.969 Y41.144 F1000.000
G1 X16.350 Y40.438 F1000.000
G1 X16.131 Y39.969 F1000.000
G1 X16.119 Y36.769 F1000.000
G1 X16.119 Y36.769 F1000.000
G1 X16.163 Y36.425 F1000.000
G1 X16.238 Y36.212 F1000.000
G1 X16.288 Y36.125 F1000.000
G1 X16.344 Y36.075 F1000.000
G0 X16.400 Y36.062
G0 X16.456 Y36.094
G0 X16.606 Y36.331
G0 X19.094 Y41.438
G1 X19.150 Y41.550 F1000.000
G1 X19.288 Y41.862 F1000.000
G1 X19.306 Y41.956 F1000.000
G1 X19.294 Y42.044 F1000.000
G1 X19.250 Y42.119 F1000.000
G1 X19.181 Y42.188 F1000.000
G1 X19.000 Y42.294 F1000.000
G1 X18.788 Y42.350 F1000.000
G1 X18.569 Y42.381 F1000.000
G1 X18.569 Y42.381 F1000.000
G1 X17.169 Y42.362 F1000.000
G1 X16.569 Y42.250 F1000.000
G1 X16.275 Y42.150 F1000.000
G1 X16.144 Y41.987 F1000.000
G1 X16.119 Y41.888 F1000.000
G1 X16.119 Y41.587 F1000.000
G1 X16.119 Y41.587 F1000.000
G1 X16.131 Y41.525 F1000.000
G0 X16.156 Y41.500
G1 X16.188 Y41.519 F1000.000
G1 X16.587 Y42.094 F1000.000
G1 X16.631 Y42.181 F1000.000
G1 X16.656 Y42.250 F1000.000
G1 X16.637 Y42.306 F1000.000
G1 X16.544 Y42.381 F1000.000
G1 X16.544 Y42.381 F1000.000
G1 X16.244 Y42.375 F1000.000
G1 X16.163 Y42.312 F1000.000
G1 X16.119 Y42.219 F1000.000
G1 X16.119 Y42.219 F1000.000
G1 X16.137 Y42.112 F1000.000
G0 X16.175 Y42.006
G0 X16.288 Y41.825
G0 X17.275 Y40.744
G0 X17.331 Y40.650
G0 X17.375 Y40.556
G0 X17.400 Y40.344
G0 X17.262 Y38.544
G0 X17.394 Y34.706
G0 X17.244 Y30.025
G0 X17.188 Y29.806
G0 X17.019 Y29.506
G0 X16.869 Y29.312
G1 X16.794 Y29.212 F1000.000
G1 X16.294 Y28.556 F1000.000
G1 X16.181 Y28.331 F1000.000
G1 X16.119 Y28.106 F1000.000
G1 X16.119 Y28.106 F1000.000
G1 X16.119 Y27.806 F1000.000
G1 X16.150 Y27.706 F1000.000
G1 X16.225 Y27.637 F1000.000
G1 X16.225 Y27.637 F1000.000
G1 X16.281 Y27.619 F1000.000
G1 X16.300 Y27.619 F1000.000
G1 X16.269 Y27.594 F1000.000
G1 X16.269 Y27.569 F1000.000
G1 X16.331 Y27.506 F1000.000
G1 X16.331 Y27.506 F1000.000
G1 X141.762 Y27.512 F1000.000
G1 X141.831 Y27.538 F1000.000
G1 X141.938 Y27.631 F1000.000
G1 X141.994 Y27.756 F1000.000
G1 X141.994 Y42.169 F1000.000
G1 X141.963 Y42.331 F1000.000
G1 X141.869 Y42.438 F1000.000
G1 X141.744 Y42.494 F1000.000
G1 X16.319 Y42.494 F1000.000
G1 X16.169 Y42.462 F1000.000
G1 X16.062 Y42.369 F1000.000
G1 X16.006 Y42.256 F1000.000
G1 X16.006 Y27.800 F1000.000
G1 X16.038 Y27.669 F1000.000
G1 X16.131 Y27.562 F1000.000
G1 X16.244 Y27.506 F1000.000
G1 X16.337 Y27.500 F1000.000
G1 X16.331 Y27.506 F1000.000
G0 Z5.000
(Helix to depth: -10.000000)
G0 X80.632 Y33.616 Z5.000
G0 X80.632 Y33.616 Z3.000
G1 X80.632 Y33.616 Z-5.000 F100.000
G1 X80.632 Y33.616 Z-5.000 F100.000
G1 X80.876 Y33.887 Z-5.032 F100.000
G1 X81.063 Y34.202 Z-5.064 F100.000
G1 X81.186 Y34.546 Z-5.097 F100.000
G1 X81.238 Y34.908 Z-5.129 F100.000
G1 X81.219 Y35.273 Z-5.161 F100.000
G1 X81.129 Y35.628 Z-5.193 F100.000
G1 X80.972 Y35.958 Z-5.225 F100.000
G1 X80.753 Y36.251 Z-5.258 F100.000
G1 X80.481 Y36.495 Z-5.290 F100.000
G1 X80.167 Y36.682 Z-5.322 F100.000
G1 X79.822 Y36.804 Z-5.354 F100.000
G1 X79.461 Y36.857 Z-5.387 F100.000
G1 X79.096 Y36.838 Z-5.419 F100.000
G1 X78.741 Y36.748 Z-5.451 F100.000
G1 X78.411 Y36.590 Z-5.483 F100.000
G1 X78.118 Y36.372 Z-5.515 F100.000
G1 X77.874 Y36.100 Z-5.548 F100.000
G1 X77.687 Y35.786 Z-5.580 F100.000
G1 X77.564 Y35.441 Z-5.612 F100.000
G1 X77.512 Y35.079 Z-5.644 F100.000
G1 X77.531 Y34.714 Z-5.676 F100.000
G1 X77.621 Y34.360 Z-5.709 F100.000
G1 X77.778 Y34.030 Z-5.741 F100.000
G1 X77.997 Y33.737 Z-5.773 F100.000
G1 X78.269 Y33.492 Z-5.805 F100.000
G1 X78.583 Y33.305 Z-5.837 F100.000
G1 X78.928 Y33.183 Z-5.870 F100.000
G1 X79.289 Y33.131 Z-5.902 F100.000
G1 X79.654 Y33.150 Z-5.934 F100.000
G1 X80.009 Y33.240 Z-5.966 F100.000
G1 X80.339 Y33.397 Z-5.998 F100.000
G1 X80.632 Y33.616 Z-6.031 F100.000
G1 X80.876 Y33.887 Z-6.063 F100.000
G1 X81.063 Y34.202 Z-6.095 F100.000
G1 X81.186 Y34.546 Z-6.127 F100.000
G1 X81.238 Y34.908 Z-6.160 F100.000
G1 X81.219 Y35.273 Z-6.192 F100.000
G1 X81.129 Y35.628 Z-6.224 F100.000
G1 X80.972 Y35.958 Z-6.256 F100.000
G1 X80.753 Y36.251 Z-6.288 F100.000
G1 X80.481 Y36.495 Z-6.321 F100.000
G1 X80.167 Y36.682 Z-6.353 F100.000
G1 X79.822 Y36.804 Z-6.385 F100.000
G1 X79.461 Y36.857 Z-6.417 F100.000
G1 X79.096 Y36.838 Z-6.449 F100.000
G1 X78.741 Y36.748 Z-6.482 F100.000
G1 X78.411 Y36.590 Z-6.514 F100.000
G1 X78.118 Y36.372 Z-6.546 F100.000
G1 X77.874 Y36.100 Z-6.578 F100.000
G1 X77.687 Y35.786 Z-6.610 F100.000
G1 X77.564 Y35.441 Z-6.643 F100.000
G1 X77.512 Y35.079 Z-6.675 F100.000
G1 X77.531 Y34.714 Z-6.707 F100.000
G1 X77.621 Y34.360 Z-6.739 F100.000
G1 X77.778 Y34.030 Z-6.772 F100.000
G1 X77.997 Y33.737 Z-6.804 F100.000
G1 X78.269 Y33.492 Z-6.836 F100.000
G1 X78.583 Y33.305 Z-6.868 F100.000
G1 X78.928 Y33.183 Z-6.900 F100.000
G1 X79.289 Y33.131 Z-6.933 F100.000
G1 X79.654 Y33.150 Z-6.965 F100.000
G1 X80.009 Y33.240 Z-6.997 F100.000
G1 X80.339 Y33.397 Z-7.029 F100.000
G1 X80.632 Y33.616 Z-7.061 F100.000
G1 X80.876 Y33.887 Z-7.094 F100.000
G1 X81.063 Y34.202 Z-7.126 F100.000
G1 X81.186 Y34.546 Z-7.158 F100.000
G1 X81.238 Y34.908 Z-7.190 F100.000
G1 X81.219 Y35.273 Z-7.222 F100.000
G1 X81.129 Y35.628 Z-7.255 F100.000
G1 X80.972 Y35.958 Z-7.287 F100.000
G1 X80.753 Y36.251 Z-7.319 F100.000
G1 X80.481 Y36.495 Z-7.351 F100.000
G1 X80.167 Y36.682 Z-7.383 F100.000
G1 X79.822 Y36.804 Z-7.416 F100.000
G1 X79.461 Y36.857 Z-7.448 F100.000
G1 X79.096 Y36.838 Z-7.480 F100.000
G1 X78.741 Y36.748 Z-7.512 F100.000
G1 X78.411 Y36.590 Z-7.545 F100.000
G1 X78.118 Y36.372 Z-7.577 F100.000
G1 X77.874 Y36.100 Z-7.609 F100.000
G1 X77.687 Y35.786 Z-7.641 F100.000
G1 X77.564 Y35.441 Z-7.673 F100.000
G1 X77.512 Y35.079 Z-7.706 F100.000
G1 X77.531 Y34.714 Z-7.738 F100.000
G1 X77.621 Y34.360 Z-7.770 F100.000
G1 X77.778 Y34.030 Z-7.802 F100.000
G1 X77.997 Y33.737 Z-7.834 F100.000
G1 X78.269 Y33.492 Z-7.867 F100.000
G1 X78.583 Y33.305 Z-7.899 F100.000
G1 X78.928 Y33.183 Z-7.931 F100.000
G1 X79.289 Y33.131 Z-7.963 F100.000
G1 X79.654 Y33.150 Z-7.995 F100.000
G1 X80.009 Y33.240 Z-8.028 F100.000
G1 X80.339 Y33.397 Z-8.060 F100.000
G1 X80.632 Y33.616 Z-8.092 F100.000
G1 X80.876 Y33.887 Z-8.124 F100.000
G1 X81.063 Y34.202 Z-8.157 F100.000
G1 X81.186 Y34.546 Z-8.189 F100.000
G1 X81.238 Y34.908 Z-8.221 F100.000
G1 X81.219 Y35.273 Z-8.253 F100.000
G1 X81.129 Y35.628 Z-8.285 F100.000
G1 X80.972 Y35.958 Z-8.318 F100.000
G1 X80.753 Y36.251 Z-8.350 F100.000
G1 X80.481 Y36.495 Z-8.382 F100.000
G1 X80.167 Y36.682 Z-8.414 F100.000
G1 X79.822 Y36.804 Z-8.446 F100.000
G1 X79.461 Y36.857 Z-8.479 F100.000
G1 X79.096 Y36.838 Z-8.511 F100.000
G1 X78.741 Y36.748 Z-8.543 F100.000
G1 X78.411 Y36.590 Z-8.575 F100.000
G1 X78.118 Y36.372 Z-8.607 F100.000
G1 X77.874 Y36.100 Z-8.640 F100.000
G1 X77.687 Y35.786 Z-8.672 F100.000
G1 X77.564 Y35.441 Z-8.704 F100.000
G1 X77.512 Y35.079 Z-8.736 F100.000
G1 X77.531 Y34.714 Z-8.769 F100.000
G1 X77.621 Y34.360 Z-8.801 F100.000
G1 X77.778 Y34.030 Z-8.833 F100.000
G1 X77.997 Y33.737 Z-8.865 F100.000
G1 X78.269 Y33.492 Z-8.897 F100.000
G1 X78.583 Y33.305 Z-8.930 F100.000
G1 X78.928 Y33.183 Z-8.962 F100.000
G1 X79.289 Y33.131 Z-8.994 F100.000
G1 X79.654 Y33.150 Z-9.026 F100.000
G1 X80.009 Y33.240 Z-9.058 F100.000
G1 X80.339 Y33.397 Z-9.091 F100.000
G1 X80.632 Y33.616 Z-9.123 F100.000
G1 X80.876 Y33.887 Z-9.155 F100.000
G1 X81.063 Y34.202 Z-9.187 F100.000
G1 X81.186 Y34.546 Z-9.219 F100.000
G1 X81.238 Y34.908 Z-9.252 F100.000
G1 X81.219 Y35.273 Z-9.284 F100.000
G1 X81.129 Y35.628 Z-9.316 F100.000
G1 X80.972 Y35.958 Z-9.348 F100.000
G1 X80.753 Y36.251 Z-9.380 F100.000
G1 X80.481 Y36.495 Z-9.413 F100.000
G1 X80.167 Y36.682 Z-9.445 F100.000
G1 X79.822 Y36.804 Z-9.477 F100.000
G1 X79.461 Y36.857 Z-9.509 F100.000
G1 X79.096 Y36.838 Z-9.542 F100.000
G1 X78.741 Y36.748 Z-9.574 F100.000
G1 X78.411 Y36.590 Z-9.606 F100.000
G1 X78.118 Y36.372 Z-9.638 F100.000
G1 X77.874 Y36.100 Z-9.670 F100.000
G1 X77.687 Y35.786 Z-9.703 F100.000
G1 X77.564 Y35.441 Z-9.735 F100.000
G1 X77.512 Y35.079 Z-9.767 F100.000
G1 X77.531 Y34.714 Z-9.799 F100.000
G1 X77.621 Y34.360 Z-9.831 F100.000
G1 X77.778 Y34.030 Z-9.864 F100.000
G1 X77.997 Y33.737 Z-9.896 F100.000
G1 X78.269 Y33.492 Z-9.928 F100.000
G1 X78.583 Y33.305 Z-9.960 F100.000
G1 X78.928 Y33.183 Z-9.992 F100.000
G1 X79.289 Y33.131 Z-10.000 F1000.000
G1 X79.654 Y33.150 Z-10.000 F1000.000
G1 X80.009 Y33.240 Z-10.000 F1000.000
G1 X80.339 Y33.397 Z-10.000 F1000.000
G1 X80.632 Y33.616 Z-10.000 F1000.000
G1 X80.876 Y33.887 Z-10.000 F1000.000
G1 X81.063 Y34.202 Z-10.000 F1000.000
G1 X81.186 Y34.546 Z-10.000 F1000.000
G1 X81.238 Y34.908 Z-10.000 F1000.000
G1 X81.219 Y35.273 Z-10.000 F1000.000
G1 X81.129 Y35.628 Z-10.000 F1000.000
G1 X80.972 Y35.958 Z-10.000 F1000.000
G1 X80.753 Y36.251 Z-10.000 F1000.000
G1 X80.481 Y36.495 Z-10.000 F1000.000
G1 X80.167 Y36.682 Z-10.000 F1000.000
G1 X79.822 Y36.804 Z-10.000 F1000.000
G1 X79.461 Y36.857 Z-10.000 F1000.000
G1 X79.096 Y36.838 Z-10.000 F1000.000
G1 X78.741 Y36.748 Z-10.000 F1000.000
G1 X78.411 Y36.590 Z-10.000 F1000.000
G1 X78.118 Y36.372 Z-10.000 F1000.000
G1 X77.874 Y36.100 Z-10.000 F1000.000
G1 X77.687 Y35.786 Z-10.000 F1000.000
G1 X77.564 Y35.441 Z-10.000 F1000.000
G1 X77.512 Y35.079 Z-10.000 F1000.000
G1 X77.531 Y34.714 Z-10.000 F1000.000
G1 X77.621 Y34.360 Z-10.000 F1000.000
G1 X77.778 Y34.030 Z-10.000 F1000.000
G1 X77.997 Y33.737 Z-10.000 F1000.000
G1 X78.269 Y33.492 Z-10.000 F1000.000
G1 X78.583 Y33.305 Z-10.000 F1000.000
G1 X78.928 Y33.183 Z-10.000 F1000.000
(Adaptive - depth: -10.000000)
G1 X79.375 Y33.119 F1000.000
G1 X79.444 Y33.044 F1000.000
G1 X79.550 Y32.875 F1000.000
G1 X79.713 Y32.756 F1000.000
G1 X79.888 Y32.669 F1000.000
G1 X80.075 Y32.612 F1000.000
G1 X80.625 Y32.606 F1000.000
G1 X80.944 Y32.681 F1000.000
G1 X81.169 Y32.775 F1000.000
G1 X81.388 Y32.888 F1000.000
G1 X81.675 Y33.100 F1000.000
G1 X81.938 Y33.381 F1000.000
G1 X82.125 Y33.631 F1000.000
G1 X82.294 Y33.944 F1000.000
G1 X82.425 Y34.263 F1000.000
G1 X82.525 Y34.669 F1000.000
G1 X82.569 Y35.038 F1000.000
G1 X82.569 Y35.413 F1000.000
G1 X82.513 Y35.800 F1000.000
G1 X82.412 Y36.163 F1000.000
G1 X82.263 Y36.519 F1000.000
G1 X82.069 Y36.850 F1000.000
G1 X81.831 Y37.156 F1000.000
G1 X81.556 Y37.431 F1000.000
G1 X81.250 Y37.669 F1000.000
G1 X80.912 Y37.862 F1000.000
G1 X80.556 Y38.013 F1000.000
G1 X80.188 Y38.138 F1000.000
G1 X79.706 Y38.225 F1000.000
G1 X79.294 Y38.256 F1000.000
G1 X78.869 Y38.219 F1000.000
G1 X78.525 Y38.150 F1000.000
G1 X78.150 Y38.025 F1000.000
G1 X77.800 Y37.850 F1000.000
G1 X77.481 Y37.644 F1000.000
G1 X77.169 Y37.413 F1000.000
G1 X76.775 Y37.013 F1000.000
G1 X76.531 Y36.663 F1000.000
G1 X76.369 Y36.362 F1000.000
G1 X76.250 Y36.044 F1000.000
G1 X76.144 Y35.694 F1000.000
G1 X76.081 Y35.194 F1000.000
G1 X76.075 Y34.806 F1000.000
G1 X76.112 Y34.394 F1000.000
G1 X76.206 Y33.969 F1000.000
G1 X76.344 Y33.581 F1000.000
G1 X76.544 Y33.219 F1000.000
G1 X76.975 Y32.638 F1000.000
G1 X77.350 Y32.237 F1000.000
G1 X77.831 Y31.837 F1000.000
G1 X78.256 Y31.556 F1000.000
G1 X78.644 Y31.337 F1000.000
G1 X79.131 Y31.163 F1000.000
G1 X79.519 Y31.062 F1000.000
G1 X79.963 Y30.994 F1000.000
G1 X80.406 Y30.981 F1000.000
G1 X80.831 Y31.019 F1000.000
G1 X81.256 Y31.125 F1000.000
G1 X81.600 Y31.250 F1000.000
G1 X81.963 Y31.431 F1000.000
G1 X82.312 Y31.631 F1000.000
G1 X82.756 Y31.981 F1000.000
G1 X83.075 Y32.294 F1000.000
G1 X83.362 Y32.656 F1000.000
G1 X83.575 Y32.994 F1000.000
G1 X83.763 Y33.388 F1000.000
G1 X83.925 Y33.781 F1000.000
G1 X84.069 Y34.337 F1000.000
G1 X84.144 Y34.806 F1000.000
G1 X84.175 Y35.288 F1000.000
G1 X84.150 Y35.794 F1000.000
G1 X84.050 Y36.275 F1000.000
G1 X83.944 Y36.638 F1000.000
G1 X83.769 Y37.050 F1000.000
G1 X83.575 Y37.444 F1000.000
G1 X83.231 Y37.962 F1000.000
G1 X82.919 Y38.344 F1000.000
G1 X82.550 Y38.688 F1000.000
G1 X82.237 Y38.931 F1000.000
G1 X81.450 Y39.388 F1000.000
G1 X80.869 Y39.619 F1000.000
G1 X80.375 Y39.769 F1000.000
G1 X79.850 Y39.850 F1000.000
G1 X79.450 Y39.875 F1000.000
G1 X78.975 Y39.856 F1000.000
G1 X78.075 Y39.706 F1000.000
G1 X77.475 Y39.513 F1000.000
G1 X76.987 Y39.288 F1000.000
G1 X76.600 Y39.056 F1000.000
G1 X76.250 Y38.794 F1000.000
G1 X75.894 Y38.487 F1000.000
G1 X75.506 Y38.056 F1000.000
G1 X75.213 Y37.669 F1000.000
G1 X74.944 Y37.237 F1000.000
G1 X74.719 Y36.769 F1000.000
G1 X74.569 Y36.288 F1000.000
G1 X74.475 Y35.888 F1000.000
G1 X74.388 Y34.962 F1000.000
G1 X74.419 Y34.337 F1000.000
G1 X74.513 Y33.819 F1000.000
G1 X74.612 Y33.394 F1000.000
G1 X74.800 Y32.888 F1000.000
G1 X75.019 Y32.444 F1000.000
G1 X75.269 Y32.025 F1000.000
G1 X75.550 Y31.606 F1000.000
G1 X75.956 Y31.131 F1000.000
G1 X76.344 Y30.744 F1000.000
G1 X76.781 Y30.363 F1000.000
G1 X77.275 Y30.012 F1000.000
G1 X77.787 Y29.744 F1000.000
G1 X78.188 Y29.569 F1000.000
G1 X78.694 Y29.406 F1000.000
G1 X79.194 Y29.306 F1000.000
G1 X79.681 Y29.250 F1000.000
G1 X80.188 Y29.219 F1000.000
G1 X80.806 Y29.256 F1000.000
G1 X81.356 Y29.331 F1000.000
G1 X81.912 Y29.488 F1000.000
G1 X82.306 Y29.631 F1000.000
G1 X82.763 Y29.856 F1000.000
G1 X83.569 Y30.387 F1000.000
G1 X84.031 Y30.800 F1000.000
G1 X84.406 Y31.194 F1000.000
G1 X84.769 Y31.625 F1000.000
G1 X85.112 Y32.125 F1000.000
G1 X85.369 Y32.631 F1000.000
G1 X85.544 Y33.050 F1000.000
G1 X85.700 Y33.562 F1000.000
G1 X85.888 Y34.562 F1000.000
G1 X85.919 Y35.181 F1000.000
G1 X85.900 Y35.756 F1000.000
G1 X85.812 Y36.356 F1000.000
G1 X85.706 Y36.831 F1000.000
G1 X85.537 Y37.350 F1000.000
G1 X85.319 Y37.844 F1000.000
G1 X85.069 Y38.300 F1000.000
G1 X84.787 Y38.763 F1000.000
G1 X84.406 Y39.256 F1000.000
G1 X84.013 Y39.694 F1000.000
G1 X83.575 Y40.119 F1000.000
G1 X83.069 Y40.487 F1000.000
G1 X82.669 Y40.744 F1000.000
G1 X82.162 Y41.006 F1000.000
G1 X81.644 Y41.212 F1000.000
G1 X81.131 Y41.369 F1000.000
G1 X80.588 Y41.481 F1000.000
G1 X80.050 Y41.569 F1000.000
G1 X79.425 Y41.606 F1000.000
G1 X78.925 Y41.581 F1000.000
G1 X78.300 Y41.525 F1000.000
G1 X77.681 Y41.406 F1000.000
G1 X77.075 Y41.231 F1000.000
G1 X76.550 Y41.025 F1000.000
G1 X76.069 Y40.794 F1000.000
G1 X75.569 Y40.487 F1000.000
G1 X75.119 Y40.156 F1000.000
G1 X74.694 Y39.788 F1000.000
G1 X74.300 Y39.375 F1000.000
G1 X73.944 Y38.931 F1000.000
G1 X73.631 Y38.456 F1000.000
G1 X73.362 Y37.956 F1000.000
G1 X73.138 Y37.438 F1000.000
G1 X72.956 Y36.900 F1000.000
G1 X72.794 Y36.356 F1000.000
G1 X72.675 Y35.737 F1000.000
G1 X72.600 Y35.112 F1000.000
G1 X72.606 Y34.487 F1000.000
G1 X72.638 Y34.013 F1000.000
G1 X72.731 Y33.438 F1000.000
G1 X72.881 Y32.894 F1000.000
G1 X73.062 Y32.388 F1000.000
G1 X73.269 Y31.869 F1000.000
G1 X73.562 Y31.312 F1000.000
G1 X73.888 Y30.788 F1000.000
G1 X74.250 Y30.275 F1000.000
G1 X74.656 Y29.800 F1000.000
G1 X75.094 Y29.350 F1000.000
G1 X75.562 Y28.938 F1000.000
G1 X76.062 Y28.562 F1000.000
G1 X76.938 Y28.044 F1000.000
G1 X77.494 Y27.819 F1000.000
G1 X78.338 Y27.625 F1000.000
G1 X82.088 Y27.644 F1000.000
G1 X82.931 Y27.806 F1000.000
G1 X83.638 Y28.137 F1000.000
G1 X84.644 Y28.794 F1000.000
G1 X85.112 Y29.200 F1000.000
G1 X85.556 Y29.637 F1000.000
G1 X85.950 Y30.081 F1000.000
G1 X86.319 Y30.581 F1000.000
G1 X86.650 Y31.106 F1000.000
G1 X86.938 Y31.656 F1000.000
G1 X87.181 Y32.225 F1000.000
G1 X87.381 Y32.812 F1000.000
G1 X87.537 Y33.413 F1000.000
G1 X87.644 Y34.025 F1000.000
G1 X87.700 Y34.644 F1000.000
G1 X87.713 Y35.263 F1000.000
G1 X87.675 Y35.881 F1000.000
G1 X87.588 Y36.500 F1000.000
G1 X87.481 Y37.112 F1000.000
G1 X87.319 Y37.712 F1000.000
G1 X87.119 Y38.306 F1000.000
G1 X86.856 Y38.869 F1000.000
G1 X86.606 Y39.337 F1000.000
G1 X86.269 Y39.862 F1000.000
